;FLAVOR:Marlin
;TIME:7575
;Filament used: 9.62498m
;Layer height: 0.2
;Generated with Cura_SteamEngine 3.6.0
M140 S55
M105
M190 S55
M104 S205
M105
M109 S205
M82 ;absolute extrusion mode
G21 ;metric values
G90 ;absolute positioning
M82 ;set extruder to absolute mode
M107 ;start with the fan off
G28 X0 Y0 ;move X/Y to min endstops
G28 Z0 ;move Z to min endstops
G1 Z15.0 F9000 ;move the platform down 15mm
G92 E0 ;zero the extruded length
G1 F200 E3 ;extrude 3mm of feed stock
G92 E0 ;zero the extruded length again
G1 F9000
;Put printing message on LCD screen
M117 Printing...
G92 E0
G1 F1200 E-4
;LAYER_COUNT:182
;LAYER:0
M107
G0 F3750 X94.827 Y126.397 Z0.3
;TYPE:SKIRT
G1 F1200 E0
G1 F3000 X95.147 Y126.188 E0.01573
G1 X100.887 Y122.798 E0.29011
G1 X105.372 Y119.763 E0.51301
G1 X109.661 Y116.493 E0.735
G1 X113.761 Y112.982 E0.95717
G1 X117.699 Y109.204 E1.18178
G1 X119.525 Y107.299 E1.2904
G1 X123.119 Y103.214 E1.51434
G1 X126.454 Y98.958 E1.73689
G1 X129.553 Y94.507 E1.96012
G1 X132.398 Y89.883 E2.18358
G1 X133.563 Y87.809 E2.28149
G1 X133.886 Y87.316 E2.30575
G1 X134.273 Y86.87 E2.33006
G1 X134.716 Y86.482 E2.35429
G1 X135.208 Y86.156 E2.37859
G1 X135.739 Y85.901 E2.40283
G1 X136.3 Y85.719 E2.42711
G1 X136.88 Y85.615 E2.45136
G1 X137.356 Y85.589 E2.47098
G1 X165.34 Y85.589 E3.62279
G1 X165.928 Y85.629 E3.64704
G1 X166.506 Y85.748 E3.67133
G1 X167.062 Y85.944 E3.6956
G1 X167.586 Y86.214 E3.71986
G1 X168.069 Y86.552 E3.74413
G1 X168.502 Y86.952 E3.76839
G1 X168.877 Y87.407 E3.79266
G1 X169.187 Y87.908 E3.81691
G1 X169.426 Y88.447 E3.84117
G1 X169.59 Y89.013 E3.86543
G1 X169.677 Y89.597 E3.88973
G1 X169.69 Y89.939 E3.90382
G1 X169.69 Y157.92 E6.70188
G1 X169.65 Y158.508 E6.72613
G1 X169.531 Y159.086 E6.75042
G1 X169.335 Y159.642 E6.77469
G1 X169.065 Y160.166 E6.79895
G1 X168.727 Y160.649 E6.82321
G1 X168.327 Y161.082 E6.84748
G1 X167.872 Y161.457 E6.87174
G1 X167.371 Y161.767 E6.89599
G1 X166.832 Y162.006 E6.92026
G1 X166.266 Y162.17 E6.94452
G1 X165.682 Y162.257 E6.96882
G1 X165.34 Y162.27 E6.98291
G1 X97.358 Y162.27 E9.78101
G1 X96.77 Y162.23 E9.80526
G1 X96.192 Y162.111 E9.82955
G1 X95.636 Y161.915 E9.85382
G1 X95.112 Y161.645 E9.87808
G1 X94.629 Y161.307 E9.90234
G1 X94.196 Y160.907 E9.92661
G1 X93.821 Y160.452 E9.95087
G1 X93.511 Y159.951 E9.97512
G1 X93.272 Y159.412 E9.99939
G1 X93.108 Y158.846 E10.02365
G1 X93.021 Y158.262 E10.04795
G1 X93.008 Y157.92 E10.06204
G1 X93.009 Y129.934 E11.21392
G1 X93.049 Y129.346 E11.23818
G1 X93.168 Y128.768 E11.26247
G1 X93.364 Y128.212 E11.28673
G1 X93.634 Y127.688 E11.311
G1 X93.972 Y127.205 E11.33526
G1 X94.372 Y126.772 E11.35952
G1 X94.827 Y126.397 E11.38379
G0 F3750 X95.299 Y126.447
G1 F3000 X101.048 Y123.051 E11.65862
G1 X105.536 Y120.014 E11.88166
G1 X109.855 Y116.722 E12.10518
G1 X113.971 Y113.198 E12.3282
G1 X117.887 Y109.44 E12.55159
G1 X119.755 Y107.492 E12.66268
G1 X123.351 Y103.403 E12.8868
G1 X126.707 Y99.121 E13.11073
G1 X129.79 Y94.694 E13.33277
G1 X132.669 Y90.014 E13.55893
G1 X133.825 Y87.956 E13.65608
G1 X134.138 Y87.481 E13.6795
G1 X134.514 Y87.054 E13.70292
G1 X134.946 Y86.684 E13.72633
G1 X135.426 Y86.379 E13.74973
G1 X135.944 Y86.143 E13.77316
G1 X136.489 Y85.983 E13.79654
G1 X137.052 Y85.9 E13.81996
G1 X137.356 Y85.889 E13.83249
G1 X165.34 Y85.889 E14.98429
G1 X165.907 Y85.929 E15.00769
G1 X166.464 Y86.048 E15.03113
G1 X166.998 Y86.244 E15.05454
G1 X167.499 Y86.513 E15.07795
G1 X167.958 Y86.849 E15.10136
G1 X168.365 Y87.246 E15.12476
G1 X168.713 Y87.697 E15.14821
G1 X168.993 Y88.191 E15.17158
G1 X169.202 Y88.72 E15.19499
G1 X169.335 Y89.274 E15.21844
G1 X169.39 Y89.939 E15.24591
G1 X169.39 Y157.92 E18.04396
G1 X169.35 Y158.487 E18.06736
G1 X169.231 Y159.044 E18.0908
G1 X169.035 Y159.578 E18.11422
G1 X168.766 Y160.079 E18.13762
G1 X168.43 Y160.538 E18.16103
G1 X168.033 Y160.945 E18.18444
G1 X167.582 Y161.293 E18.20788
G1 X167.088 Y161.573 E18.23125
G1 X166.559 Y161.782 E18.25467
G1 X166.005 Y161.915 E18.27812
G1 X165.34 Y161.97 E18.30558
G1 X97.358 Y161.97 E21.10368
G1 X96.791 Y161.93 E21.12707
G1 X96.234 Y161.811 E21.15052
G1 X95.7 Y161.615 E21.17393
G1 X95.199 Y161.346 E21.19734
G1 X94.74 Y161.01 E21.22075
G1 X94.333 Y160.613 E21.24415
G1 X93.985 Y160.162 E21.2676
G1 X93.705 Y159.668 E21.29097
G1 X93.496 Y159.139 E21.31438
G1 X93.363 Y158.585 E21.33783
G1 X93.308 Y157.92 E21.36529
G1 X93.309 Y129.934 E22.51718
G1 X93.349 Y129.366 E22.54062
G1 X93.468 Y128.81 E22.56402
G1 X93.664 Y128.276 E22.58743
G1 X93.933 Y127.775 E22.61084
G1 X94.269 Y127.316 E22.63425
G1 X94.666 Y126.909 E22.65765
G1 X95.299 Y126.447 E22.68991
G0 F3750 X94.96 Y127.052
G1 F3000 X95.452 Y126.705 E22.71469
G1 X101.203 Y123.308 E22.98961
G1 X105.724 Y120.249 E23.21428
G1 X110.038 Y116.96 E23.43756
G1 X114.17 Y113.422 E23.66146
G1 X118.112 Y109.64 E23.88631
G1 X119.962 Y107.71 E23.99635
G1 X123.584 Y103.593 E24.22204
G1 X126.946 Y99.303 E24.44638
G1 X130.048 Y94.848 E24.66982
G1 X132.918 Y90.182 E24.89529
G1 X134.086 Y88.103 E24.99344
G1 X134.389 Y87.646 E25.01601
G1 X134.754 Y87.239 E25.03851
G1 X135.175 Y86.889 E25.06104
G1 X135.642 Y86.604 E25.08356
G1 X136.146 Y86.39 E25.1061
G1 X136.675 Y86.251 E25.12861
G1 X137.356 Y86.189 E25.15676
G1 X165.34 Y86.189 E26.30856
G1 X165.886 Y86.229 E26.33109
G1 X166.42 Y86.348 E26.35361
G1 X166.931 Y86.543 E26.37612
G1 X167.409 Y86.811 E26.39868
G1 X167.842 Y87.146 E26.42121
G1 X168.222 Y87.54 E26.44374
G1 X168.541 Y87.985 E26.46628
G1 X168.791 Y88.472 E26.48881
G1 X168.968 Y88.99 E26.51134
G1 X169.067 Y89.528 E26.53386
G1 X169.09 Y89.939 E26.5508
G1 X169.09 Y157.92 E29.34886
G1 X169.05 Y158.466 E29.37139
G1 X168.931 Y159 E29.39391
G1 X168.736 Y159.511 E29.41642
G1 X168.468 Y159.989 E29.43898
G1 X168.133 Y160.422 E29.46151
G1 X167.739 Y160.802 E29.48404
G1 X167.294 Y161.121 E29.50658
G1 X166.807 Y161.371 E29.52911
G1 X166.289 Y161.548 E29.55164
G1 X165.751 Y161.647 E29.57415
G1 X165.34 Y161.67 E29.5911
G1 X97.358 Y161.67 E32.3892
G1 X96.812 Y161.63 E32.41173
G1 X96.278 Y161.511 E32.43425
G1 X95.767 Y161.316 E32.45676
G1 X95.289 Y161.048 E32.47932
G1 X94.856 Y160.713 E32.50185
G1 X94.476 Y160.319 E32.52438
G1 X94.157 Y159.874 E32.54691
G1 X93.907 Y159.387 E32.56945
G1 X93.73 Y158.869 E32.59198
G1 X93.631 Y158.331 E32.61449
G1 X93.608 Y157.92 E32.63144
G1 X93.609 Y129.934 E33.78332
G1 X93.649 Y129.388 E33.80586
G1 X93.768 Y128.854 E33.82837
G1 X93.963 Y128.342 E33.85092
G1 X94.231 Y127.865 E33.87344
G1 X94.566 Y127.432 E33.89598
G1 X94.96 Y127.052 E33.91851
G0 F3750 X95.252 Y127.202
G1 F3000 X95.605 Y126.963 E33.93605
G1 X101.369 Y123.559 E34.21158
G1 X105.879 Y120.507 E34.43572
G1 X110.24 Y117.182 E34.66143
G1 X114.37 Y113.645 E34.88524
G1 X118.323 Y109.853 E35.1107
G1 X120.192 Y107.903 E35.22188
G1 X123.817 Y103.782 E35.44778
G1 X127.176 Y99.496 E35.67191
G1 X130.306 Y95.002 E35.89732
G1 X133.179 Y90.332 E36.123
G1 X134.348 Y88.25 E36.22128
G1 X134.639 Y87.813 E36.24289
G1 X134.993 Y87.425 E36.2645
G1 X135.402 Y87.096 E36.28611
G1 X135.856 Y86.832 E36.30772
G1 X136.345 Y86.641 E36.32933
G1 X136.857 Y86.525 E36.35094
G1 X137.356 Y86.489 E36.37153
G1 X165.34 Y86.489 E37.52334
G1 X165.863 Y86.529 E37.54493
G1 X166.375 Y86.648 E37.56656
G1 X166.862 Y86.843 E37.58815
G1 X167.314 Y87.11 E37.60976
G1 X167.721 Y87.442 E37.63138
G1 X168.072 Y87.832 E37.65297
G1 X168.36 Y88.271 E37.67458
G1 X168.578 Y88.749 E37.69621
G1 X168.721 Y89.254 E37.71781
G1 X168.79 Y89.939 E37.74615
G1 X168.79 Y157.92 E40.54421
G1 X168.75 Y158.443 E40.5658
G1 X168.631 Y158.955 E40.58743
G1 X168.436 Y159.442 E40.60902
G1 X168.169 Y159.894 E40.63063
G1 X167.837 Y160.301 E40.65225
G1 X167.447 Y160.652 E40.67384
G1 X167.008 Y160.94 E40.69546
G1 X166.53 Y161.158 E40.71708
G1 X166.025 Y161.301 E40.73868
G1 X165.34 Y161.37 E40.76702
G1 X97.358 Y161.37 E43.56512
G1 X96.835 Y161.33 E43.58671
G1 X96.323 Y161.211 E43.60834
G1 X95.836 Y161.016 E43.62993
G1 X95.384 Y160.749 E43.65154
G1 X94.977 Y160.417 E43.67316
G1 X94.626 Y160.027 E43.69476
G1 X94.338 Y159.588 E43.71637
G1 X94.12 Y159.11 E43.73799
G1 X93.977 Y158.605 E43.75959
G1 X93.908 Y157.92 E43.78793
G1 X93.909 Y129.934 E44.93982
G1 X93.949 Y129.41 E44.96145
G1 X94.068 Y128.899 E44.98304
G1 X94.263 Y128.412 E45.00463
G1 X94.53 Y127.96 E45.02624
G1 X94.862 Y127.553 E45.04786
G1 X95.252 Y127.202 E45.06946
G0 F3750 X95.543 Y127.36
G1 F3000 X95.757 Y127.222 E45.07994
G1 X101.527 Y123.814 E45.35576
G1 X106.059 Y120.748 E45.58097
G1 X110.413 Y117.428 E45.80633
G1 X114.58 Y113.86 E46.03213
G1 X118.536 Y110.064 E46.25779
G1 X120.41 Y108.109 E46.36926
G1 X124.049 Y103.972 E46.59603
G1 X127.42 Y99.67 E46.82099
G1 X130.55 Y95.177 E47.04636
G1 X133.45 Y90.463 E47.27417
G1 X134.61 Y88.397 E47.37169
G1 X134.889 Y87.98 E47.39234
G1 X135.231 Y87.613 E47.41299
G1 X135.627 Y87.306 E47.43361
G1 X136.067 Y87.065 E47.45426
G1 X136.54 Y86.897 E47.47492
G1 X137.033 Y86.806 E47.49555
G1 X137.356 Y86.789 E47.50887
G1 X165.34 Y86.789 E48.66067
G1 X165.84 Y86.829 E48.68132
G1 X166.327 Y86.948 E48.70195
G1 X166.79 Y87.142 E48.72261
G1 X167.215 Y87.408 E48.74325
G1 X167.593 Y87.738 E48.7639
G1 X167.914 Y88.123 E48.78453
G1 X168.17 Y88.555 E48.8052
G1 X168.353 Y89.022 E48.82585
G1 X168.461 Y89.511 E48.84646
G1 X168.49 Y89.939 E48.86412
G1 X168.49 Y157.92 E51.66217
G1 X168.45 Y158.42 E51.68282
G1 X168.331 Y158.907 E51.70345
G1 X168.137 Y159.37 E51.72412
G1 X167.871 Y159.795 E51.74475
G1 X167.541 Y160.173 E51.76541
G1 X167.156 Y160.494 E51.78604
G1 X166.724 Y160.75 E51.80671
G1 X166.257 Y160.933 E51.82735
G1 X165.768 Y161.041 E51.84796
G1 X165.34 Y161.07 E51.86562
G1 X97.358 Y161.07 E54.66372
G1 X96.858 Y161.03 E54.68436
G1 X96.371 Y160.911 E54.705
G1 X95.908 Y160.717 E54.72566
G1 X95.483 Y160.451 E54.7463
G1 X95.105 Y160.121 E54.76695
G1 X94.784 Y159.736 E54.78758
G1 X94.528 Y159.304 E54.80825
G1 X94.345 Y158.837 E54.82889
G1 X94.237 Y158.348 E54.84951
G1 X94.208 Y157.92 E54.86716
G1 X94.209 Y129.934 E56.01905
G1 X94.249 Y129.434 E56.0397
G1 X94.368 Y128.947 E56.06033
G1 X94.562 Y128.484 E56.08099
G1 X94.828 Y128.059 E56.10163
G1 X95.158 Y127.681 E56.12228
G1 X95.543 Y127.36 E56.14291
G1 F1200 E52.14291
G1 F300 Z0.6
;MESH:Object 2
G0 F3750 X98.099 Y130.679 Z0.6
;TYPE:WALL-INNER
G1 F300 Z0.3
G1 F1200 E56.14291
G1 F3000 X117.66 Y130.679 E56.94803
G1 X138.099 Y110.24 E58.13775
G1 X138.099 Y90.679 E58.94287
G1 X164.599 Y90.679 E60.03359
G1 X164.599 Y157.179 E62.7707
G1 X98.099 Y157.179 E65.5078
G1 X98.099 Y130.679 E66.59852
G0 F3750 X97.799 Y130.379
G1 F3000 X117.536 Y130.379 E67.41088
G1 X137.799 Y110.116 E68.59036
G1 X137.799 Y90.379 E69.40272
G1 X164.899 Y90.379 E70.51814
G1 X164.899 Y157.479 E73.27994
G1 X97.799 Y157.479 E76.04174
G1 X97.799 Y130.379 E77.15716
G0 F3750 X97.549 Y130.129
;TYPE:WALL-OUTER
G1 F3000 X117.432 Y130.129 E77.97553
G1 X137.549 Y110.012 E79.1465
G1 X137.549 Y90.129 E79.96488
G1 X165.149 Y90.129 E81.10088
G1 X165.149 Y157.729 E83.88325
G1 X97.549 Y157.729 E86.66563
G1 X97.549 Y130.129 E87.80163
G0 F3750 X97.749 Y130.129
G0 X98.389 Y130.969
;TYPE:SKIN
G1 F3000 X117.78 Y130.969 E88.59975
G1 X138.389 Y110.36 E89.79936
G1 X138.389 Y90.969 E90.59749
G1 X164.309 Y90.969 E91.66434
G1 X164.309 Y156.889 E94.37757
G1 X98.389 Y156.889 E97.0908
G1 X98.389 Y130.969 E98.15765
G1 F1200 E94.15765
G0 F3750 X98.628 Y156.752
G1 F1200 E98.15765
G1 F3000 X98.524 Y156.648 E98.1637
G0 F3750 X98.524 Y156.223
G1 F3000 X99.052 Y156.752 E98.19446
G0 F3750 X99.477 Y156.752
G1 F3000 X98.524 Y155.799 E98.24994
G0 F3750 X98.524 Y155.375
G1 F3000 X99.901 Y156.752 E98.33009
G0 F3750 X100.325 Y156.752
G1 F3000 X98.524 Y154.951 E98.43492
G0 F3750 X98.524 Y154.526
G1 F3000 X100.749 Y156.752 E98.56446
G0 F3750 X101.174 Y156.752
G1 F3000 X98.524 Y154.102 E98.71872
G0 F3750 X98.524 Y153.678
G1 F3000 X101.598 Y156.752 E98.89765
G0 F3750 X102.022 Y156.752
G1 F3000 X98.524 Y153.254 E99.10126
G0 F3750 X98.524 Y152.829
G1 F3000 X102.447 Y156.752 E99.32961
G0 F3750 X102.871 Y156.752
G1 F3000 X98.524 Y152.405 E99.58264
G0 F3750 X98.524 Y151.981
G1 F3000 X103.295 Y156.752 E99.86035
G0 F3750 X103.719 Y156.752
G1 F3000 X98.524 Y151.557 E100.16275
G0 F3750 X98.524 Y151.132
G1 F3000 X104.144 Y156.752 E100.48988
G0 F3750 X104.568 Y156.752
G1 F3000 X98.524 Y150.708 E100.84169
G0 F3750 X98.524 Y150.284
G1 F3000 X104.992 Y156.752 E101.21818
G0 F3750 X105.416 Y156.752
G1 F3000 X98.524 Y149.859 E101.61938
G0 F3750 X98.524 Y149.435
G1 F3000 X105.841 Y156.752 E102.04529
G0 F3750 X106.265 Y156.752
G1 F3000 X98.524 Y149.011 E102.49588
G0 F3750 X98.524 Y148.587
G1 F3000 X106.689 Y156.752 E102.97115
G0 F3750 X107.113 Y156.752
G1 F3000 X98.524 Y148.162 E103.47113
G0 F3750 X98.524 Y147.738
G1 F3000 X107.538 Y156.752 E103.99581
G0 F3750 X107.962 Y156.752
G1 F3000 X98.524 Y147.314 E104.54518
G0 F3750 X98.524 Y146.89
G1 F3000 X108.386 Y156.752 E105.11923
G0 F3750 X108.811 Y156.752
G1 F3000 X98.524 Y146.465 E105.71802
G0 F3750 X98.524 Y146.041
G1 F3000 X109.235 Y156.752 E106.34149
G0 F3750 X109.659 Y156.752
G1 F3000 X98.524 Y145.617 E106.98964
G0 F3750 X98.524 Y145.193
G1 F3000 X110.083 Y156.752 E107.66247
G0 F3750 X110.508 Y156.752
G1 F3000 X98.524 Y144.768 E108.36003
G0 F3750 X98.524 Y144.344
G1 F3000 X110.932 Y156.752 E109.08228
G0 F3750 X111.356 Y156.752
G1 F3000 X98.524 Y143.92 E109.82921
G0 F3750 X98.524 Y143.496
G1 F3000 X111.78 Y156.752 E110.60082
G0 F3750 X112.205 Y156.752
G1 F3000 X98.524 Y143.071 E111.39716
G0 F3750 X98.524 Y142.647
G1 F3000 X112.629 Y156.752 E112.21819
G0 F3750 X113.053 Y156.752
G1 F3000 X98.524 Y142.223 E113.0639
G0 F3750 X98.524 Y141.798
G1 F3000 X113.477 Y156.752 E113.93431
G0 F3750 X113.902 Y156.752
G1 F3000 X98.524 Y141.374 E114.82944
G0 F3750 X98.524 Y140.95
G1 F3000 X114.326 Y156.752 E115.74924
G0 F3750 X114.75 Y156.752
G1 F3000 X98.524 Y140.526 E116.69373
G0 F3750 X98.524 Y140.101
G1 F3000 X115.174 Y156.752 E117.66293
G0 F3750 X115.599 Y156.752
G1 F3000 X98.524 Y139.677 E118.65683
G0 F3750 X98.524 Y139.253
G1 F3000 X116.023 Y156.752 E119.67542
G0 F3750 X116.447 Y156.752
G1 F3000 X98.524 Y138.829 E120.71868
G0 F3750 X98.524 Y138.404
G1 F3000 X116.872 Y156.752 E121.78669
G0 F3750 X117.296 Y156.752
G1 F3000 X98.524 Y137.98 E122.87937
G0 F3750 X98.524 Y137.556
G1 F3000 X117.72 Y156.752 E123.99674
G0 F3750 X118.144 Y156.752
G1 F3000 X98.524 Y137.132 E125.13878
G0 F3750 X98.524 Y136.707
G1 F3000 X118.569 Y156.752 E126.30556
G0 F3750 X118.993 Y156.752
G1 F3000 X98.524 Y136.283 E127.49703
G0 F3750 X98.524 Y135.859
G1 F3000 X119.417 Y156.752 E128.71317
G0 F3750 X119.841 Y156.752
G1 F3000 X98.524 Y135.434 E129.95403
G0 F3750 X98.524 Y135.01
G1 F3000 X120.266 Y156.752 E131.21959
G0 F3750 X120.69 Y156.752
G1 F3000 X98.524 Y134.586 E132.50983
G0 F3750 X98.524 Y134.162
G1 F3000 X121.114 Y156.752 E133.82475
G0 F3750 X121.538 Y156.752
G1 F3000 X98.524 Y133.737 E135.16439
G0 F3750 X98.524 Y133.313
G1 F3000 X121.963 Y156.752 E136.52873
G0 F3750 X122.387 Y156.752
G1 F3000 X98.524 Y132.889 E137.91775
G0 F3750 X98.524 Y132.465
G1 F3000 X122.811 Y156.752 E139.33145
G0 F3750 X123.235 Y156.752
G1 F3000 X98.524 Y132.04 E140.76987
G0 F3750 X98.524 Y131.616
G1 F3000 X123.66 Y156.752 E142.23299
G0 F3750 X124.084 Y156.752
G1 F3000 X98.524 Y131.192 E143.72079
G0 F3750 X98.859 Y131.103
G1 F3000 X124.508 Y156.752 E145.21377
G0 F3750 X124.933 Y156.752
G1 F3000 X99.283 Y131.103 E146.70678
G0 F3750 X99.707 Y131.103
G1 F3000 X125.357 Y156.752 E148.1998
G0 F3750 X125.781 Y156.752
G1 F3000 X100.131 Y131.103 E149.69281
G0 F3750 X100.556 Y131.103
G1 F3000 X126.205 Y156.752 E151.18579
G0 F3750 X126.63 Y156.752
G1 F3000 X100.98 Y131.103 E152.6788
G0 F3750 X101.404 Y131.103
G1 F3000 X127.054 Y156.752 E154.17181
G0 F3750 X127.478 Y156.752
G1 F3000 X101.829 Y131.103 E155.66479
G0 F3750 X102.253 Y131.103
G1 F3000 X127.902 Y156.752 E157.15778
G0 F3750 X128.327 Y156.752
G1 F3000 X102.677 Y131.103 E158.65079
G0 F3750 X103.101 Y131.103
G1 F3000 X128.751 Y156.752 E160.1438
G0 F3750 X129.175 Y156.752
G1 F3000 X103.526 Y131.103 E161.63678
G0 F3750 X103.95 Y131.103
G1 F3000 X129.599 Y156.752 E163.12976
G0 F3750 X130.024 Y156.752
G1 F3000 X104.374 Y131.103 E164.62277
G0 F3750 X104.798 Y131.103
