;FLAVOR:Marlin
;TIME:15166
;Filament used: 45.0966m
;Layer height: 0.3
;Generated with Cura_SteamEngine 3.6.0
M140 S55
M105
M190 S55
M104 S210
M105
M109 S210
M82 ;absolute extrusion mode
G21 ;metric values
G90 ;absolute positioning
M82 ;set extruder to absolute mode
M107 ;start with the fan off
G28 X0 Y0 ;move X/Y to min endstops
G28 Z0 ;move Z to min endstops
G1 Z15.0 F9000 ;move the platform down 15mm
G92 E0 ;zero the extruded length
G1 F200 E3 ;extrude 3mm of feed stock
G92 E0 ;zero the extruded length again
G1 F9000
;Put printing message on LCD screen
M117 Printing...
G92 E0
G1 F1500 E-5
;LAYER_COUNT:92
;LAYER:0
M107
G0 F4500 X42.122 Y13.01 Z0.2
;TYPE:SKIRT
G1 F1500 E0
G1 F3600 X42.318 Y12.48 E0.02161
G1 X42.587 Y11.982 E0.04326
G1 X42.923 Y11.528 E0.06487
G1 X43.319 Y11.125 E0.08648
G1 X43.769 Y10.782 E0.10812
G1 X44.263 Y10.506 E0.12976
G1 X44.79 Y10.303 E0.15136
G1 X45.341 Y10.176 E0.17299
G1 X45.963 Y10.127 E0.19686
G1 X113.949 Y10.128 E2.79726
G1 X114.513 Y10.168 E2.81889
G1 X114.992 Y10.266 E2.83759
G1 X119.636 Y11.52 E3.02158
G1 X122.258 Y12.126 E3.12452
G1 X124.862 Y12.647 E3.22609
G1 X130.282 Y13.498 E3.43594
G1 X135.67 Y14.033 E3.64304
G1 X141.117 Y14.265 E3.85157
G1 X167.985 Y14.286 E4.87925
G1 X168.549 Y14.326 E4.90088
G1 X169.102 Y14.446 E4.92252
G1 X169.632 Y14.642 E4.94414
G1 X170.129 Y14.911 E4.96575
G1 X170.583 Y15.247 E4.98736
G1 X170.986 Y15.645 E5.00902
G1 X171.328 Y16.094 E5.03061
G1 X171.604 Y16.588 E5.05225
G1 X171.807 Y17.116 E5.07389
G1 X171.934 Y17.666 E5.09548
G1 X171.982 Y18.286 E5.11927
G1 X171.99 Y177.129 E11.19488
G1 X171.95 Y177.693 E11.2165
G1 X171.831 Y178.245 E11.2381
G1 X171.635 Y178.776 E11.25975
G1 X171.367 Y179.273 E11.28135
G1 X171.031 Y179.728 E11.30298
G1 X170.634 Y180.131 E11.32462
G1 X170.184 Y180.473 E11.34624
G1 X169.691 Y180.749 E11.36785
G1 X169.164 Y180.953 E11.38946
G1 X168.613 Y181.08 E11.41109
G1 X167.99 Y181.129 E11.435
G1 X100.003 Y181.128 E14.03544
G1 X99.439 Y181.088 E14.05707
G1 X99.04 Y181.01 E14.07262
G1 X92.956 Y179.501 E14.31238
G1 X90.288 Y178.965 E14.41646
G1 X87.672 Y178.519 E14.51797
G1 X82.25 Y177.827 E14.72704
G1 X76.824 Y177.444 E14.93509
G1 X72.756 Y177.358 E15.09073
G1 X46.017 Y177.348 E16.11347
G1 X45.453 Y177.308 E16.1351
G1 X44.9 Y177.189 E16.15673
G1 X44.37 Y176.993 E16.17835
G1 X43.872 Y176.724 E16.2
G1 X43.418 Y176.388 E16.2216
G1 X43.015 Y175.991 E16.24324
G1 X42.673 Y175.541 E16.26486
G1 X42.397 Y175.047 E16.2865
G1 X42.194 Y174.52 E16.3081
G1 X42.067 Y173.969 E16.32973
G1 X42.018 Y173.349 E16.35352
G1 X42.009 Y105.946 E18.93163
G1 X41.955 Y102.687 E19.0563
G1 X41.954 Y102.621 E19.05882
G1 X41.963 Y14.127 E22.44364
G1 X42.003 Y13.563 E22.46527
G1 X42.122 Y13.01 E22.4869
G0 F4500 X42.522 Y13.069
G1 F3600 X42.717 Y12.569 E22.50743
G1 X42.985 Y12.105 E22.52793
G1 X43.318 Y11.685 E22.54843
G1 X43.71 Y11.319 E22.56894
G1 X44.153 Y11.015 E22.58949
G1 X44.635 Y10.781 E22.60999
G1 X45.147 Y10.621 E22.6305
G1 X45.677 Y10.538 E22.65102
G1 X45.963 Y10.527 E22.66197
G1 X113.949 Y10.528 E25.26238
G1 X114.484 Y10.568 E25.2829
G1 X114.888 Y10.653 E25.29869
G1 X119.5 Y11.899 E25.48142
G1 X122.194 Y12.521 E25.58717
G1 X124.814 Y13.045 E25.68937
G1 X130.215 Y13.893 E25.89848
G1 X135.632 Y14.431 E26.1067
G1 X141.123 Y14.665 E26.31692
G1 X167.985 Y14.686 E27.34436
G1 X168.52 Y14.726 E27.36489
G1 X169.042 Y14.846 E27.38537
G1 X169.542 Y15.041 E27.4059
G1 X170.006 Y15.309 E27.42639
G1 X170.426 Y15.643 E27.44692
G1 X170.792 Y16.035 E27.46743
G1 X171.095 Y16.478 E27.48796
G1 X171.329 Y16.96 E27.50846
G1 X171.489 Y17.472 E27.52897
G1 X171.571 Y18.002 E27.54949
G1 X171.582 Y18.286 E27.56036
G1 X171.59 Y177.129 E33.63597
G1 X171.55 Y177.664 E33.65649
G1 X171.431 Y178.187 E33.677
G1 X171.236 Y178.686 E33.6975
G1 X170.969 Y179.151 E33.718
G1 X170.635 Y179.571 E33.73853
G1 X170.243 Y179.937 E33.75904
G1 X169.801 Y180.24 E33.77954
G1 X169.319 Y180.475 E33.80005
G1 X168.807 Y180.635 E33.82057
G1 X168.277 Y180.718 E33.84109
G1 X167.99 Y180.729 E33.85207
G1 X100.003 Y180.728 E36.45252
G1 X99.468 Y180.688 E36.47304
G1 X99.136 Y180.622 E36.48599
G1 X93.039 Y179.109 E36.72626
G1 X90.369 Y178.574 E36.83042
G1 X87.719 Y178.121 E36.93325
G1 X82.292 Y177.429 E37.14251
G1 X76.84 Y177.044 E37.35156
G1 X72.764 Y176.958 E37.5075
G1 X46.017 Y176.948 E38.53055
G1 X45.482 Y176.908 E38.55107
G1 X44.959 Y176.789 E38.57159
G1 X44.46 Y176.593 E38.59209
G1 X43.995 Y176.326 E38.6126
G1 X43.575 Y175.992 E38.63313
G1 X43.209 Y175.6 E38.65364
G1 X42.906 Y175.158 E38.67414
G1 X42.672 Y174.675 E38.69467
G1 X42.512 Y174.163 E38.71518
G1 X42.429 Y173.633 E38.7357
G1 X42.418 Y173.348 E38.74661
G1 X42.409 Y106.005 E41.32242
G1 X42.354 Y102.681 E41.44958
G1 X42.354 Y102.621 E41.45188
G1 X42.363 Y14.127 E44.8367
G1 X42.403 Y13.592 E44.85722
G1 X42.522 Y13.069 E44.87773
G0 F4500 X42.922 Y13.131
G1 F3600 X43.117 Y12.665 E44.89706
G1 X43.382 Y12.235 E44.91638
G1 X43.713 Y11.852 E44.93574
G1 X44.099 Y11.526 E44.95506
G1 X44.532 Y11.265 E44.9744
G1 X45.001 Y11.075 E44.99376
G1 X45.493 Y10.962 E45.01306
G1 X45.963 Y10.927 E45.03109
G1 X113.949 Y10.928 E47.6315
G1 X114.453 Y10.968 E47.65084
G1 X114.784 Y11.039 E47.66378
G1 X119.416 Y12.29 E47.8473
G1 X122.091 Y12.908 E47.95231
G1 X124.747 Y13.439 E48.05591
G1 X130.167 Y14.29 E48.26576
G1 X135.61 Y14.831 E48.47498
G1 X141.106 Y15.065 E48.68539
G1 X167.984 Y15.086 E49.71345
G1 X168.488 Y15.126 E49.73279
G1 X168.98 Y15.246 E49.75216
G1 X169.446 Y15.441 E49.77148
G1 X169.876 Y15.707 E49.79082
G1 X170.259 Y16.037 E49.81016
G1 X170.584 Y16.424 E49.82949
G1 X170.845 Y16.857 E49.84882
G1 X171.035 Y17.326 E49.86818
G1 X171.148 Y17.818 E49.88749
G1 X171.182 Y18.286 E49.90544
G1 X171.19 Y177.129 E55.98105
G1 X171.15 Y177.633 E56.00038
G1 X171.031 Y178.124 E56.01971
G1 X170.837 Y178.591 E56.03905
G1 X170.571 Y179.021 E56.05839
G1 X170.241 Y179.404 E56.07773
G1 X169.854 Y179.73 E56.09708
G1 X169.421 Y179.991 E56.11642
G1 X168.953 Y180.181 E56.13574
G1 X168.46 Y180.294 E56.15509
G1 X167.99 Y180.329 E56.17311
G1 X100.003 Y180.328 E58.77356
G1 X99.499 Y180.288 E58.7929
G1 X99.232 Y180.234 E58.80332
G1 X93.106 Y178.714 E59.04473
G1 X90.437 Y178.179 E59.14885
G1 X87.791 Y177.727 E59.25153
G1 X82.337 Y177.031 E59.46183
G1 X76.857 Y176.644 E59.67196
G1 X72.772 Y176.558 E59.82824
G1 X46.017 Y176.548 E60.85159
G1 X45.513 Y176.508 E60.87093
G1 X45.021 Y176.389 E60.89029
G1 X44.555 Y176.194 E60.90962
G1 X44.125 Y175.928 E60.92896
G1 X43.742 Y175.598 E60.94829
G1 X43.416 Y175.211 E60.96765
G1 X43.155 Y174.778 E60.98698
G1 X42.966 Y174.309 E61.00633
G1 X42.853 Y173.817 E61.02563
G1 X42.818 Y173.348 E61.04362
G1 X42.809 Y105.998 E63.6197
G1 X42.754 Y102.674 E63.74686
G1 X42.754 Y102.621 E63.74889
G1 X42.763 Y14.127 E67.13371
G1 X42.803 Y13.623 E67.15305
G1 X42.922 Y13.131 E67.17241
G1 F1500 E62.17241
G1 F300 Z0.5
;MESH:18mm_cornerv2.STL(3)(1)
G0 F4500 X46.954 Y15.118 Z0.5
;TYPE:WALL-INNER
G1 F300 Z0.2
G1 F1500 E67.17241
G1 F3600 X112.954 Y15.118 E69.69685
G1 X112.954 Y41.118 E70.69133
G1 X93.539 Y41.118 E71.43394
G1 X72.954 Y61.703 E72.54743
G1 X72.954 Y101.94 E74.08646
G1 X46.954 Y101.94 E75.08094
G1 X46.954 Y15.118 E78.40181
G0 F4500 X46.554 Y14.718
G1 F3600 X113.354 Y14.718 E80.95685
G1 X113.354 Y41.518 E81.98193
G1 X93.705 Y41.518 E82.73349
G1 X73.354 Y61.869 E83.83432
G1 X73.354 Y102.34 E85.3823
G1 X46.554 Y102.34 E86.40738
G1 X46.554 Y14.718 E89.75885
G0 F4500 X46.154 Y14.318
;TYPE:WALL-OUTER
G1 F3600 X113.754 Y14.318 E92.34449
G1 X113.754 Y41.918 E93.40017
G1 X93.871 Y41.918 E94.16068
G1 X73.754 Y62.035 E95.24886
G1 X73.754 Y102.74 E96.80579
G1 X46.154 Y102.74 E97.86146
G1 X46.154 Y14.318 E101.24353
G0 F4500 X46.354 Y14.318
G0 X47.344 Y15.508
;TYPE:SKIN
G1 F3600 X112.564 Y15.508 E103.73814
G1 X112.564 Y40.728 E104.70278
G1 X93.377 Y40.728 E105.43667
G1 X72.564 Y61.541 E106.5625
G1 X72.564 Y101.55 E108.09281
G1 X47.344 Y101.55 E109.05745
G1 X47.344 Y15.508 E112.34849
G1 F1500 E107.34849
G0 F4500 X112.383 Y16.216
G1 F1500 E112.34849
G1 F3600 X111.854 Y15.687 E112.3771
G0 F4500 X111.288 Y15.687
G1 F3600 X112.383 Y16.782 E112.43633
G0 F4500 X112.383 Y17.348
G1 F3600 X110.723 Y15.687 E112.52615
G0 F4500 X110.157 Y15.687
G1 F3600 X112.383 Y17.913 E112.64656
G0 F4500 X112.383 Y18.479
G1 F3600 X109.591 Y15.687 E112.79759
G0 F4500 X109.025 Y15.687
G1 F3600 X112.383 Y19.045 E112.97923
G0 F4500 X112.383 Y19.61
G1 F3600 X108.46 Y15.687 E113.19144
G0 F4500 X107.894 Y15.687
G1 F3600 X112.383 Y20.176 E113.43426
G0 F4500 X112.383 Y20.742
G1 F3600 X107.328 Y15.687 E113.70769
G0 F4500 X106.763 Y15.687
G1 F3600 X112.383 Y21.307 E114.01169
G0 F4500 X112.383 Y21.873
G1 F3600 X106.197 Y15.687 E114.34631
G0 F4500 X105.631 Y15.687
G1 F3600 X112.383 Y22.439 E114.71154
G0 F4500 X112.383 Y23.005
G1 F3600 X105.066 Y15.687 E115.10736
G0 F4500 X104.5 Y15.687
G1 F3600 X112.383 Y23.57 E115.53378
G0 F4500 X112.383 Y24.136
G1 F3600 X103.934 Y15.687 E115.9908
G0 F4500 X103.369 Y15.687
G1 F3600 X112.383 Y24.702 E116.47842
G0 F4500 X112.383 Y25.267
G1 F3600 X102.803 Y15.687 E116.99663
G0 F4500 X102.237 Y15.687
G1 F3600 X112.383 Y25.833 E117.54545
G0 F4500 X112.383 Y26.399
G1 F3600 X101.672 Y15.687 E118.12486
G0 F4500 X101.106 Y15.687
G1 F3600 X112.383 Y26.964 E118.73486
G0 F4500 X112.383 Y27.53
G1 F3600 X100.54 Y15.687 E119.37548
G0 F4500 X99.974 Y15.687
G1 F3600 X112.383 Y28.096 E120.04671
G0 F4500 X112.383 Y28.661
G1 F3600 X99.409 Y15.687 E120.74851
G0 F4500 X98.843 Y15.687
G1 F3600 X112.383 Y29.227 E121.48092
G0 F4500 X112.383 Y29.793
G1 F3600 X98.277 Y15.687 E122.24395
G0 F4500 X97.712 Y15.687
G1 F3600 X112.383 Y30.358 E123.03754
G0 F4500 X112.383 Y30.924
G1 F3600 X97.146 Y15.687 E123.86174
G0 F4500 X96.58 Y15.687
G1 F3600 X112.383 Y31.49 E124.71657
G0 F4500 X112.383 Y32.055
G1 F3600 X96.015 Y15.687 E125.60195
G0 F4500 X95.449 Y15.687
G1 F3600 X112.383 Y32.621 E126.51796
G0 F4500 X112.383 Y33.187
G1 F3600 X94.883 Y15.687 E127.46457
G0 F4500 X94.318 Y15.687
G1 F3600 X112.383 Y33.753 E128.44178
G0 F4500 X112.383 Y34.318
G1 F3600 X93.752 Y15.687 E129.44958
G0 F4500 X93.186 Y15.687
G1 F3600 X112.383 Y34.884 E130.48799
G0 F4500 X112.383 Y35.45
G1 F3600 X92.621 Y15.687 E131.55699
G0 F4500 X92.055 Y15.687
G1 F3600 X112.383 Y36.015 E132.65659
G0 F4500 X112.383 Y36.581
G1 F3600 X91.489 Y15.687 E133.78679
G0 F4500 X90.924 Y15.687
G1 F3600 X112.383 Y37.147 E134.94759
G0 F4500 X112.383 Y37.712
G1 F3600 X90.358 Y15.687 E136.13898
G0 F4500 X89.792 Y15.687
G1 F3600 X112.383 Y38.278 E137.36098
G0 F4500 X112.383 Y38.844
G1 F3600 X89.226 Y15.687 E138.6136
G0 F4500 X88.661 Y15.687
G1 F3600 X112.383 Y39.409 E139.89678
G0 F4500 X112.383 Y39.975
G1 F3600 X88.095 Y15.687 E141.21058
G0 F4500 X87.529 Y15.687
G1 F3600 X112.383 Y40.541 E142.55499
G0 F4500 X111.824 Y40.548
G1 F3600 X86.964 Y15.687 E143.89976
G0 F4500 X86.398 Y15.687
G1 F3600 X111.259 Y40.548 E145.24455
G0 F4500 X110.693 Y40.548
G1 F3600 X85.832 Y15.687 E146.58935
G0 F4500 X85.267 Y15.687
G1 F3600 X110.127 Y40.548 E147.93411
G0 F4500 X109.561 Y40.548
G1 F3600 X84.701 Y15.687 E149.27888
G0 F4500 X84.135 Y15.687
G1 F3600 X108.996 Y40.548 E150.62367
G0 F4500 X108.43 Y40.548
G1 F3600 X83.57 Y15.687 E151.96844
G0 F4500 X83.004 Y15.687
G1 F3600 X107.864 Y40.548 E153.3132
G0 F4500 X107.299 Y40.548
G1 F3600 X82.438 Y15.687 E154.658
G0 F4500 X81.873 Y15.687
G1 F3600 X106.733 Y40.548 E156.00276
G0 F4500 X106.167 Y40.548
G1 F3600 X81.307 Y15.687 E157.34753
G0 F4500 X80.741 Y15.687
G1 F3600 X105.602 Y40.548 E158.69232
G0 F4500 X105.036 Y40.548
G1 F3600 X80.176 Y15.687 E160.03709
G0 F4500 X79.61 Y15.687
G1 F3600 X104.47 Y40.548 E161.38185
G0 F4500 X103.905 Y40.548
G1 F3600 X79.044 Y15.687 E162.72665
G0 F4500 X78.478 Y15.687
G1 F3600 X103.339 Y40.548 E164.07144
G0 F4500 X102.773 Y40.548
G1 F3600 X77.913 Y15.687 E165.41621
G0 F4500 X77.347 Y15.687
G1 F3600 X102.208 Y40.548 E166.761
G0 F4500 X101.642 Y40.548
G1 F3600 X76.781 Y15.687 E168.10579
G0 F4500 X76.216 Y15.687
G1 F3600 X101.076 Y40.548 E169.45056
G0 F4500 X100.51 Y40.548
G1 F3600 X75.65 Y15.687 E170.79532
G0 F4500 X75.084 Y15.687
G1 F3600 X99.945 Y40.548 E172.14012
G0 F4500 X99.379 Y40.548
G1 F3600 X74.519 Y15.687 E173.48488
G0 F4500 X73.953 Y15.687
G1 F3600 X98.813 Y40.548 E174.82965
G0 F4500 X98.248 Y40.548
G1 F3600 X73.387 Y15.687 E176.17444
G0 F4500 X72.822 Y15.687
G1 F3600 X97.682 Y40.548 E177.51921
G0 F4500 X97.116 Y40.548
G1 F3600 X72.256 Y15.687 E178.86397
G0 F4500 X71.69 Y15.687
G1 F3600 X96.551 Y40.548 E180.20877
G0 F4500 X95.985 Y40.548
G1 F3600 X71.125 Y15.687 E181.55353
G0 F4500 X70.559 Y15.687
G1 F3600 X95.419 Y40.548 E182.8983
G0 F4500 X94.854 Y40.548
G1 F3600 X69.993 Y15.687 E184.24309
G0 F4500 X69.427 Y15.687
G1 F3600 X94.288 Y40.548 E185.58788
G0 F4500 X93.722 Y40.548
G1 F3600 X68.862 Y15.687 E186.93265
G0 F4500 X68.296 Y15.687
G1 F3600 X93.229 Y40.62 E188.28134
G0 F4500 X92.946 Y40.903
G1 F3600 X67.73 Y15.687 E189.64533
G0 F4500 X67.165 Y15.687
G1 F3600 X92.663 Y41.186 E191.02461
G0 F4500 X92.38 Y41.468
G1 F3600 X66.599 Y15.687 E192.41917
G0 F4500 X66.033 Y15.687
G1 F3600 X92.097 Y41.751 E193.82903
G0 F4500 X91.814 Y42.034
G1 F3600 X65.468 Y15.687 E195.25418
G0 F4500 X64.902 Y15.687
G1 F3600 X91.532 Y42.317 E196.69466
G0 F4500 X91.249 Y42.6
G1 F3600 X64.336 Y15.687 E198.15046
G0 F4500 X63.771 Y15.687
G1 F3600 X90.966 Y42.883 E199.62153
G0 F4500 X90.683 Y43.166
G1 F3600 X63.205 Y15.687 E201.10791
G0 F4500 X62.639 Y15.687
G1 F3600 X90.4 Y43.448 E202.60957
G0 F4500 X90.117 Y43.731
G1 F3600 X62.074 Y15.687 E204.12651
G0 F4500 X61.508 Y15.687
G1 F3600 X89.835 Y44.014 E205.65879
G0 F4500 X89.552 Y44.297
G1 F3600 X60.942 Y15.687 E207.20637
G0 F4500 X60.377 Y15.687
G1 F3600 X89.269 Y44.58 E208.76924
G0 F4500 X88.986 Y44.863
G1 F3600 X59.811 Y15.687 E210.34742
G0 F4500 X59.245 Y15.687
G1 F3600 X88.703 Y45.145 E211.94087
G0 F4500 X88.42 Y45.428
G1 F3600 X58.679 Y15.687 E213.54964
G0 F4500 X58.114 Y15.687
G1 F3600 X88.138 Y45.711 E215.17371
G0 F4500 X87.855 Y45.994
G1 F3600 X57.548 Y15.687 E216.81309
G0 F4500 X56.982 Y15.687
G1 F3600 X87.572 Y46.277 E218.46778
G0 F4500 X87.289 Y46.56
G1 F3600 X56.417 Y15.687 E220.13775
G0 F4500 X55.851 Y15.687
G1 F3600 X87.006 Y46.842 E221.823
G0 F4500 X86.723 Y47.125
G1 F3600 X55.285 Y15.687 E223.52356
G0 F4500 X54.72 Y15.687
G1 F3600 X86.44 Y47.408 E225.2394
G0 F4500 X86.158 Y47.691
G1 F3600 X54.154 Y15.687 E226.97057
G0 F4500 X53.588 Y15.687
G1 F3600 X85.875 Y47.974 E228.71706
G0 F4500 X85.592 Y48.257
G1 F3600 X53.023 Y15.687 E230.47882
G0 F4500 X52.457 Y15.687
G1 F3600 X85.309 Y48.54 E232.2559
G0 F4500 X85.026 Y48.822
G1 F3600 X51.891 Y15.687 E234.04825
G0 F4500 X51.326 Y15.687
G1 F3600 X84.743 Y49.105 E235.85588
G0 F4500 X84.461 Y49.388
G1 F3600 X50.76 Y15.687 E237.67886
G0 F4500 X50.194 Y15.687
G1 F3600 X84.178 Y49.671 E239.51713
G0 F4500 X83.895 Y49.954
G1 F3600 X49.628 Y15.687 E241.37072
G0 F4500 X49.063 Y15.687
G1 F3600 X83.612 Y50.237 E243.23959
G0 F4500 X83.329 Y50.519
G1 F3600 X48.497 Y15.687 E245.12374
G0 F4500 X47.931 Y15.687
G1 F3600 X83.046 Y50.802 E247.02319
G0 F4500 X82.764 Y51.085
G1 F3600 X47.523 Y15.844 E248.92947
G0 F4500 X47.523 Y16.41
G1 F3600 X82.481 Y51.368 E250.82043
G0 F4500 X82.198 Y51.651
G1 F3600 X47.523 Y16.976 E252.69609
G0 F4500 X47.523 Y17.541
G1 F3600 X81.915 Y51.934 E254.55646
G0 F4500 X81.632 Y52.217
G1 F3600 X47.523 Y18.107 E256.40153
G0 F4500 X47.523 Y18.673
G1 F3600 X81.349 Y52.499 E258.23126
G0 F4500 X81.066 Y52.782
G1 F3600 X47.523 Y19.238 E260.04571
G0 F4500 X47.523 Y19.804
G1 F3600 X80.784 Y53.065 E261.84488
G0 F4500 X80.501 Y53.348
G1 F3600 X47.523 Y20.37 E263.62875
G0 F4500 X47.523 Y20.936
G1 F3600 X80.218 Y53.631 E265.3973
G0 F4500 X79.935 Y53.914
G1 F3600 X47.523 Y21.501 E267.15057
G0 F4500 X47.523 Y22.067
G1 F3600 X79.652 Y54.196 E268.88851
G0 F4500 X79.369 Y54.479
G1 F3600 X47.523 Y22.633 E270.61114
G0 F4500 X47.523 Y23.198
G1 F3600 X79.087 Y54.762 E272.31851
G0 F4500 X78.804 Y55.045
G1 F3600 X47.523 Y23.764 E274.01058
G0 F4500 X47.523 Y24.33
G1 F3600 X78.521 Y55.328 E275.68734
G0 F4500 X78.238 Y55.611
G1 F3600 X47.523 Y24.895 E277.34882
G0 F4500 X47.523 Y25.461
G1 F3600 X77.955 Y55.893 E278.99496
