;FLAVOR:Marlin
;TIME:1557
;Filament used: 1.73126m
;Layer height: 0.2
;Generated with Cura_SteamEngine 3.6.0
M140 S55
M105
M190 S55
M104 S210
M105
M109 S210
M82 ;absolute extrusion mode
G21 ;metric values
G90 ;absolute positioning
M82 ;set extruder to absolute mode
M107 ;start with the fan off
G28 X0 Y0 ;move X/Y to min endstops
G28 Z0 ;move Z to min endstops
G1 Z15.0 F9000 ;move the platform down 15mm
G92 E0 ;zero the extruded length
G1 F200 E3 ;extrude 3mm of feed stock
G92 E0 ;zero the extruded length again
G1 F9000
;Put printing message on LCD screen
M117 Printing...
G92 E0
G1 F900 E-4
;LAYER_COUNT:8
;LAYER:0
M107
G0 F4320 X45.577 Y64.065 Z0.2
;TYPE:SKIRT
G1 F900 E0
G1 F2400 X46.061 Y63.775 E0.01642
G1 X48.796 Y62.372 E0.10588
G1 X49.452 Y62.102 E0.12652
G1 X52.005 Y61.296 E0.20444
G1 X52.461 Y61.18 E0.21813
G1 X54.761 Y60.727 E0.28635
G1 X55.063 Y60.678 E0.29526
G1 X57.355 Y60.397 E0.36246
G1 X57.624 Y60.373 E0.37032
G1 X60.219 Y60.222 E0.44597
G1 X60.616 Y60.218 E0.45752
G1 X63.64 Y60.327 E0.54559
G1 X64.124 Y60.372 E0.55973
G1 X72.809 Y61.695 E0.8154
G1 X78.204 Y62.234 E0.97319
G1 X83.606 Y62.465 E1.13055
G1 X89.032 Y62.392 E1.28848
G1 X94.444 Y62.011 E1.44637
G1 X99.878 Y61.317 E1.6058
G1 X102.531 Y60.918 E1.68387
G1 X103.172 Y60.871 E1.70258
G1 X118.411 Y60.914 E2.14608
G1 X152.074 Y60.88 E3.12576
G1 X152.653 Y60.919 E3.14265
G1 X153.222 Y61.038 E3.15956
G1 X153.769 Y61.233 E3.17646
G1 X154.285 Y61.502 E3.1934
G1 X154.758 Y61.839 E3.2103
G1 X155.181 Y62.237 E3.2272
G1 X155.545 Y62.69 E3.24412
G1 X155.843 Y63.189 E3.26103
G1 X156.071 Y63.723 E3.27793
G1 X156.223 Y64.284 E3.29484
G1 X156.303 Y65.106 E3.31888
G1 X156.302 Y73.233 E3.5554
G1 X156.222 Y74.05 E3.57929
G1 X155.778 Y76.299 E3.646
G1 X154.935 Y81.686 E3.80469
G1 X154.401 Y87.07 E3.96214
G1 X154.174 Y92.473 E4.11952
G1 X154.252 Y97.967 E4.27943
G1 X154.438 Y101.58 E4.38472
G1 X154.437 Y102.043 E4.39819
G1 X154.317 Y104.102 E4.45822
G1 X154.257 Y104.605 E4.47296
G1 X154.028 Y105.876 E4.51054
G1 X153.914 Y106.351 E4.52476
G1 X153.183 Y108.767 E4.59822
G1 X152.945 Y109.377 E4.61727
G1 X152.106 Y111.118 E4.67352
G1 X151.815 Y111.629 E4.69063
G1 X150.839 Y113.092 E4.74181
G1 X150.479 Y113.557 E4.75893
G1 X149.276 Y114.908 E4.81158
G1 X148.751 Y115.405 E4.83261
G1 X147.32 Y116.543 E4.88582
G1 X146.822 Y116.883 E4.90337
G1 X145.226 Y117.816 E4.95717
G1 X144.718 Y118.069 E4.97369
G1 X143.006 Y118.782 E5.02766
G1 X142.585 Y118.932 E5.04067
G1 X141.363 Y119.295 E5.07777
G1 X140.947 Y119.396 E5.09023
G1 X138.221 Y119.913 E5.17097
G1 X137.647 Y119.982 E5.1878
G1 X135.547 Y120.088 E5.24899
G1 X135.108 Y120.087 E5.26177
G1 X132.999 Y119.974 E5.32323
G1 X132.775 Y119.956 E5.32977
G1 X129.541 Y119.609 E5.42443
G1 X124.101 Y119.27 E5.58306
G1 X118.707 Y119.239 E5.74004
G1 X111.542 Y119.659 E5.94892
G1 X111.294 Y119.666 E5.95614
G1 X103.043 Y119.664 E6.19626
G1 X102.593 Y119.64 E6.20938
G1 X95.306 Y118.858 E6.42267
G1 X89.93 Y118.632 E6.57926
G1 X84.488 Y118.711 E6.73765
G1 X79.049 Y119.099 E6.89635
G1 X75.966 Y119.414 E6.98654
G1 X75.535 Y119.436 E6.9991
G1 X50.858 Y119.427 E7.71726
G1 X50.279 Y119.387 E7.73415
G1 X49.71 Y119.268 E7.75107
G1 X49.163 Y119.071 E7.76799
G1 X48.648 Y118.802 E7.7849
G1 X48.175 Y118.464 E7.80182
G1 X47.753 Y118.065 E7.81872
G1 X47.39 Y117.612 E7.83561
G1 X47.092 Y117.113 E7.85253
G1 X46.865 Y116.578 E7.86944
G1 X46.714 Y116.017 E7.88635
G1 X46.648 Y115.536 E7.90048
G1 X44.763 Y91.773 E8.59422
G1 X44.75 Y91.475 E8.6029
G1 X44.719 Y87.87 E8.70782
G1 X44.52 Y82.422 E8.86647
G1 X43.788 Y75.22 E9.07715
G1 X43.766 Y74.794 E9.08956
G1 X43.764 Y67.535 E9.30082
G1 X43.804 Y66.955 E9.31774
G1 X43.923 Y66.387 E9.33463
G1 X44.119 Y65.84 E9.35154
G1 X44.388 Y65.325 E9.36845
G1 X44.725 Y64.852 E9.38535
G1 X45.124 Y64.429 E9.40227
G1 X45.577 Y64.065 E9.41919
G0 F4320 X45.914 Y64.261
G1 F2400 X46.22 Y64.086 E9.42944
G1 X48.955 Y62.683 E9.5189
G1 X49.557 Y62.436 E9.53784
G1 X52.11 Y61.63 E9.61575
G1 X52.528 Y61.523 E9.62831
G1 X54.828 Y61.07 E9.69653
G1 X55.105 Y61.026 E9.70469
G1 X57.397 Y60.745 E9.7719
G1 X57.644 Y60.723 E9.77911
G1 X60.239 Y60.572 E9.85476
G1 X60.604 Y60.568 E9.86539
G1 X63.628 Y60.677 E9.95345
G1 X64.072 Y60.718 E9.96643
G1 X72.762 Y62.042 E10.22225
G1 X78.189 Y62.584 E10.38097
G1 X83.596 Y62.816 E10.53848
G1 X89.062 Y62.741 E10.69756
G1 X94.461 Y62.361 E10.85508
G1 X99.925 Y61.664 E11.01538
G1 X102.583 Y61.264 E11.09361
G1 X103.171 Y61.221 E11.11077
G1 X118.41 Y61.264 E11.55426
G1 X152.074 Y61.23 E12.53398
G1 X152.629 Y61.269 E12.55017
G1 X153.173 Y61.388 E12.56637
G1 X153.694 Y61.583 E12.58256
G1 X154.182 Y61.851 E12.59877
G1 X154.626 Y62.186 E12.61495
G1 X155.018 Y62.581 E12.63115
G1 X155.349 Y63.028 E12.64734
G1 X155.613 Y63.518 E12.66353
G1 X155.804 Y64.04 E12.67971
G1 X155.918 Y64.585 E12.69591
G1 X155.953 Y65.105 E12.71108
G1 X155.952 Y73.232 E12.9476
G1 X155.879 Y73.982 E12.96953
G1 X155.431 Y76.251 E13.03684
G1 X154.589 Y81.634 E13.1954
G1 X154.053 Y87.038 E13.35344
G1 X153.824 Y92.481 E13.51199
G1 X153.902 Y97.963 E13.67155
G1 X154.089 Y101.598 E13.77747
G1 X154.087 Y102.022 E13.78981
G1 X153.967 Y104.081 E13.84984
G1 X153.913 Y104.543 E13.86338
G1 X153.684 Y105.814 E13.90096
G1 X153.579 Y106.249 E13.91398
G1 X152.848 Y108.665 E13.98744
G1 X152.63 Y109.225 E14.00493
G1 X151.791 Y110.966 E14.06118
G1 X151.524 Y111.434 E14.07686
G1 X150.548 Y112.897 E14.12804
G1 X150.218 Y113.324 E14.14374
G1 X149.015 Y114.675 E14.19639
G1 X148.533 Y115.131 E14.2157
G1 X147.102 Y116.269 E14.26891
G1 X146.646 Y116.581 E14.28499
G1 X145.05 Y117.514 E14.33879
G1 X144.584 Y117.746 E14.35394
G1 X142.872 Y118.459 E14.40791
G1 X142.485 Y118.597 E14.41987
G1 X141.263 Y118.96 E14.45697
G1 X140.882 Y119.052 E14.46838
G1 X138.156 Y119.569 E14.54912
G1 X137.629 Y119.632 E14.56457
G1 X135.529 Y119.738 E14.62576
G1 X135.127 Y119.737 E14.63746
G1 X133.018 Y119.624 E14.69893
G1 X132.812 Y119.608 E14.70494
G1 X129.554 Y119.259 E14.8003
G1 X124.125 Y118.92 E14.95861
G1 X118.689 Y118.889 E15.11681
G1 X111.522 Y119.309 E15.32575
G1 X111.294 Y119.316 E15.33239
G1 X103.043 Y119.314 E15.57251
G1 X102.631 Y119.292 E15.58452
G1 X95.344 Y118.51 E15.79781
G1 X89.923 Y118.282 E15.95571
G1 X84.476 Y118.362 E16.11425
G1 X79.024 Y118.75 E16.27332
G1 X75.931 Y119.066 E16.3638
G1 X75.536 Y119.086 E16.37531
G1 X50.859 Y119.077 E17.09348
G1 X50.304 Y119.037 E17.10967
G1 X49.76 Y118.918 E17.12588
G1 X49.239 Y118.722 E17.14208
G1 X48.752 Y118.453 E17.15827
G1 X48.308 Y118.118 E17.17446
G1 X47.917 Y117.722 E17.19065
G1 X47.586 Y117.275 E17.20684
G1 X47.323 Y116.785 E17.22302
G1 X47.133 Y116.262 E17.23922
G1 X46.997 Y115.508 E17.26152
G1 X45.112 Y91.745 E17.95525
G1 X45.1 Y91.472 E17.96321
G1 X45.069 Y87.854 E18.0685
G1 X44.87 Y82.405 E18.22719
G1 X44.136 Y75.185 E18.43839
G1 X44.116 Y74.794 E18.44979
G1 X44.114 Y67.535 E18.66104
G1 X44.154 Y66.98 E18.67724
G1 X44.273 Y66.437 E18.69342
G1 X44.468 Y65.916 E18.7096
G1 X44.736 Y65.428 E18.72581
G1 X45.071 Y64.984 E18.74199
G1 X45.467 Y64.592 E18.75821
G1 X45.914 Y64.261 E18.7744
G0 F4320 X45.808 Y64.764
G1 F2400 X46.38 Y64.398 E18.79416
G1 X49.115 Y62.995 E18.88362
G1 X49.663 Y62.77 E18.90086
G1 X52.216 Y61.964 E18.97877
G1 X52.596 Y61.866 E18.99019
G1 X54.896 Y61.413 E19.05842
G1 X55.148 Y61.373 E19.06584
G1 X57.44 Y61.092 E19.13304
G1 X57.664 Y61.072 E19.13959
G1 X60.259 Y60.921 E19.21524
G1 X60.591 Y60.917 E19.2249
G1 X63.615 Y61.026 E19.31296
G1 X64.019 Y61.064 E19.32477
G1 X72.713 Y62.389 E19.58071
G1 X78.157 Y62.932 E19.73993
G1 X83.604 Y63.166 E19.8986
G1 X89.074 Y63.091 E20.05781
G1 X94.493 Y62.71 E20.2159
G1 X99.978 Y62.01 E20.37683
G1 X102.635 Y61.61 E20.45502
G1 X103.17 Y61.571 E20.47064
G1 X118.409 Y61.614 E20.91413
G1 X152.074 Y61.58 E21.89387
G1 X152.604 Y61.619 E21.90934
G1 X153.121 Y61.738 E21.92478
G1 X153.615 Y61.933 E21.94023
G1 X154.073 Y62.199 E21.95565
G1 X154.487 Y62.532 E21.97111
G1 X154.846 Y62.922 E21.98654
G1 X155.142 Y63.363 E22.00199
G1 X155.369 Y63.842 E22.01742
G1 X155.521 Y64.351 E22.03288
G1 X155.603 Y65.105 E22.05495
G1 X155.602 Y73.232 E22.29147
G1 X155.535 Y73.914 E22.31141
G1 X155.093 Y76.154 E22.37786
G1 X154.241 Y81.598 E22.53822
G1 X153.703 Y87.025 E22.69694
G1 X153.473 Y92.471 E22.85557
G1 X153.552 Y97.986 E23.01609
G1 X153.739 Y101.616 E23.12187
G1 X153.738 Y102.002 E23.1331
G1 X153.618 Y104.061 E23.19313
G1 X153.568 Y104.481 E23.20544
G1 X153.339 Y105.752 E23.24302
G1 X153.244 Y106.148 E23.25487
G1 X152.513 Y108.564 E23.32833
G1 X152.315 Y109.073 E23.34423
G1 X151.476 Y110.814 E23.40047
G1 X151.232 Y111.24 E23.41476
G1 X150.256 Y112.703 E23.46594
G1 X149.957 Y113.091 E23.4802
G1 X148.754 Y114.442 E23.53284
G1 X148.315 Y114.857 E23.55043
G1 X146.884 Y115.995 E23.60363
G1 X146.469 Y116.279 E23.61827
G1 X144.873 Y117.212 E23.67207
G1 X144.449 Y117.423 E23.68586
G1 X142.737 Y118.136 E23.73983
G1 X142.386 Y118.261 E23.75067
G1 X141.164 Y118.624 E23.78777
G1 X140.817 Y118.708 E23.79816
G1 X138.091 Y119.225 E23.87891
G1 X137.612 Y119.283 E23.89295
G1 X135.512 Y119.389 E23.95414
G1 X135.145 Y119.388 E23.96482
G1 X133.036 Y119.275 E24.02629
G1 X132.849 Y119.26 E24.03175
G1 X129.59 Y118.911 E24.12714
G1 X124.131 Y118.57 E24.28632
G1 X118.685 Y118.539 E24.44481
G1 X111.501 Y118.96 E24.65424
G1 X111.294 Y118.966 E24.66027
G1 X103.043 Y118.964 E24.9004
G1 X102.668 Y118.944 E24.91133
G1 X95.364 Y118.16 E25.12511
G1 X89.933 Y117.931 E25.28331
G1 X84.465 Y118.012 E25.44246
G1 X78.992 Y118.402 E25.60214
G1 X75.895 Y118.718 E25.69274
G1 X75.536 Y118.736 E25.7032
G1 X50.859 Y118.727 E26.42137
G1 X50.33 Y118.687 E26.43681
G1 X49.812 Y118.568 E26.45227
G1 X49.319 Y118.372 E26.46771
G1 X48.861 Y118.105 E26.48314
G1 X48.447 Y117.772 E26.49861
G1 X48.089 Y117.381 E26.51403
G1 X47.793 Y116.94 E26.52949
G1 X47.567 Y116.46 E26.54493
G1 X47.416 Y115.952 E26.56036
G1 X47.346 Y115.481 E26.57421
G1 X45.461 Y91.718 E27.26795
G1 X45.45 Y91.469 E27.2752
G1 X45.419 Y87.874 E27.37983
G1 X45.218 Y82.372 E27.54006
G1 X44.484 Y75.149 E27.75135
G1 X44.466 Y74.794 E27.7617
G1 X44.464 Y67.535 E27.97295
G1 X44.504 Y67.006 E27.98839
G1 X44.623 Y66.489 E28.00383
G1 X44.818 Y65.995 E28.01929
G1 X45.085 Y65.536 E28.03474
G1 X45.417 Y65.123 E28.05016
G1 X45.808 Y64.764 E28.06561
G0 F4320 X46.148 Y64.947
G1 F2400 X46.54 Y64.709 E28.07896
G1 X49.275 Y63.306 E28.16841
G1 X49.768 Y63.103 E28.18393
G1 X52.321 Y62.297 E28.26185
G1 X52.663 Y62.21 E28.27212
G1 X54.963 Y61.757 E28.34034
G1 X55.191 Y61.721 E28.34705
G1 X57.483 Y61.44 E28.41426
G1 X57.685 Y61.421 E28.42016
G1 X60.28 Y61.27 E28.49581
G1 X60.578 Y61.267 E28.50448
G1 X63.602 Y61.376 E28.59255
G1 X63.966 Y61.41 E28.60319
G1 X72.681 Y62.738 E28.85974
G1 X78.126 Y63.282 E29.019
G1 X83.594 Y63.516 E29.17828
G1 X89.085 Y63.441 E29.33809
G1 X94.544 Y63.057 E29.49736
G1 X99.987 Y62.362 E29.65705
G1 X102.687 Y61.956 E29.73651
G1 X103.169 Y61.921 E29.75057
G1 X118.409 Y61.964 E30.1941
G1 X152.075 Y61.93 E31.17387
G1 X152.577 Y61.969 E31.18852
G1 X153.066 Y62.088 E31.20317
G1 X153.531 Y62.282 E31.21783
G1 X153.959 Y62.547 E31.23248
G1 X154.34 Y62.877 E31.24715
G1 X154.664 Y63.262 E31.26179
G1 X154.922 Y63.694 E31.27644
G1 X155.11 Y64.162 E31.29112
G1 X155.221 Y64.653 E31.30577
G1 X155.253 Y65.105 E31.31895
G1 X155.252 Y73.232 E31.55547
G1 X155.192 Y73.846 E31.57342
G1 X154.746 Y76.106 E31.64047
G1 X153.895 Y81.546 E31.80071
G1 X153.353 Y87.01 E31.96051
G1 X153.123 Y92.461 E32.11929
G1 X153.202 Y97.982 E32.27998
G1 X153.39 Y101.634 E32.3864
G1 X153.389 Y101.982 E32.39653
G1 X153.269 Y104.041 E32.45655
G1 X153.224 Y104.419 E32.46763
G1 X152.995 Y105.69 E32.50522
G1 X152.909 Y106.046 E32.51587
G1 X152.178 Y108.462 E32.58933
G1 X151.999 Y108.921 E32.60367
G1 X151.16 Y110.662 E32.65992
G1 X150.941 Y111.046 E32.67278
G1 X149.965 Y112.509 E32.72396
G1 X149.695 Y112.858 E32.73681
G1 X148.492 Y114.209 E32.78945
G1 X148.097 Y114.583 E32.80528
G1 X146.666 Y115.721 E32.85849
G1 X146.292 Y115.977 E32.87168
G1 X144.696 Y116.91 E32.92548
G1 X144.315 Y117.1 E32.93787
G1 X142.603 Y117.813 E32.99185
G1 X142.286 Y117.926 E33.00164
G1 X141.064 Y118.289 E33.03874
G1 X140.752 Y118.364 E33.04808
G1 X138.026 Y118.881 E33.12883
G1 X137.594 Y118.933 E33.14149
G1 X135.494 Y119.039 E33.20268
G1 X135.164 Y119.038 E33.21229
G1 X133.055 Y118.925 E33.27375
G1 X132.887 Y118.912 E33.27866
G1 X129.629 Y118.563 E33.37401
G1 X124.137 Y118.22 E33.53416
G1 X118.683 Y118.189 E33.69289
G1 X111.481 Y118.611 E33.90284
G1 X111.294 Y118.616 E33.90829
G1 X103.043 Y118.614 E34.14841
G1 X102.705 Y118.596 E34.15826
G1 X95.386 Y117.81 E34.37249
G1 X89.942 Y117.581 E34.53106
G1 X84.452 Y117.662 E34.69086
G1 X78.967 Y118.053 E34.85089
G1 X75.86 Y118.37 E34.94178
G1 X75.536 Y118.386 E34.95122
G1 X50.859 Y118.377 E35.66939
G1 X50.357 Y118.337 E35.68404
G1 X49.868 Y118.218 E35.69869
G1 X49.403 Y118.023 E35.71336
G1 X48.975 Y117.757 E35.72803
G1 X48.595 Y117.427 E35.74267
G1 X48.272 Y117.041 E35.75732
G1 X48.014 Y116.609 E35.77197
G1 X47.827 Y116.141 E35.78663
G1 X47.695 Y115.453 E35.80702
G1 X45.81 Y91.69 E36.50076
G1 X45.8 Y91.466 E36.50728
G1 X45.769 Y87.858 E36.61229
G1 X45.568 Y82.355 E36.77255
G1 X44.832 Y75.114 E36.98437
G1 X44.816 Y74.794 E36.99369
G1 X44.814 Y67.535 E37.20495
G1 X44.854 Y67.033 E37.2196
G1 X44.972 Y66.543 E37.23427
G1 X45.167 Y66.079 E37.24892
G1 X45.433 Y65.651 E37.26358
G1 X45.762 Y65.271 E37.27821
G1 X46.148 Y64.947 E37.29288
G1 F900 E33.29288
G1 F300 Z0.5
;MESH:542 (4).stl
G0 F4320 X56.595 Y95.478 Z0.5
;TYPE:WALL-INNER
G1 F300 Z0.2
G1 F900 E37.29288
G1 F2400 X56.615 Y95.698 E37.29931
G1 X57.727 Y107.896 E37.65577
G1 X74.992 Y107.896 E38.15823
G1 X74.992 Y114.336 E38.34565
G1 X51.659 Y114.336 E39.0247
G1 X49.832 Y91.165 E39.70113
G1 X53.179 Y89.081 E39.81588
G1 X53.843 Y89.185 E39.83544
G1 X54.958 Y89.397 E39.86847
G1 X55.453 Y89.468 E39.88302
G1 X55.453 Y89.481 E39.8834
G1 X56.551 Y89.616 E39.91559
G1 X56.551 Y89.598 E39.91612
G1 X56.876 Y89.631 E39.92306
G1 X57.796 Y89.753 E39.95007
G1 X58.911 Y89.868 E39.98269
G1 X59.555 Y89.894 E40.00145
G1 X60.204 Y89.909 E40.02034
G1 X60.766 Y89.914 E40.0367
G1 X64.018 Y89.651 E40.13165
G1 X66.669 Y88.875 E40.21204
G1 X68.733 Y87.603 E40.2826
G1 X70.212 Y85.866 E40.34899
G1 X71.107 Y83.66 E40.41827
G1 X71.413 Y80.933 E40.49814
G1 X71.332 Y79.341 E40.54453
G1 X71.088 Y77.889 E40.58738
G1 X70.686 Y76.608 E40.62645
G1 X70.162 Y75.499 E40.66215
G1 X69.495 Y74.522 E40.69657
G1 X68.68 Y73.663 E40.73103
G1 X67.75 Y72.951 E40.76512
G1 X66.693 Y72.371 E40.80021
G1 X65.485 Y71.911 E40.83783
G1 X64.154 Y71.61 E40.87754
G1 X62.678 Y71.424 E40.92084
G1 X61.066 Y71.362 E40.96778
G1 X60.156 Y71.382 E40.99427
G1 X59.205 Y71.444 E41.02201
G1 X58.17 Y71.547 E41.05228
G1 X57.127 Y71.698 E41.08295
G1 X56.063 Y71.903 E41.11448
G1 X55.053 Y72.152 E41.14476
G1 X54.007 Y72.431 E41.17626
G1 X53.039 Y72.732 E41.20577
G1 X52.055 Y73.088 E41.23622
G1 X51.178 Y73.476 E41.26413
G1 X50.387 Y73.903 E41.29029
G1 X49.405 Y74.548 E41.32448
G1 X48.854 Y74.251 E41.3427
G1 X48.854 Y68.046 E41.52328
G1 X49.887 Y67.478 E41.55759
G1 X50.685 Y67.095 E41.58335
G1 X51.587 Y66.715 E41.61183
G1 X52.492 Y66.423 E41.63951
G1 X53.487 Y66.166 E41.66941
G1 X55.435 Y65.778 E41.72722
G1 X56.493 Y65.615 E41.75837
G1 X58.652 Y65.388 E41.82155
G1 X59.741 Y65.325 E41.8533
G1 X60.87 Y65.302 E41.88616
G1 X63.594 Y65.423 E41.96552
G1 X66.081 Y65.777 E42.03862
G1 X68.387 Y66.379 E42.10798
G1 X70.447 Y67.245 E42.17302
G1 X72.295 Y68.333 E42.23543
G1 X73.919 Y69.638 E42.29606
G1 X75.294 Y71.149 E42.35551
G1 X76.416 Y72.863 E42.41513
G1 X77.299 Y74.807 E42.47727
G1 X77.95 Y76.91 E42.54134
G1 X78.343 Y79.176 E42.60827
G1 X78.473 Y81.633 E42.67988
G1 X78.34 Y83.856 E42.74469
G1 X77.927 Y85.931 E42.80626
G1 X77.239 Y87.835 E42.86518
G1 X76.338 Y89.532 E42.92109
G1 X75.222 Y91.049 E42.9759
G1 X73.907 Y92.364 E43.03002
G1 X72.363 Y93.469 E43.08528
G1 X70.693 Y94.37 E43.1405
G1 X68.852 Y95.091 E43.19804
G1 X66.913 Y95.608 E43.25645
G1 X64.88 Y95.916 E43.31629
G1 X62.729 Y96.022 E43.37896
G1 X61.221 Y95.993 E43.42286
G1 X59.884 Y95.914 E43.46184
G1 X58.657 Y95.777 E43.49777
G1 X56.813 Y95.509 E43.55199
