;FLAVOR:Marlin
;TIME:3724
;Filament used: 3.38509m
;Layer height: 0.2
;Generated with Cura_SteamEngine 3.4.1
M190 S60
M104 S200
M109 S200
M82 ;absolute extrusion mode
G21 ;metric values
G90 ;absolute positioning
M82 ;set extruder to absolute mode
M107 ;start with the fan off
G28 X0 Y0 ;move X/Y to min endstops
G28 Z0 ;move Z to min endstops
G1 Z15.0 F9000 ;move the platform down 15mm
G92 E0 ;zero the extruded length
G1 F200 E3 ;extrude 3mm of feed stock
G92 E0 ;zero the extruded length again
G1 F9000
;Put printing message on LCD screen
M117 Printing...
G92 E0
G1 F1500 E-6.5
;LAYER_COUNT:70
;LAYER:0
M107
G0 F3600 X18.482 Y24.193 Z0.3
;TYPE:SKIRT
G1 F1500 E0
G1 F1800 X18.91 Y23.955 E0.02443
G1 X19.37 Y23.789 E0.04883
G1 X19.851 Y23.7 E0.07323
G1 X20.153 Y23.685 E0.08832
G1 X36.153 Y23.685 E0.88656
G1 X36.641 Y23.725 E0.91099
G1 X37.116 Y23.844 E0.93542
G1 X37.565 Y24.038 E0.95982
G1 X37.977 Y24.303 E0.98426
G1 X38.34 Y24.631 E1.00867
G1 X38.645 Y25.014 E1.0331
G1 X38.854 Y25.39 E1.05456
G1 X38.954 Y25.234 E1.0638
G1 X39.282 Y24.871 E1.08821
G1 X39.665 Y24.566 E1.11264
G1 X40.093 Y24.328 E1.13707
G1 X40.553 Y24.162 E1.16147
G1 X41.034 Y24.073 E1.18587
G1 X41.336 Y24.058 E1.20096
G1 X57.336 Y24.058 E1.9992
G1 X57.824 Y24.098 E2.02363
G1 X58.299 Y24.217 E2.04806
G1 X58.748 Y24.411 E2.07246
G1 X59.16 Y24.676 E2.0969
G1 X59.523 Y25.004 E2.12131
G1 X59.828 Y25.387 E2.14574
G1 X60.066 Y25.815 E2.17017
G1 X60.232 Y26.275 E2.19457
G1 X60.321 Y26.756 E2.21897
G1 X60.336 Y27.058 E2.23406
G1 X60.336 Y39.558 E2.85769
G1 X60.296 Y40.046 E2.88211
G1 X60.177 Y40.521 E2.90654
G1 X59.983 Y40.97 E2.93095
G1 X59.718 Y41.382 E2.95539
G1 X59.39 Y41.745 E2.97979
G1 X59.223 Y41.878 E2.99045
G1 X59.516 Y42.246 E3.01391
G1 X59.754 Y42.674 E3.03835
G1 X59.92 Y43.134 E3.06274
G1 X60.009 Y43.615 E3.08715
G1 X60.024 Y43.917 E3.10223
G1 X60.024 Y57.917 E3.8007
G1 X59.984 Y58.405 E3.82512
G1 X59.865 Y58.88 E3.84955
G1 X59.671 Y59.329 E3.87396
G1 X59.406 Y59.741 E3.8984
G1 X59.078 Y60.104 E3.9228
G1 X58.695 Y60.409 E3.94723
G1 X58.267 Y60.647 E3.97166
G1 X57.885 Y60.785 E3.99193
G1 X57.931 Y60.785 E3.99422
G1 X58.419 Y60.825 E4.01865
G1 X58.894 Y60.944 E4.04308
G1 X59.343 Y61.138 E4.06748
G1 X59.755 Y61.403 E4.09192
G1 X60.118 Y61.731 E4.11633
G1 X60.423 Y62.114 E4.14076
G1 X60.661 Y62.542 E4.16519
G1 X60.827 Y63.002 E4.18959
G1 X60.916 Y63.483 E4.21399
G1 X60.931 Y63.785 E4.22908
G1 X60.931 Y77.785 E4.92754
G1 X60.891 Y78.273 E4.95197
G1 X60.772 Y78.748 E4.9764
G1 X60.578 Y79.197 E5.0008
G1 X60.313 Y79.609 E5.02524
G1 X60.093 Y79.853 E5.04163
G1 X60.153 Y79.879 E5.04489
G1 X60.565 Y80.144 E5.06933
G1 X60.928 Y80.472 E5.09374
G1 X61.233 Y80.855 E5.11817
G1 X61.471 Y81.283 E5.1426
G1 X61.637 Y81.743 E5.167
G1 X61.726 Y82.224 E5.1914
G1 X61.741 Y82.526 E5.20649
G1 X61.741 Y95.026 E5.83012
G1 X61.701 Y95.514 E5.85454
G1 X61.582 Y95.989 E5.87897
G1 X61.388 Y96.438 E5.90338
G1 X61.123 Y96.85 E5.92782
G1 X60.795 Y97.213 E5.95222
G1 X60.412 Y97.518 E5.97665
G1 X59.984 Y97.756 E6.00108
G1 X59.524 Y97.922 E6.02548
G1 X59.043 Y98.011 E6.04988
G1 X58.741 Y98.026 E6.06497
G1 X42.741 Y98.026 E6.86321
G1 X42.253 Y97.986 E6.88764
G1 X41.778 Y97.867 E6.91207
G1 X41.329 Y97.673 E6.93647
G1 X40.917 Y97.408 E6.96091
G1 X40.554 Y97.08 E6.98532
G1 X40.249 Y96.697 E7.00975
G1 X40.011 Y96.269 E7.03418
G1 X39.845 Y95.809 E7.05858
G1 X39.756 Y95.328 E7.08298
G1 X39.741 Y95.026 E7.09807
G1 X39.741 Y82.526 E7.7217
G1 X39.781 Y82.038 E7.74612
G1 X39.9 Y81.563 E7.77055
G1 X40.094 Y81.114 E7.79496
G1 X40.359 Y80.702 E7.8194
G1 X40.579 Y80.458 E7.83579
G1 X40.519 Y80.432 E7.83905
G1 X40.107 Y80.167 E7.86349
G1 X39.744 Y79.839 E7.8879
G1 X39.439 Y79.456 E7.91232
G1 X39.201 Y79.028 E7.93676
G1 X39.063 Y78.645 E7.95707
G1 X38.961 Y79.052 E7.978
G1 X38.767 Y79.501 E8.0024
G1 X38.502 Y79.913 E8.02684
G1 X38.425 Y79.998 E8.03256
G1 X38.435 Y80.005 E8.03317
G1 X38.798 Y80.333 E8.05758
G1 X39.103 Y80.716 E8.08201
G1 X39.341 Y81.144 E8.10644
G1 X39.507 Y81.604 E8.13084
G1 X39.596 Y82.085 E8.15524
G1 X39.611 Y82.387 E8.17033
G1 X39.611 Y94.887 E8.79395
G1 X39.571 Y95.375 E8.81838
G1 X39.452 Y95.85 E8.84281
G1 X39.258 Y96.299 E8.86722
G1 X38.993 Y96.711 E8.89165
G1 X38.665 Y97.074 E8.91606
G1 X38.282 Y97.379 E8.94049
G1 X37.854 Y97.617 E8.96492
G1 X37.394 Y97.783 E8.98932
G1 X36.913 Y97.872 E9.01372
G1 X36.611 Y97.887 E9.02881
G1 X20.611 Y97.887 E9.82705
G1 X20.123 Y97.847 E9.85148
G1 X19.648 Y97.728 E9.87591
G1 X19.199 Y97.534 E9.90031
G1 X18.787 Y97.269 E9.92475
G1 X18.424 Y96.941 E9.94916
G1 X18.119 Y96.558 E9.97359
G1 X17.881 Y96.13 E9.99802
G1 X17.715 Y95.67 E10.02242
G1 X17.626 Y95.189 E10.04682
G1 X17.611 Y94.887 E10.06191
G1 X17.611 Y82.387 E10.68554
G1 X17.651 Y81.899 E10.70996
G1 X17.77 Y81.424 E10.73439
G1 X17.964 Y80.975 E10.7588
G1 X18.229 Y80.563 E10.78324
G1 X18.306 Y80.478 E10.78896
G1 X18.296 Y80.471 E10.78957
G1 X17.933 Y80.143 E10.81397
G1 X17.628 Y79.76 E10.8384
G1 X17.39 Y79.332 E10.86283
G1 X17.224 Y78.872 E10.88723
G1 X17.135 Y78.391 E10.91164
G1 X17.12 Y78.089 E10.92672
G1 X17.12 Y65.589 E11.55035
G1 X17.16 Y65.101 E11.57478
G1 X17.279 Y64.626 E11.59921
G1 X17.473 Y64.177 E11.62361
G1 X17.738 Y63.765 E11.64805
G1 X18.066 Y63.402 E11.67246
G1 X18.449 Y63.097 E11.69688
G1 X18.877 Y62.859 E11.72132
G1 X19.039 Y62.8 E11.72992
G1 X18.999 Y62.783 E11.73209
G1 X18.587 Y62.518 E11.75653
G1 X18.224 Y62.19 E11.78093
G1 X17.919 Y61.807 E11.80536
G1 X17.681 Y61.379 E11.82979
G1 X17.515 Y60.919 E11.85419
G1 X17.426 Y60.438 E11.8786
G1 X17.411 Y60.136 E11.89368
G1 X17.411 Y46.136 E12.59214
G1 X17.451 Y45.648 E12.61657
G1 X17.57 Y45.173 E12.641
G1 X17.764 Y44.724 E12.6654
G1 X18.029 Y44.312 E12.68984
G1 X18.357 Y43.949 E12.71425
G1 X18.74 Y43.644 E12.73868
G1 X19.056 Y43.468 E12.75672
G1 X18.741 Y43.332 E12.77384
G1 X18.329 Y43.067 E12.79828
G1 X17.966 Y42.739 E12.82269
G1 X17.661 Y42.356 E12.84712
G1 X17.423 Y41.928 E12.87155
G1 X17.257 Y41.468 E12.89595
G1 X17.168 Y40.987 E12.92035
G1 X17.153 Y40.685 E12.93544
G1 X17.153 Y26.685 E13.6339
G1 X17.193 Y26.197 E13.65833
G1 X17.312 Y25.722 E13.68276
G1 X17.506 Y25.273 E13.70716
G1 X17.771 Y24.861 E13.7316
G1 X18.099 Y24.498 E13.75601
G1 X18.482 Y24.193 E13.78043
G0 F3600 X18.866 Y24.426
G1 F1800 X19.28 Y24.236 E13.80316
G1 X19.721 Y24.121 E13.8259
G1 X20.153 Y24.085 E13.84752
G1 X36.153 Y24.085 E14.64577
G1 X36.607 Y24.125 E14.66851
G1 X37.047 Y24.243 E14.69123
G1 X37.459 Y24.437 E14.71395
G1 X37.832 Y24.7 E14.73672
G1 X38.153 Y25.023 E14.75944
G1 X38.412 Y25.398 E14.78218
G1 X38.602 Y25.812 E14.8049
G1 X38.717 Y26.253 E14.82764
G1 X38.753 Y26.685 E14.84927
G1 X38.753 Y26.865 E14.85825
G1 X38.776 Y26.604 E14.87132
G1 X38.894 Y26.164 E14.89405
G1 X39.088 Y25.752 E14.91677
G1 X39.351 Y25.379 E14.93954
G1 X39.674 Y25.058 E14.96226
G1 X40.049 Y24.799 E14.98499
G1 X40.463 Y24.609 E15.00772
G1 X40.904 Y24.494 E15.03046
G1 X41.336 Y24.458 E15.05208
G1 X57.336 Y24.458 E15.85033
G1 X57.79 Y24.498 E15.87307
G1 X58.23 Y24.616 E15.89579
G1 X58.642 Y24.81 E15.91851
G1 X59.015 Y25.073 E15.94128
G1 X59.336 Y25.396 E15.964
G1 X59.595 Y25.771 E15.98674
G1 X59.785 Y26.185 E16.00946
G1 X59.9 Y26.626 E16.0322
G1 X59.936 Y27.058 E16.05383
G1 X59.936 Y39.558 E16.67746
G1 X59.896 Y40.012 E16.70019
G1 X59.778 Y40.452 E16.72292
G1 X59.584 Y40.864 E16.74564
G1 X59.321 Y41.237 E16.76841
G1 X58.998 Y41.558 E16.79113
G1 X58.623 Y41.817 E16.81387
G1 X58.573 Y41.84 E16.81661
G1 X58.703 Y41.932 E16.82456
G1 X59.024 Y42.255 E16.84728
G1 X59.283 Y42.63 E16.87001
G1 X59.473 Y43.044 E16.89274
G1 X59.588 Y43.485 E16.91548
G1 X59.624 Y43.917 E16.93711
G1 X59.624 Y57.917 E17.63557
G1 X59.584 Y58.371 E17.65831
G1 X59.466 Y58.811 E17.68103
G1 X59.272 Y59.223 E17.70375
G1 X59.009 Y59.596 E17.72652
G1 X58.686 Y59.917 E17.74924
G1 X58.311 Y60.176 E17.77198
G1 X57.897 Y60.366 E17.7947
G1 X57.456 Y60.481 E17.81744
G1 X57.024 Y60.517 E17.83907
G1 X41.024 Y60.517 E18.63731
G1 X40.57 Y60.477 E18.66005
G1 X40.13 Y60.359 E18.68278
G1 X39.718 Y60.165 E18.7055
G1 X39.345 Y59.902 E18.72827
G1 X39.024 Y59.579 E18.75099
G1 X39.011 Y59.56 E18.75213
G1 X39.011 Y60.136 E18.78087
G1 X38.971 Y60.59 E18.80361
G1 X38.853 Y61.03 E18.82634
G1 X38.659 Y61.442 E18.84906
G1 X38.396 Y61.815 E18.87183
G1 X38.073 Y62.136 E18.89454
G1 X37.698 Y62.395 E18.91728
G1 X37.284 Y62.585 E18.94001
G1 X36.843 Y62.7 E18.96275
G1 X36.411 Y62.736 E18.98437
G1 X20.411 Y62.736 E19.78262
G1 X19.957 Y62.696 E19.80535
G1 X19.517 Y62.578 E19.82808
G1 X19.105 Y62.384 E19.8508
G1 X18.732 Y62.121 E19.87357
G1 X18.411 Y61.798 E19.89629
G1 X18.152 Y61.423 E19.91903
G1 X17.962 Y61.009 E19.94175
G1 X17.847 Y60.568 E19.96449
G1 X17.811 Y60.136 E19.98612
G1 X17.811 Y46.136 E20.68458
G1 X17.851 Y45.682 E20.70732
G1 X17.969 Y45.242 E20.73005
G1 X18.163 Y44.83 E20.75276
G1 X18.426 Y44.457 E20.77553
G1 X18.749 Y44.136 E20.79825
G1 X19.124 Y43.877 E20.82099
G1 X19.538 Y43.687 E20.84372
G1 X19.979 Y43.572 E20.86645
G1 X20.411 Y43.536 E20.88808
G1 X36.411 Y43.536 E21.68632
G1 X36.865 Y43.576 E21.70906
G1 X37.305 Y43.694 E21.73179
G1 X37.717 Y43.888 E21.75451
G1 X38.09 Y44.151 E21.77728
G1 X38.411 Y44.474 E21.8
G1 X38.424 Y44.493 E21.80115
G1 X38.424 Y43.917 E21.82988
G1 X38.464 Y43.463 E21.85262
G1 X38.582 Y43.023 E21.87535
G1 X38.776 Y42.611 E21.89807
G1 X39.039 Y42.238 E21.92084
G1 X39.362 Y41.917 E21.94356
G1 X39.737 Y41.658 E21.96629
G1 X39.787 Y41.635 E21.96904
G1 X39.657 Y41.543 E21.97699
G1 X39.336 Y41.22 E21.9997
G1 X39.077 Y40.845 E22.02244
G1 X38.887 Y40.431 E22.04517
G1 X38.772 Y39.99 E22.0679
G1 X38.753 Y39.762 E22.07932
G1 X38.753 Y40.685 E22.12537
G1 X38.713 Y41.139 E22.14811
G1 X38.595 Y41.579 E22.17083
G1 X38.401 Y41.991 E22.19355
G1 X38.138 Y42.364 E22.21632
G1 X37.815 Y42.685 E22.23904
G1 X37.44 Y42.944 E22.26178
G1 X37.026 Y43.134 E22.2845
G1 X36.585 Y43.249 E22.30724
G1 X36.153 Y43.285 E22.32887
G1 X20.153 Y43.285 E23.12711
G1 X19.699 Y43.245 E23.14985
G1 X19.259 Y43.127 E23.17258
G1 X18.847 Y42.933 E23.1953
G1 X18.474 Y42.67 E23.21807
G1 X18.153 Y42.347 E23.24079
G1 X17.894 Y41.972 E23.26352
G1 X17.704 Y41.558 E23.28625
G1 X17.589 Y41.117 E23.30899
G1 X17.553 Y40.685 E23.33061
G1 X17.553 Y26.685 E24.02908
G1 X17.593 Y26.231 E24.05181
G1 X17.711 Y25.791 E24.07454
G1 X17.905 Y25.379 E24.09726
G1 X18.168 Y25.006 E24.12003
G1 X18.491 Y24.685 E24.14275
G1 X18.866 Y24.426 E24.16549
G0 F3600 X18.88 Y24.891
G1 F1800 X19.243 Y24.682 E24.18638
G1 X19.64 Y24.546 E24.20732
G1 X20.153 Y24.485 E24.23309
G1 X36.153 Y24.485 E25.03134
G1 X36.57 Y24.525 E25.05224
G1 X36.972 Y24.643 E25.07314
G1 X37.344 Y24.836 E25.09405
G1 X37.673 Y25.095 E25.11494
G1 X37.947 Y25.412 E25.13584
G1 X38.156 Y25.775 E25.15674
G1 X38.292 Y26.172 E25.17768
G1 X38.353 Y26.685 E25.20345
G1 X38.353 Y40.685 E25.90191
G1 X38.313 Y41.102 E25.92281
G1 X38.195 Y41.504 E25.94371
G1 X38.002 Y41.876 E25.96462
G1 X37.743 Y42.205 E25.98551
G1 X37.426 Y42.479 E26.00642
G1 X37.063 Y42.688 E26.02731
G1 X36.666 Y42.824 E26.04825
G1 X36.153 Y42.885 E26.07402
G1 X20.153 Y42.885 E26.87227
G1 X19.736 Y42.845 E26.89317
G1 X19.334 Y42.727 E26.91407
G1 X18.962 Y42.534 E26.93498
G1 X18.633 Y42.275 E26.95587
G1 X18.359 Y41.958 E26.97677
G1 X18.15 Y41.595 E26.99767
G1 X18.014 Y41.198 E27.01861
G1 X17.953 Y40.685 E27.04438
G1 X17.953 Y26.685 E27.74284
G1 X17.993 Y26.268 E27.76374
G1 X18.111 Y25.866 E27.78464
G1 X18.304 Y25.494 E27.80555
G1 X18.563 Y25.165 E27.82644
G1 X18.88 Y24.891 E27.84735
G0 F3600 X19.265 Y25.12
G1 F1800 X19.612 Y24.968 E27.86625
G1 X20.153 Y24.885 E27.89355
G1 X36.153 Y24.885 E28.6918
G1 X36.53 Y24.925 E28.71071
G1 X36.89 Y25.043 E28.72961
G1 X37.217 Y25.233 E28.74848
G1 X37.498 Y25.488 E28.76741
G1 X37.718 Y25.797 E28.78633
G1 X37.87 Y26.144 E28.80523
G1 X37.953 Y26.685 E28.83254
G1 X37.953 Y40.685 E29.531
G1 X37.913 Y41.062 E29.54992
G1 X37.795 Y41.422 E29.56882
G1 X37.605 Y41.749 E29.58769
G1 X37.35 Y42.03 E29.60662
G1 X37.041 Y42.25 E29.62554
G1 X36.694 Y42.402 E29.64444
G1 X36.153 Y42.485 E29.67175
G1 X20.153 Y42.485 E30.46999
G1 X19.776 Y42.445 E30.48891
G1 X19.416 Y42.327 E30.50781
G1 X19.089 Y42.137 E30.52667
G1 X18.808 Y41.882 E30.54561
G1 X18.588 Y41.573 E30.56453
G1 X18.436 Y41.226 E30.58343
G1 X18.353 Y40.685 E30.61074
G1 X18.353 Y26.685 E31.3092
G1 X18.393 Y26.308 E31.32811
G1 X18.511 Y25.948 E31.34701
G1 X18.701 Y25.621 E31.36588
G1 X18.956 Y25.34 E31.38481
G1 X19.265 Y25.12 E31.40374
G0 F3600 X19.346 Y25.541
G1 F1800 X19.64 Y25.382 E31.42041
G1 X19.964 Y25.298 E31.43711
G1 X20.153 Y25.285 E31.44656
G1 X36.153 Y25.285 E32.24481
G1 X36.485 Y25.325 E32.26149
G1 X36.797 Y25.442 E32.27811
G1 X37.074 Y25.63 E32.29482
G1 X37.297 Y25.878 E32.31145
G1 X37.456 Y26.172 E32.32813
G1 X37.54 Y26.496 E32.34483
G1 X37.553 Y26.685 E32.35428
G1 X37.553 Y40.685 E33.05274
G1 X37.513 Y41.017 E33.06943
G1 X37.396 Y41.329 E33.08605
G1 X37.208 Y41.606 E33.10275
G1 X36.96 Y41.829 E33.11939
G1 X36.666 Y41.988 E33.13607
G1 X36.342 Y42.072 E33.15277
G1 X36.153 Y42.085 E33.16222
G1 X20.153 Y42.085 E33.96046
G1 X19.821 Y42.045 E33.97714
G1 X19.509 Y41.928 E33.99377
G1 X19.232 Y41.74 E34.01047
G1 X19.009 Y41.492 E34.02711
G1 X18.85 Y41.198 E34.04378
G1 X18.766 Y40.874 E34.06048
G1 X18.753 Y40.685 E34.06993
G1 X18.753 Y26.685 E34.7684
G1 X18.793 Y26.353 E34.78508
G1 X18.91 Y26.041 E34.80171
G1 X19.098 Y25.764 E34.81841
G1 X19.346 Y25.541 E34.83505
G0 F3600 X19.492 Y25.934
G1 F1800 X19.728 Y25.78 E34.84911
G1 X19.998 Y25.697 E34.8632
G1 X20.153 Y25.685 E34.87095
G1 X36.153 Y25.685 E35.6692
G1 X36.432 Y25.725 E35.68326
G1 X36.689 Y25.841 E35.69733
G1 X36.904 Y26.024 E35.71141
G1 X37.058 Y26.26 E35.72547
G1 X37.141 Y26.53 E35.73956
G1 X37.153 Y26.685 E35.74732
G1 X37.153 Y40.685 E36.44578
G1 X37.113 Y40.964 E36.45984
G1 X36.997 Y41.221 E36.47391
G1 X36.814 Y41.436 E36.488
G1 X36.578 Y41.59 E36.50206
G1 X36.308 Y41.673 E36.51615
G1 X36.153 Y41.685 E36.52391
G1 X20.153 Y41.685 E37.32215
G1 X19.874 Y41.645 E37.33621
G1 X19.617 Y41.529 E37.35028
G1 X19.402 Y41.346 E37.36436
G1 X19.248 Y41.11 E37.37842
G1 X19.165 Y40.84 E37.39251
G1 X19.153 Y40.685 E37.40027
G1 X19.153 Y26.685 E38.09873
G1 X19.193 Y26.406 E38.1128
G1 X19.309 Y26.149 E38.12686
G1 X19.492 Y25.934 E38.14095
G0 F3600 X19.879 Y26.151
G1 F1800 X20.153 Y26.085 E38.15501
G1 X36.153 Y26.085 E38.95325
G1 X36.368 Y26.125 E38.96416
G1 X36.554 Y26.238 E38.97502
G1 X36.687 Y26.411 E38.98591
G1 X36.753 Y26.685 E38.99997
G1 X36.753 Y40.685 E39.69843
G1 X36.713 Y40.9 E39.70934
G1 X36.6 Y41.086 E39.7202
G1 X36.427 Y41.219 E39.73109
G1 X36.153 Y41.285 E39.74515
G1 X20.153 Y41.285 E40.54339
G1 X19.938 Y41.245 E40.5543
G1 X19.752 Y41.132 E40.56516
G1 X19.619 Y40.959 E40.57605
G1 X19.553 Y40.685 E40.59011
G1 X19.553 Y26.685 E41.28857
G1 X19.593 Y26.47 E41.29948
G1 X19.706 Y26.284 E41.31034
G1 X19.879 Y26.151 E41.32122
G0 F3600 X19.992 Y26.566
G1 F1800 X20.153 Y26.485 E41.33022
G1 X36.153 Y26.485 E42.12846
G1 X36.272 Y26.524 E42.13471
G1 X36.353 Y26.685 E42.1437
G1 X36.353 Y40.685 E42.84216
G1 X36.314 Y40.804 E42.84841
G1 X36.153 Y40.885 E42.8574
G1 X20.153 Y40.885 E43.65564
G1 X20.034 Y40.846 E43.66189
G1 X19.953 Y40.685 E43.67088
G1 X19.953 Y26.685 E44.36935
G1 X19.992 Y26.566 E44.37559
G1 F1500 E37.87559
G0 F3600 X19.488 Y26.566
G0 X19.5 Y41.338
G0 X20.411 Y43.936
G1 F1500 E44.37559
G1 F1800 X36.411 Y43.936 E45.17384
G1 X36.828 Y43.976 E45.19474
G1 X37.23 Y44.094 E45.21564
G1 X37.602 Y44.287 E45.23655
G1 X37.931 Y44.546 E45.25744
G1 X38.205 Y44.863 E45.27834
G1 X38.414 Y45.226 E45.29924
G1 X38.55 Y45.623 E45.32017
G1 X38.611 Y46.136 E45.34595
G1 X38.611 Y60.136 E46.04441
G1 X38.571 Y60.553 E46.06531
G1 X38.453 Y60.955 E46.08621
G1 X38.26 Y61.327 E46.10712
G1 X38.001 Y61.656 E46.12801
G1 X37.684 Y61.93 E46.14892
G1 X37.321 Y62.139 E46.16981
G1 X36.924 Y62.275 E46.19075
G1 X36.411 Y62.336 E46.21652
G1 X20.411 Y62.336 E47.01477
G1 X19.994 Y62.296 E47.03567
G1 X19.592 Y62.178 E47.05657
G1 X19.22 Y61.985 E47.07748
G1 X18.891 Y61.726 E47.09837
G1 X18.617 Y61.409 E47.11927
G1 X18.408 Y61.046 E47.14017
G1 X18.272 Y60.649 E47.1611
G1 X18.211 Y60.136 E47.18688
G1 X18.211 Y46.136 E47.88534
G1 X18.251 Y45.719 E47.90624
