;FLAVOR:Marlin
;TIME:627
;Filament used: 0.584204m
;Layer height: 0.2
;Generated with Cura_SteamEngine 3.4.1
M190 S75
M104 S220
M109 S220
M82 ;absolute extrusion mode
G21 ;metric values
G90 ;absolute positioning
M82 ;set extruder to absolute mode
M107 ;start with the fan off
G28 X0 Y0 ;move X/Y to min endstops
G28 Z0 ;move Z to min endstops
G1 Z15.0 F9000 ;move the platform down 15mm
G92 E0 ;zero the extruded length
G1 F200 E3 ;extrude 3mm of feed stock
G92 E0 ;zero the extruded length again
G1 F9000
;Put printing message on LCD screen
M117 Printing...
G92 E0
G1 F1500 E-6.5
;LAYER_COUNT:66
;LAYER:0
M107
G0 F3600 X18.113 Y16.002 Z0.2
;TYPE:SKIRT
G1 F1500 E0
G1 F1800 X18.441 Y15.639 E0.01627
G1 X18.824 Y15.334 E0.03256
G1 X19.252 Y15.096 E0.04884
G1 X19.712 Y14.93 E0.06511
G1 X20.193 Y14.841 E0.08138
G1 X20.495 Y14.826 E0.09144
G1 X35.495 Y14.826 E0.59034
G1 X35.983 Y14.866 E0.60662
G1 X36.458 Y14.985 E0.62291
G1 X36.907 Y15.179 E0.63918
G1 X37.319 Y15.444 E0.65547
G1 X37.682 Y15.772 E0.67174
G1 X37.987 Y16.155 E0.68803
G1 X38.225 Y16.583 E0.70432
G1 X38.391 Y17.043 E0.72058
G1 X38.48 Y17.524 E0.73685
G1 X38.495 Y17.826 E0.74691
G1 X38.495 Y31.826 E1.21255
G1 X38.455 Y32.314 E1.22884
G1 X38.336 Y32.789 E1.24512
G1 X38.142 Y33.238 E1.26139
G1 X37.877 Y33.65 E1.27768
G1 X37.549 Y34.013 E1.29396
G1 X37.166 Y34.318 E1.31024
G1 X36.738 Y34.556 E1.32653
G1 X36.278 Y34.722 E1.34279
G1 X35.797 Y34.811 E1.35906
G1 X35.495 Y34.826 E1.36912
G1 X20.495 Y34.826 E1.86802
G1 X20.007 Y34.786 E1.88431
G1 X19.532 Y34.667 E1.90059
G1 X19.083 Y34.473 E1.91686
G1 X18.671 Y34.208 E1.93316
G1 X18.308 Y33.88 E1.94943
G1 X18.003 Y33.497 E1.96571
G1 X17.765 Y33.069 E1.982
G1 X17.599 Y32.609 E1.99827
G1 X17.51 Y32.128 E2.01454
G1 X17.495 Y31.826 E2.02459
G1 X17.495 Y17.826 E2.49023
G1 X17.535 Y17.338 E2.50652
G1 X17.654 Y16.863 E2.52281
G1 X17.848 Y16.414 E2.53908
G1 X18.113 Y16.002 E2.55537
G0 F3600 X18.51 Y16.147
G1 F1800 X18.833 Y15.826 E2.57051
G1 X19.208 Y15.567 E2.58567
G1 X19.622 Y15.377 E2.60082
G1 X20.063 Y15.262 E2.61598
G1 X20.495 Y15.226 E2.6304
G1 X35.495 Y15.226 E3.1293
G1 X35.949 Y15.266 E3.14446
G1 X36.389 Y15.384 E3.15961
G1 X36.801 Y15.578 E3.17476
G1 X37.174 Y15.841 E3.18994
G1 X37.495 Y16.164 E3.20508
G1 X37.754 Y16.539 E3.22024
G1 X37.944 Y16.953 E3.23539
G1 X38.059 Y17.394 E3.25055
G1 X38.095 Y17.826 E3.26497
G1 X38.095 Y31.826 E3.73061
G1 X38.055 Y32.28 E3.74577
G1 X37.937 Y32.72 E3.76092
G1 X37.743 Y33.132 E3.77607
G1 X37.48 Y33.505 E3.79125
G1 X37.157 Y33.826 E3.80639
G1 X36.782 Y34.085 E3.82155
G1 X36.368 Y34.275 E3.8367
G1 X35.927 Y34.39 E3.85186
G1 X35.495 Y34.426 E3.86628
G1 X20.495 Y34.426 E4.36518
G1 X20.041 Y34.386 E4.38034
G1 X19.601 Y34.268 E4.39549
G1 X19.189 Y34.074 E4.41064
G1 X18.816 Y33.811 E4.42582
G1 X18.495 Y33.488 E4.44096
G1 X18.236 Y33.113 E4.45612
G1 X18.046 Y32.699 E4.47127
G1 X17.931 Y32.258 E4.48643
G1 X17.895 Y31.826 E4.50085
G1 X17.895 Y17.826 E4.96649
G1 X17.935 Y17.372 E4.98165
G1 X18.053 Y16.932 E4.9968
G1 X18.247 Y16.52 E5.01195
G1 X18.51 Y16.147 E5.02713
G0 F3600 X18.646 Y16.635
G1 F1800 X18.905 Y16.306 E5.04105
G1 X19.222 Y16.032 E5.05499
G1 X19.585 Y15.823 E5.06892
G1 X19.982 Y15.687 E5.08288
G1 X20.495 Y15.626 E5.10006
G1 X35.495 Y15.626 E5.59896
G1 X35.912 Y15.666 E5.6129
G1 X36.314 Y15.784 E5.62683
G1 X36.686 Y15.977 E5.64077
G1 X37.015 Y16.236 E5.6547
G1 X37.289 Y16.553 E5.66863
G1 X37.498 Y16.916 E5.68256
G1 X37.634 Y17.313 E5.69652
G1 X37.695 Y17.826 E5.7137
G1 X37.695 Y31.826 E6.17935
G1 X37.655 Y32.243 E6.19328
G1 X37.537 Y32.645 E6.20721
G1 X37.344 Y33.017 E6.22115
G1 X37.085 Y33.346 E6.23508
G1 X36.768 Y33.62 E6.24901
G1 X36.405 Y33.829 E6.26295
G1 X36.008 Y33.965 E6.2769
G1 X35.495 Y34.026 E6.29409
G1 X20.495 Y34.026 E6.79299
G1 X20.078 Y33.986 E6.80692
G1 X19.676 Y33.868 E6.82086
G1 X19.304 Y33.675 E6.8348
G1 X18.975 Y33.416 E6.84872
G1 X18.701 Y33.099 E6.86266
G1 X18.492 Y32.736 E6.87659
G1 X18.356 Y32.339 E6.89055
G1 X18.295 Y31.826 E6.90773
G1 X18.295 Y17.826 E7.37337
G1 X18.335 Y17.409 E7.3873
G1 X18.453 Y17.007 E7.40124
G1 X18.646 Y16.635 E7.41518
G0 F3600 X19.043 Y16.762
G1 F1800 X19.298 Y16.481 E7.4278
G1 X19.607 Y16.261 E7.44042
G1 X19.954 Y16.109 E7.45302
G1 X20.495 Y16.026 E7.47122
G1 X35.495 Y16.026 E7.97012
G1 X35.872 Y16.066 E7.98273
G1 X36.232 Y16.184 E7.99533
G1 X36.559 Y16.374 E8.00791
G1 X36.84 Y16.629 E8.02053
G1 X37.06 Y16.938 E8.03315
G1 X37.212 Y17.285 E8.04575
G1 X37.295 Y17.826 E8.06395
G1 X37.295 Y31.826 E8.52959
G1 X37.255 Y32.203 E8.5422
G1 X37.137 Y32.563 E8.5548
G1 X36.947 Y32.89 E8.56738
G1 X36.692 Y33.171 E8.58
G1 X36.383 Y33.391 E8.59262
G1 X36.036 Y33.543 E8.60522
G1 X35.495 Y33.626 E8.62342
G1 X20.495 Y33.626 E9.12232
G1 X20.118 Y33.586 E9.13493
G1 X19.758 Y33.468 E9.14753
G1 X19.431 Y33.278 E9.16011
G1 X19.15 Y33.023 E9.17273
G1 X18.93 Y32.714 E9.18535
G1 X18.778 Y32.367 E9.19795
G1 X18.695 Y31.826 E9.21615
G1 X18.695 Y17.826 E9.6818
G1 X18.735 Y17.449 E9.69441
G1 X18.853 Y17.089 E9.70701
G1 X19.043 Y16.762 E9.71959
G0 F3600 X19.44 Y16.905
G1 F1800 X19.688 Y16.682 E9.73068
G1 X19.982 Y16.523 E9.74179
G1 X20.306 Y16.439 E9.75293
G1 X20.495 Y16.426 E9.75923
G1 X35.495 Y16.426 E10.25813
G1 X35.827 Y16.466 E10.26925
G1 X36.139 Y16.583 E10.28034
G1 X36.416 Y16.771 E10.29147
G1 X36.639 Y17.019 E10.30256
G1 X36.798 Y17.313 E10.31368
G1 X36.882 Y17.637 E10.32481
G1 X36.895 Y17.826 E10.33111
G1 X36.895 Y31.826 E10.79676
G1 X36.855 Y32.158 E10.80788
G1 X36.738 Y32.47 E10.81896
G1 X36.55 Y32.747 E10.83009
G1 X36.302 Y32.97 E10.84119
G1 X36.008 Y33.129 E10.8523
G1 X35.684 Y33.213 E10.86344
G1 X35.495 Y33.226 E10.86974
G1 X20.495 Y33.226 E11.36864
G1 X20.163 Y33.186 E11.37976
G1 X19.851 Y33.069 E11.39085
G1 X19.574 Y32.881 E11.40198
G1 X19.351 Y32.633 E11.41307
G1 X19.192 Y32.339 E11.42419
G1 X19.108 Y32.015 E11.43532
G1 X19.095 Y31.826 E11.44162
G1 X19.095 Y17.826 E11.90726
G1 X19.135 Y17.494 E11.91839
G1 X19.252 Y17.182 E11.92947
G1 X19.44 Y16.905 E11.9406
G0 F3600 X19.651 Y17.29
G1 F1800 X19.834 Y17.075 E11.95
G1 X20.07 Y16.921 E11.95937
G1 X20.34 Y16.838 E11.96876
G1 X20.495 Y16.826 E11.97393
G1 X35.495 Y16.826 E12.47284
G1 X35.774 Y16.866 E12.48221
G1 X36.031 Y16.982 E12.49159
G1 X36.246 Y17.165 E12.50098
G1 X36.4 Y17.401 E12.51035
G1 X36.483 Y17.671 E12.51975
G1 X36.495 Y17.826 E12.52492
G1 X36.495 Y31.826 E12.99056
G1 X36.455 Y32.105 E12.99993
G1 X36.339 Y32.362 E13.00931
G1 X36.156 Y32.577 E13.0187
G1 X35.92 Y32.731 E13.02808
G1 X35.65 Y32.814 E13.03747
G1 X35.495 Y32.826 E13.04264
G1 X20.495 Y32.826 E13.54154
G1 X20.216 Y32.786 E13.55092
G1 X19.959 Y32.67 E13.5603
G1 X19.744 Y32.487 E13.56969
G1 X19.59 Y32.251 E13.57906
G1 X19.507 Y31.981 E13.58845
G1 X19.495 Y31.826 E13.59362
G1 X19.495 Y17.826 E14.05927
G1 X19.535 Y17.547 E14.06864
G1 X19.651 Y17.29 E14.07802
G0 F3600 X20.048 Y17.425
G1 F1800 X20.221 Y17.292 E14.08528
G1 X20.495 Y17.226 E14.09465
G1 X35.495 Y17.226 E14.59355
G1 X35.71 Y17.266 E14.60083
G1 X35.896 Y17.379 E14.60807
G1 X36.029 Y17.552 E14.61532
G1 X36.095 Y17.826 E14.6247
G1 X36.095 Y31.826 E15.09034
G1 X36.055 Y32.041 E15.09761
G1 X35.942 Y32.227 E15.10485
G1 X35.769 Y32.36 E15.11211
G1 X35.495 Y32.426 E15.12148
G1 X20.495 Y32.426 E15.62038
G1 X20.28 Y32.386 E15.62766
G1 X20.094 Y32.273 E15.6349
G1 X19.961 Y32.1 E15.64216
G1 X19.895 Y31.826 E15.65153
G1 X19.895 Y17.826 E16.11717
G1 X19.935 Y17.611 E16.12444
G1 X20.048 Y17.425 E16.13168
G0 F3600 X20.334 Y17.707
G1 F1800 X20.495 Y17.626 E16.13768
G1 X35.495 Y17.626 E16.63658
G1 X35.614 Y17.665 E16.64074
G1 X35.695 Y17.826 E16.64674
G1 X35.695 Y31.826 E17.11238
G1 X35.656 Y31.945 E17.11655
G1 X35.495 Y32.026 E17.12254
G1 X20.495 Y32.026 E17.62144
G1 X20.376 Y31.987 E17.62561
G1 X20.295 Y31.826 E17.6316
G1 X20.295 Y17.826 E18.09724
G1 X20.334 Y17.707 E18.10141
G1 F1500 E11.60141
G0 F3600 X21.109 Y18.44
G0 X34.825 Y31.156
G0 X35.295 Y31.626
;TYPE:WALL-OUTER
G1 F1500 E18.10141
G1 F1800 X20.695 Y31.626 E18.58701
G1 X20.695 Y18.026 E19.03934
G1 X35.295 Y18.026 E19.52494
G1 X35.295 Y31.626 E19.97728
G0 F3600 X35.095 Y31.626
G0 X34.895 Y31.226
;TYPE:WALL-INNER
G1 F1800 X21.095 Y31.226 E20.43627
G1 X21.095 Y18.426 E20.862
G1 X34.895 Y18.426 E21.32099
G1 X34.895 Y31.226 E21.74672
G0 F3600 X34.495 Y30.826
G1 F1800 X21.495 Y30.826 E22.1791
G1 X21.495 Y18.826 E22.57822
G1 X34.495 Y18.826 E23.0106
G1 X34.495 Y30.826 E23.40973
G0 F3600 X34.105 Y30.436
;TYPE:SKIN
G1 F1800 X21.885 Y30.436 E23.81617
G1 X21.885 Y19.216 E24.18934
G1 X34.105 Y19.216 E24.59578
G1 X34.105 Y30.436 E24.96896
G0 F3600 X33.924 Y19.782
G1 F1800 X33.538 Y19.395 E24.98714
G0 F3600 X32.972 Y19.395
G1 F1800 X33.924 Y20.347 E25.03192
G1 X33.994 Y20.417
G0 F3600 X33.924 Y20.913
G1 F1800 X32.406 Y19.395 E25.10332
G1 X32.336 Y19.325
G0 F3600 X31.841 Y19.395
G1 F1800 X33.924 Y21.479 E25.20132
G1 X33.994 Y21.549
G0 F3600 X33.924 Y22.044
G1 F1800 X31.275 Y19.395 E25.32592
G1 X31.205 Y19.325
G0 F3600 X30.709 Y19.395
G1 F1800 X33.924 Y22.61 E25.47715
G1 X33.994 Y22.68
G0 F3600 X33.924 Y23.176
G1 F1800 X30.143 Y19.395 E25.655
G1 X30.073 Y19.325
G0 F3600 X29.578 Y19.395
G1 F1800 X33.924 Y23.741 E25.85942
G1 X33.994 Y23.811
G0 F3600 X33.924 Y24.307
G1 F1800 X29.012 Y19.395 E26.09046
G1 X28.942 Y19.325
G0 F3600 X28.446 Y19.395
G1 F1800 X33.924 Y24.873 E26.34813
G1 X33.994 Y24.943
G0 F3600 X33.924 Y25.438
G1 F1800 X27.881 Y19.395 E26.63238
G1 X27.811 Y19.325
G0 F3600 X27.315 Y19.395
G1 F1800 X33.924 Y26.004 E26.94324
G1 X33.994 Y26.074
G0 F3600 X33.924 Y26.57
G1 F1800 X26.749 Y19.395 E27.28073
G1 X26.679 Y19.325
G0 F3600 X26.184 Y19.395
G1 F1800 X33.924 Y27.135 E27.6448
G1 X33.994 Y27.205
G0 F3600 X33.924 Y27.701
G1 F1800 X25.618 Y19.395 E28.03549
G1 X25.548 Y19.325
G0 F3600 X25.052 Y19.395
G1 F1800 X33.924 Y28.267 E28.4528
G1 X33.994 Y28.337
G0 F3600 X33.924 Y28.832
G1 F1800 X24.487 Y19.395 E28.89669
G1 X24.417 Y19.325
G0 F3600 X23.921 Y19.395
G1 F1800 X33.924 Y29.398 E29.3672
G1 X33.994 Y29.468
G0 F3600 X33.924 Y29.964
G1 F1800 X23.355 Y19.395 E29.86433
G1 X23.285 Y19.325
G0 F3600 X22.79 Y19.395
G1 F1800 X33.649 Y30.254 E30.3751
G1 X33.719 Y30.324
G0 F3600 X33.083 Y30.254
G1 F1800 X22.224 Y19.395 E30.88588
G1 X22.154 Y19.325
G0 F3600 X22.064 Y19.801
G1 F1800 X32.517 Y30.254 E31.37756
G1 X32.587 Y30.324
G0 F3600 X31.952 Y30.254
G1 F1800 X22.064 Y20.367 E31.84263
G1 X21.994 Y20.297
G0 F3600 X22.064 Y20.933
G1 F1800 X31.386 Y30.254 E32.28109
G1 X31.456 Y30.324
G0 F3600 X30.82 Y30.254
G1 F1800 X22.064 Y21.498 E32.69294
G1 X21.994 Y21.428
G0 F3600 X22.064 Y22.064
G1 F1800 X30.254 Y30.254 E33.07818
G1 X30.324 Y30.324
G0 F3600 X29.689 Y30.254
G1 F1800 X22.064 Y22.63 E33.43681
G1 X21.994 Y22.56
G0 F3600 X22.064 Y23.195
G1 F1800 X29.123 Y30.254 E33.76884
G1 X29.193 Y30.324
G0 F3600 X28.557 Y30.254
G1 F1800 X22.064 Y23.761 E34.07425
G1 X21.994 Y23.691
G0 F3600 X22.064 Y24.327
G1 F1800 X27.992 Y30.254 E34.35307
G1 X28.062 Y30.324
G0 F3600 X27.426 Y30.254
G1 F1800 X22.064 Y24.892 E34.60528
G1 X21.994 Y24.822
G0 F3600 X22.064 Y25.458
G1 F1800 X26.86 Y30.254 E34.83087
G1 X26.93 Y30.324
G0 F3600 X26.295 Y30.254
G1 F1800 X22.064 Y26.024 E35.02986
G1 X21.994 Y25.954
G0 F3600 X22.064 Y26.59
G1 F1800 X25.729 Y30.254 E35.20222
G1 X25.799 Y30.324
G0 F3600 X25.163 Y30.254
G1 F1800 X22.064 Y27.155 E35.34799
G1 X21.994 Y27.085
G0 F3600 X22.064 Y27.721
G1 F1800 X24.598 Y30.254 E35.46716
G1 X24.668 Y30.324
G0 F3600 X24.032 Y30.254
G1 F1800 X22.064 Y28.287 E35.5597
G1 X21.994 Y28.217
G0 F3600 X22.064 Y28.852
G1 F1800 X23.466 Y30.254 E35.62565
G1 X23.536 Y30.324
G0 F3600 X22.901 Y30.254
G1 F1800 X22.064 Y29.418 E35.665
G1 X21.994 Y29.348
G0 F3600 X22.064 Y29.984
G1 F1800 X22.335 Y30.254 E35.67772
G0 F3600 X34.495 Y30.826
;TIME_ELAPSED:46.298331
;LAYER:1
M140 S75
M106 S255
G0 F5400 X34.495 Y30.826 Z0.4
;TYPE:WALL-INNER
G1 F2700 X21.495 Y30.826 E36.1101
G1 X21.495 Y18.826 E36.50922
G1 X34.495 Y18.826 E36.9416
G1 X34.495 Y30.826 E37.34073
G0 F5400 X34.895 Y31.226
G1 F2700 X21.095 Y31.226 E37.79972
G1 X21.095 Y18.426 E38.22545
G1 X34.895 Y18.426 E38.68444
G1 X34.895 Y31.226 E39.11017
G0 F5400 X35.295 Y31.626
;TYPE:WALL-OUTER
G1 F1800 X20.695 Y31.626 E39.59576
G1 X20.695 Y18.026 E40.0481
G1 X35.295 Y18.026 E40.5337
G1 X35.295 Y31.626 E40.98604
G0 F5400 X35.095 Y31.626
G0 X34.825 Y31.156
G0 X34.105 Y30.436
;TYPE:SKIN
G1 F1800 X21.885 Y30.436 E41.39248
G1 X21.885 Y19.216 E41.76565
G1 X34.105 Y19.216 E42.17209
G1 X34.105 Y30.436 E42.54527
G0 F5400 X33.924 Y29.998
G1 F1800 X33.666 Y30.255 E42.55738
G0 F5400 X33.101 Y30.255
G1 F1800 X33.924 Y29.432 E42.5961
G1 X33.994 Y29.362
G0 F5400 X33.924 Y28.866
G1 F1800 X32.535 Y30.255 E42.66143
G1 X32.465 Y30.325
G0 F5400 X31.969 Y30.255
G1 F1800 X33.924 Y28.301 E42.75336
G1 X33.994 Y28.231
G0 F5400 X33.924 Y27.735
G1 F1800 X31.404 Y30.255 E42.8719
G1 X31.334 Y30.325
G0 F5400 X30.838 Y30.255
G1 F1800 X33.924 Y27.169 E43.01705
G1 X33.994 Y27.099
G0 F5400 X33.924 Y26.604
G1 F1800 X30.272 Y30.255 E43.18881
G1 X30.202 Y30.325
G0 F5400 X29.706 Y30.255
G1 F1800 X33.924 Y26.038 E43.38719
G1 X33.994 Y25.968
G0 F5400 X33.924 Y25.472
G1 F1800 X29.141 Y30.255 E43.61216
G1 X29.071 Y30.325
G0 F5400 X28.575 Y30.255
G1 F1800 X33.924 Y24.907 E43.86374
G1 X33.994 Y24.837
G0 F5400 X33.924 Y24.341
G1 F1800 X28.009 Y30.255 E44.14194
G1 X27.939 Y30.325
G0 F5400 X27.444 Y30.255
G1 F1800 X33.924 Y23.775 E44.44674
G1 X33.994 Y23.705
G0 F5400 X33.924 Y23.21
G1 F1800 X26.878 Y30.255 E44.77814
G1 X26.808 Y30.325
G0 F5400 X26.312 Y30.255
G1 F1800 X33.924 Y22.644 E45.13616
G1 X33.994 Y22.574
G0 F5400 X33.924 Y22.078
G1 F1800 X25.747 Y30.255 E45.52078
G1 X25.677 Y30.325
G0 F5400 X25.181 Y30.255
G1 F1800 X33.924 Y21.513 E45.932
G1 X33.994 Y21.443
G0 F5400 X33.924 Y20.947
G1 F1800 X24.615 Y30.255 E46.36985
G1 X24.545 Y30.325
G0 F5400 X24.05 Y30.255
G1 F1800 X33.924 Y20.381 E46.83429
G1 X33.994 Y20.311
G0 F5400 X33.924 Y19.815
G1 F1800 X23.484 Y30.255 E47.32535
G1 X23.414 Y30.325
G0 F5400 X22.918 Y30.255
G1 F1800 X33.778 Y19.395 E47.83617
G1 X33.848 Y19.325
G0 F5400 X33.212 Y19.395
G1 F1800 X22.353 Y30.255 E48.34697
G1 X22.283 Y30.325
G0 F5400 X22.065 Y29.977
G1 F1800 X32.647 Y19.395 E48.84472
G1 X32.717 Y19.325
G0 F5400 X32.081 Y19.395
G1 F1800 X22.065 Y29.412 E49.31586
G1 X21.995 Y29.482
G0 F5400 X22.065 Y28.846
G1 F1800 X31.515 Y19.395 E49.76038
G1 X31.585 Y19.325
G0 F5400 X30.95 Y19.395
G1 F1800 X22.065 Y28.28 E50.17831
G1 X21.995 Y28.35
G0 F5400 X22.065 Y27.715
G1 F1800 X30.384 Y19.395 E50.56963
G1 X30.454 Y19.325
G0 F5400 X29.818 Y19.395
G1 F1800 X22.065 Y27.149 E50.93433
G1 X21.995 Y27.219
G0 F5400 X22.065 Y26.583
G1 F1800 X29.253 Y19.395 E51.27243
G1 X29.323 Y19.325
G0 F5400 X28.687 Y19.395
G1 F1800 X22.065 Y26.017 E51.58391
G1 X21.995 Y26.087
G0 F5400 X22.065 Y25.452
G1 F1800 X28.121 Y19.395 E51.86879
G1 X28.191 Y19.325
G0 F5400 X27.555 Y19.395
G1 F1800 X22.065 Y24.886 E52.12705
G1 X21.995 Y24.956
G0 F5400 X22.065 Y24.32
G1 F1800 X26.99 Y19.395 E52.35871
G1 X27.06 Y19.325
G0 F5400 X26.424 Y19.395
G1 F1800 X22.065 Y23.755 E52.56376
G1 X21.995 Y23.825
G0 F5400 X22.065 Y23.189
G1 F1800 X25.858 Y19.395 E52.7422
G1 X25.928 Y19.325
G0 F5400 X25.293 Y19.395
G1 F1800 X22.065 Y22.623 E52.89403
G1 X21.995 Y22.693
G0 F5400 X22.065 Y22.058
G1 F1800 X24.727 Y19.395 E53.01927
G1 X24.797 Y19.325
G0 F5400 X24.161 Y19.395
G1 F1800 X22.065 Y21.492 E53.11788
G1 X21.995 Y21.562
G0 F5400 X22.065 Y20.926
G1 F1800 X23.596 Y19.395 E53.18989
G1 X23.666 Y19.325
G0 F5400 X23.03 Y19.395
G1 F1800 X22.065 Y20.361 E53.23531
G1 X21.995 Y20.431
G0 F5400 X22.065 Y19.795
G1 F1800 X22.464 Y19.395 E53.2541
G0 F5400 X34.495 Y30.826
;TIME_ELAPSED:64.135316
;LAYER:2
G0 F7200 X34.495 Y30.826 Z0.6
;TYPE:WALL-INNER
G1 F3600 X21.495 Y30.826 E53.68648
G1 X21.495 Y18.826 E54.0856
G1 X34.495 Y18.826 E54.51799
G1 X34.495 Y30.826 E54.91711
G0 F7200 X34.895 Y31.226
G1 F3600 X21.095 Y31.226 E55.3761
G1 X21.095 Y18.426 E55.80183
G1 X34.895 Y18.426 E56.26082
G1 X34.895 Y31.226 E56.68655
G0 F7200 X35.295 Y31.626
;TYPE:WALL-OUTER
G1 F1800 X20.695 Y31.626 E57.17214
G1 X20.695 Y18.026 E57.62448
G1 X35.295 Y18.026 E58.11008
G1 X35.295 Y31.626 E58.56242
G0 F7200 X35.095 Y31.626
