;FLAVOR:Marlin
;TIME:1040
;Filament used: 0.889764m
;Layer height: 0.2
;Generated with Cura_SteamEngine 3.4.1
M190 S60
M104 S200
M109 S200
M82 ;absolute extrusion mode
G21 ;metric values
G90 ;absolute positioning
M82 ;set extruder to absolute mode
M107 ;start with the fan off
G28 X0 Y0 ;move X/Y to min endstops
G28 Z0 ;move Z to min endstops
G1 Z15.0 F9000 ;move the platform down 15mm
G92 E0 ;zero the extruded length
G1 F200 E3 ;extrude 3mm of feed stock
G92 E0 ;zero the extruded length again
G1 F9000
;Put printing message on LCD screen
M117 Printing...
G92 E0
G1 F1500 E-6.5
;LAYER_COUNT:71
;LAYER:0
M107
G0 F3600 X15.348 Y21.292 Z0.2
;TYPE:SKIRT
G1 F1500 E0
G1 F1800 X15.996 Y20.841 E0.02626
G1 X16.687 Y20.457 E0.05255
G1 X17.412 Y20.145 E0.0788
G1 X18.165 Y19.908 E0.10506
G1 X18.939 Y19.749 E0.13134
G1 X19.724 Y19.668 E0.15759
G1 X20.126 Y19.658 E0.17096
G1 X36.126 Y19.658 E0.70313
G1 X36.915 Y19.698 E0.7294
G1 X37.695 Y19.817 E0.75564
G1 X38.46 Y20.015 E0.78193
G1 X39.2 Y20.289 E0.80817
G1 X39.524 Y20.448 E0.82018
G1 X39.7 Y20.35 E0.82688
G1 X40.425 Y20.038 E0.85313
G1 X41.178 Y19.801 E0.87938
G1 X41.952 Y19.642 E0.90567
G1 X42.737 Y19.561 E0.93191
G1 X43.139 Y19.551 E0.94529
G1 X59.139 Y19.551 E1.47745
G1 X59.928 Y19.591 E1.50373
G1 X60.708 Y19.71 E1.52997
G1 X61.473 Y19.908 E1.55625
G1 X62.213 Y20.182 E1.5825
G1 X62.922 Y20.53 E1.60877
G1 X63.593 Y20.948 E1.63506
G1 X64.217 Y21.431 E1.6613
G1 X64.79 Y21.974 E1.68756
G1 X65.305 Y22.573 E1.71383
G1 X65.756 Y23.221 E1.74009
G1 X66.14 Y23.912 E1.76639
G1 X66.452 Y24.637 E1.79264
G1 X66.689 Y25.39 E1.81889
G1 X66.848 Y26.164 E1.84518
G1 X66.929 Y26.949 E1.87142
G1 X66.939 Y27.351 E1.8848
G1 X66.939 Y39.851 E2.30055
G1 X66.899 Y40.64 E2.32683
G1 X66.78 Y41.42 E2.35307
G1 X66.582 Y42.185 E2.37935
G1 X66.308 Y42.925 E2.4056
G1 X65.96 Y43.634 E2.43187
G1 X65.542 Y44.305 E2.45816
G1 X65.059 Y44.929 E2.4844
G1 X64.516 Y45.502 E2.51066
G1 X63.917 Y46.017 E2.53693
G1 X63.269 Y46.468 E2.56319
G1 X62.578 Y46.852 E2.58949
G1 X61.853 Y47.164 E2.61574
G1 X61.1 Y47.401 E2.64199
G1 X60.326 Y47.56 E2.66827
G1 X59.541 Y47.641 E2.69452
G1 X59.139 Y47.651 E2.7079
G1 X43.139 Y47.651 E3.24006
G1 X42.35 Y47.611 E3.26634
G1 X41.57 Y47.492 E3.29258
G1 X41.176 Y47.39 E3.30612
G1 X40.904 Y47.624 E3.31805
G1 X40.256 Y48.075 E3.34431
G1 X39.565 Y48.459 E3.3706
G1 X38.84 Y48.771 E3.39685
G1 X38.087 Y49.008 E3.42311
G1 X37.313 Y49.167 E3.44939
G1 X36.528 Y49.248 E3.47564
G1 X36.126 Y49.258 E3.48901
G1 X20.126 Y49.258 E4.02117
G1 X19.337 Y49.218 E4.04745
G1 X18.557 Y49.099 E4.07369
G1 X17.792 Y48.901 E4.09998
G1 X17.052 Y48.627 E4.12622
G1 X16.343 Y48.279 E4.15249
G1 X15.672 Y47.861 E4.17878
G1 X15.048 Y47.378 E4.20503
G1 X14.475 Y46.835 E4.23129
G1 X13.96 Y46.236 E4.25756
G1 X13.509 Y45.588 E4.28382
G1 X13.125 Y44.897 E4.31011
G1 X12.813 Y44.172 E4.33636
G1 X12.576 Y43.419 E4.36262
G1 X12.417 Y42.645 E4.3889
G1 X12.336 Y41.86 E4.41515
G1 X12.326 Y41.458 E4.42852
G1 X12.326 Y27.458 E4.89416
G1 X12.366 Y26.669 E4.92044
G1 X12.485 Y25.889 E4.94668
G1 X12.683 Y25.124 E4.97297
G1 X12.957 Y24.384 E4.99921
G1 X13.305 Y23.675 E5.02548
G1 X13.723 Y23.004 E5.05177
G1 X14.206 Y22.38 E5.07802
G1 X14.749 Y21.807 E5.10428
G1 X15.348 Y21.292 E5.13055
G0 F3600 X15.737 Y21.5
G1 F1800 X16.379 Y21.077 E5.15612
G1 X17.062 Y20.722 E5.18172
G1 X17.777 Y20.441 E5.20727
G1 X18.519 Y20.235 E5.23289
G1 X19.277 Y20.107 E5.25845
G1 X20.126 Y20.058 E5.28674
G1 X36.126 Y20.058 E5.8189
G1 X36.894 Y20.098 E5.84448
G1 X37.654 Y20.217 E5.87007
G1 X38.397 Y20.415 E5.89564
G1 X39.116 Y20.689 E5.92123
G1 X39.53 Y20.898 E5.93666
G1 X40.075 Y20.615 E5.95708
G1 X40.79 Y20.334 E5.98263
G1 X41.532 Y20.128 E6.00825
G1 X42.29 Y20 E6.03381
G1 X43.139 Y19.951 E6.0621
G1 X59.139 Y19.951 E6.59426
G1 X59.907 Y19.991 E6.61984
G1 X60.667 Y20.11 E6.64543
G1 X61.41 Y20.308 E6.671
G1 X62.129 Y20.582 E6.69659
G1 X62.815 Y20.929 E6.72216
G1 X63.462 Y21.345 E6.74774
G1 X64.062 Y21.826 E6.77332
G1 X64.609 Y22.367 E6.79891
G1 X65.097 Y22.962 E6.8245
G1 X65.52 Y23.604 E6.85008
G1 X65.875 Y24.287 E6.87568
G1 X66.156 Y25.002 E6.90123
G1 X66.362 Y25.744 E6.92684
G1 X66.49 Y26.502 E6.95241
G1 X66.539 Y27.351 E6.98069
G1 X66.539 Y39.851 E7.39645
G1 X66.499 Y40.619 E7.42202
G1 X66.38 Y41.379 E7.44761
G1 X66.182 Y42.122 E7.47319
G1 X65.908 Y42.841 E7.49878
G1 X65.561 Y43.527 E7.52435
G1 X65.145 Y44.174 E7.54993
G1 X64.664 Y44.774 E7.57551
G1 X64.123 Y45.321 E7.6011
G1 X63.528 Y45.809 E7.62669
G1 X62.886 Y46.232 E7.65226
G1 X62.203 Y46.587 E7.67786
G1 X61.488 Y46.868 E7.70341
G1 X60.746 Y47.074 E7.72903
G1 X59.988 Y47.202 E7.7546
G1 X59.139 Y47.251 E7.78288
G1 X43.139 Y47.251 E8.31504
G1 X42.371 Y47.211 E8.34062
G1 X41.611 Y47.092 E8.36621
G1 X41.082 Y46.951 E8.38442
G1 X40.515 Y47.416 E8.4088
G1 X39.873 Y47.839 E8.43438
G1 X39.19 Y48.194 E8.45998
G1 X38.475 Y48.475 E8.48553
G1 X37.733 Y48.681 E8.51114
G1 X36.975 Y48.809 E8.53671
G1 X36.126 Y48.858 E8.56499
G1 X20.126 Y48.858 E9.09716
G1 X19.358 Y48.818 E9.12274
G1 X18.598 Y48.699 E9.14832
G1 X17.855 Y48.501 E9.1739
G1 X17.136 Y48.227 E9.19949
G1 X16.45 Y47.88 E9.22506
G1 X15.803 Y47.464 E9.25064
G1 X15.203 Y46.983 E9.27622
G1 X14.656 Y46.442 E9.30181
G1 X14.168 Y45.847 E9.3274
G1 X13.745 Y45.205 E9.35297
G1 X13.39 Y44.522 E9.37857
G1 X13.109 Y43.807 E9.40413
G1 X12.903 Y43.065 E9.42974
G1 X12.775 Y42.307 E9.45531
G1 X12.726 Y41.458 E9.48359
G1 X12.726 Y27.458 E9.94923
G1 X12.766 Y26.69 E9.97481
G1 X12.885 Y25.93 E10.0004
G1 X13.083 Y25.187 E10.02597
G1 X13.357 Y24.468 E10.05156
G1 X13.704 Y23.782 E10.07713
G1 X14.12 Y23.135 E10.10272
G1 X14.601 Y22.535 E10.12829
G1 X15.142 Y21.988 E10.15388
G1 X15.737 Y21.5 E10.17948
G0 F3600 X16.124 Y21.715
G1 F1800 X16.76 Y21.32 E10.20438
G1 X17.434 Y20.996 E10.22925
G1 X18.139 Y20.746 E10.25413
G1 X18.867 Y20.572 E10.27902
G1 X19.609 Y20.477 E10.30391
G1 X20.126 Y20.458 E10.32111
G1 X36.126 Y20.458 E10.85327
G1 X36.873 Y20.498 E10.87816
G1 X37.611 Y20.617 E10.90302
G1 X38.333 Y20.815 E10.92792
G1 X39.029 Y21.088 E10.95278
G1 X39.542 Y21.356 E10.97204
G1 X39.773 Y21.213 E10.98107
G1 X40.447 Y20.889 E11.00594
G1 X41.152 Y20.639 E11.03082
G1 X41.88 Y20.465 E11.05572
G1 X42.622 Y20.37 E11.0806
G1 X43.139 Y20.351 E11.09781
G1 X59.139 Y20.351 E11.62997
G1 X59.886 Y20.391 E11.65485
G1 X60.624 Y20.51 E11.67971
G1 X61.346 Y20.708 E11.70461
G1 X62.042 Y20.981 E11.72948
G1 X62.705 Y21.328 E11.75437
G1 X63.328 Y21.743 E11.77927
G1 X63.902 Y22.222 E11.80413
G1 X64.423 Y22.759 E11.82902
G1 X64.882 Y23.349 E11.85388
G1 X65.277 Y23.985 E11.87878
G1 X65.601 Y24.659 E11.90365
G1 X65.851 Y25.364 E11.92853
G1 X66.025 Y26.092 E11.95343
G1 X66.12 Y26.834 E11.97831
G1 X66.139 Y27.351 E11.99552
G1 X66.139 Y39.851 E12.41127
G1 X66.099 Y40.598 E12.43615
G1 X65.98 Y41.336 E12.46101
G1 X65.782 Y42.058 E12.48591
G1 X65.509 Y42.754 E12.51078
G1 X65.162 Y43.417 E12.53567
G1 X64.747 Y44.04 E12.56056
G1 X64.268 Y44.614 E12.58543
G1 X63.731 Y45.135 E12.61032
G1 X63.141 Y45.594 E12.63518
G1 X62.505 Y45.989 E12.66008
G1 X61.831 Y46.313 E12.68495
G1 X61.126 Y46.563 E12.70983
G1 X60.398 Y46.737 E12.73473
G1 X59.656 Y46.832 E12.75961
G1 X59.139 Y46.851 E12.77681
G1 X43.139 Y46.851 E13.30898
G1 X42.392 Y46.811 E13.33386
G1 X41.654 Y46.692 E13.35872
G1 X40.964 Y46.503 E13.38251
G1 X40.718 Y46.742 E13.39392
G1 X40.128 Y47.201 E13.41878
G1 X39.492 Y47.596 E13.44369
G1 X38.818 Y47.92 E13.46856
G1 X38.113 Y48.17 E13.49344
G1 X37.385 Y48.344 E13.51833
G1 X36.643 Y48.439 E13.54321
G1 X36.126 Y48.458 E13.56042
G1 X20.126 Y48.458 E14.09258
G1 X19.379 Y48.418 E14.11746
G1 X18.641 Y48.299 E14.14233
G1 X17.919 Y48.101 E14.16723
G1 X17.223 Y47.828 E14.19209
G1 X16.56 Y47.481 E14.21698
G1 X15.937 Y47.066 E14.24188
G1 X15.363 Y46.587 E14.26675
G1 X14.842 Y46.05 E14.29163
G1 X14.383 Y45.46 E14.31649
G1 X13.988 Y44.824 E14.34139
G1 X13.664 Y44.15 E14.36627
G1 X13.414 Y43.445 E14.39115
G1 X13.24 Y42.717 E14.41604
G1 X13.145 Y41.975 E14.44092
G1 X13.126 Y41.458 E14.45813
G1 X13.126 Y27.458 E14.92377
G1 X13.166 Y26.711 E14.94865
G1 X13.285 Y25.973 E14.97352
G1 X13.483 Y25.251 E14.99842
G1 X13.756 Y24.555 E15.02328
G1 X14.103 Y23.892 E15.04817
G1 X14.518 Y23.269 E15.07307
G1 X14.997 Y22.695 E15.09793
G1 X15.534 Y22.174 E15.12282
G1 X16.124 Y21.715 E15.14768
G0 F3600 X15.925 Y22.367
G1 F1800 X16.51 Y21.937 E15.17183
G1 X17.139 Y21.573 E15.196
G1 X17.804 Y21.28 E15.22017
G1 X18.497 Y21.062 E15.24433
G1 X19.209 Y20.922 E15.26847
G1 X20.126 Y20.858 E15.29904
G1 X36.126 Y20.858 E15.8312
G1 X36.851 Y20.898 E15.85535
G1 X37.568 Y21.017 E15.87953
G1 X38.267 Y21.215 E15.90369
G1 X38.94 Y21.488 E15.92785
G1 X39.547 Y21.816 E15.9508
G1 X40.152 Y21.466 E15.97404
G1 X40.817 Y21.173 E15.99821
G1 X41.51 Y20.955 E16.02238
G1 X42.222 Y20.815 E16.04651
G1 X43.139 Y20.751 E16.07708
G1 X59.139 Y20.751 E16.60925
G1 X59.864 Y20.791 E16.6334
G1 X60.581 Y20.91 E16.65757
G1 X61.28 Y21.108 E16.68173
G1 X61.953 Y21.381 E16.70589
G1 X62.592 Y21.726 E16.73004
G1 X63.189 Y22.14 E16.75421
G1 X63.737 Y22.616 E16.77835
G1 X64.23 Y23.15 E16.80252
G1 X64.66 Y23.735 E16.82667
G1 X65.024 Y24.364 E16.85084
G1 X65.317 Y25.029 E16.87501
G1 X65.535 Y25.722 E16.89917
G1 X65.675 Y26.434 E16.92331
G1 X65.739 Y27.351 E16.95388
G1 X65.739 Y39.851 E17.36963
G1 X65.699 Y40.576 E17.39378
G1 X65.58 Y41.293 E17.41796
G1 X65.382 Y41.992 E17.44212
G1 X65.109 Y42.665 E17.46628
G1 X64.764 Y43.304 E17.49043
G1 X64.35 Y43.901 E17.51459
G1 X63.874 Y44.449 E17.53873
G1 X63.34 Y44.942 E17.56291
G1 X62.755 Y45.372 E17.58706
G1 X62.126 Y45.736 E17.61123
G1 X61.461 Y46.029 E17.6354
G1 X60.768 Y46.247 E17.65956
G1 X60.056 Y46.387 E17.68369
G1 X59.139 Y46.451 E17.71427
G1 X43.139 Y46.451 E18.24643
G1 X42.414 Y46.411 E18.27058
G1 X41.697 Y46.292 E18.29475
G1 X40.998 Y46.094 E18.31892
G1 X40.872 Y46.043 E18.32344
G1 X40.861 Y46.056 E18.324
G1 X40.327 Y46.549 E18.34818
G1 X39.742 Y46.979 E18.37232
G1 X39.113 Y47.343 E18.3965
G1 X38.448 Y47.636 E18.42067
G1 X37.755 Y47.854 E18.44483
G1 X37.043 Y47.994 E18.46896
G1 X36.126 Y48.058 E18.49954
G1 X20.126 Y48.058 E19.0317
G1 X19.401 Y48.018 E19.05585
G1 X18.684 Y47.899 E19.08002
G1 X17.985 Y47.701 E19.10419
G1 X17.312 Y47.428 E19.12834
G1 X16.673 Y47.083 E19.1525
G1 X16.076 Y46.669 E19.17666
G1 X15.528 Y46.193 E19.2008
G1 X15.035 Y45.659 E19.22497
G1 X14.605 Y45.074 E19.24912
G1 X14.241 Y44.445 E19.27329
G1 X13.948 Y43.78 E19.29746
G1 X13.73 Y43.087 E19.32163
G1 X13.59 Y42.375 E19.34576
G1 X13.526 Y41.458 E19.37633
G1 X13.526 Y27.458 E19.84198
G1 X13.566 Y26.733 E19.86613
G1 X13.685 Y26.016 E19.8903
G1 X13.883 Y25.317 E19.91446
G1 X14.156 Y24.644 E19.93862
G1 X14.501 Y24.005 E19.96277
G1 X14.915 Y23.408 E19.98694
G1 X15.391 Y22.86 E20.01108
G1 X15.925 Y22.367 E20.03525
G0 F3600 X16.315 Y22.567
G1 F1800 X16.894 Y22.167 E20.05866
G1 X17.515 Y21.835 E20.08208
G1 X18.169 Y21.575 E20.10549
G1 X18.849 Y21.391 E20.12892
G1 X19.545 Y21.285 E20.15233
G1 X20.126 Y21.258 E20.17168
G1 X36.126 Y21.258 E20.70384
G1 X36.829 Y21.298 E20.72726
G1 X37.523 Y21.417 E20.75068
G1 X38.198 Y21.615 E20.77408
G1 X38.847 Y21.887 E20.79748
G1 X39.461 Y22.232 E20.8209
G1 X39.557 Y22.301 E20.82484
G1 X39.907 Y22.06 E20.83897
G1 X40.528 Y21.728 E20.86239
G1 X41.182 Y21.468 E20.8858
G1 X41.862 Y21.284 E20.90923
G1 X42.558 Y21.178 E20.93265
G1 X43.139 Y21.151 E20.95199
G1 X59.139 Y21.151 E21.48415
G1 X59.842 Y21.191 E21.50757
G1 X60.536 Y21.31 E21.53099
G1 X61.211 Y21.508 E21.55439
G1 X61.86 Y21.78 E21.57779
G1 X62.474 Y22.125 E21.60122
G1 X63.045 Y22.536 E21.62462
G1 X63.566 Y23.01 E21.64805
G1 X64.03 Y23.54 E21.67147
G1 X64.43 Y24.119 E21.69488
G1 X64.762 Y24.74 E21.7183
G1 X65.022 Y25.394 E21.74171
G1 X65.206 Y26.074 E21.76514
G1 X65.312 Y26.77 E21.78856
G1 X65.339 Y27.351 E21.8079
G1 X65.339 Y39.851 E22.22365
G1 X65.299 Y40.554 E22.24707
G1 X65.18 Y41.248 E22.27049
G1 X64.982 Y41.923 E22.29389
G1 X64.71 Y42.572 E22.31729
G1 X64.365 Y43.186 E22.34072
G1 X63.954 Y43.757 E22.36412
G1 X63.48 Y44.278 E22.38754
G1 X62.95 Y44.742 E22.41097
G1 X62.371 Y45.142 E22.43438
G1 X61.75 Y45.474 E22.4578
G1 X61.096 Y45.734 E22.48121
G1 X60.416 Y45.918 E22.50464
G1 X59.72 Y46.024 E22.52805
G1 X59.139 Y46.051 E22.5474
G1 X43.139 Y46.051 E23.07956
G1 X42.436 Y46.011 E23.10298
G1 X41.742 Y45.892 E23.1264
G1 X41.067 Y45.694 E23.1498
G1 X40.758 Y45.565 E23.16093
G1 X40.467 Y45.885 E23.17532
G1 X39.937 Y46.349 E23.19875
G1 X39.358 Y46.749 E23.22216
G1 X38.737 Y47.081 E23.24558
G1 X38.083 Y47.341 E23.26898
G1 X37.403 Y47.525 E23.29241
G1 X36.707 Y47.631 E23.31583
G1 X36.126 Y47.658 E23.33518
G1 X20.126 Y47.658 E23.86734
G1 X19.423 Y47.618 E23.89076
G1 X18.729 Y47.499 E23.91418
G1 X18.054 Y47.301 E23.93757
G1 X17.405 Y47.029 E23.96098
G1 X16.791 Y46.684 E23.9844
G1 X16.22 Y46.273 E24.0078
G1 X15.699 Y45.799 E24.03123
G1 X15.235 Y45.269 E24.05466
G1 X14.835 Y44.69 E24.07807
G1 X14.503 Y44.069 E24.10149
G1 X14.243 Y43.415 E24.12489
G1 X14.059 Y42.735 E24.14832
G1 X13.953 Y42.039 E24.17174
G1 X13.926 Y41.458 E24.19109
G1 X13.926 Y27.458 E24.65673
G1 X13.966 Y26.755 E24.68015
G1 X14.085 Y26.061 E24.70357
G1 X14.283 Y25.386 E24.72696
G1 X14.555 Y24.737 E24.75037
G1 X14.9 Y24.123 E24.77379
G1 X15.311 Y23.552 E24.79719
G1 X15.785 Y23.031 E24.82062
G1 X16.315 Y22.567 E24.84405
G0 F3600 X16.704 Y22.775
G1 F1800 X17.276 Y22.406 E24.86669
G1 X17.888 Y22.107 E24.88934
G1 X18.53 Y21.882 E24.91197
G1 X19.195 Y21.733 E24.93464
G1 X20.126 Y21.658 E24.9657
G1 X36.126 Y21.658 E25.49786
G1 X36.806 Y21.698 E25.52052
G1 X37.476 Y21.817 E25.54315
G1 X38.128 Y22.014 E25.56581
G1 X38.752 Y22.286 E25.58845
G1 X39.34 Y22.63 E25.6111
G1 X39.561 Y22.797 E25.62032
G1 X39.717 Y22.668 E25.62705
G1 X40.289 Y22.299 E25.64969
G1 X40.901 Y22 E25.67234
G1 X41.543 Y21.775 E25.69497
G1 X42.208 Y21.626 E25.71764
G1 X43.139 Y21.551 E25.7487
G1 X59.139 Y21.551 E26.28087
G1 X59.819 Y21.591 E26.30352
G1 X60.489 Y21.71 E26.32615
G1 X61.141 Y21.907 E26.34881
G1 X61.765 Y22.179 E26.37145
G1 X62.353 Y22.523 E26.39411
G1 X62.897 Y22.933 E26.41676
G1 X63.388 Y23.404 E26.43939
G1 X63.822 Y23.929 E26.46205
G1 X64.191 Y24.501 E26.48469
G1 X64.49 Y25.113 E26.50734
G1 X64.715 Y25.755 E26.52997
G1 X64.864 Y26.42 E26.55264
G1 X64.939 Y27.351 E26.5837
G1 X64.939 Y39.851 E26.99945
G1 X64.899 Y40.531 E27.02211
G1 X64.78 Y41.201 E27.04474
G1 X64.583 Y41.853 E27.0674
G1 X64.311 Y42.477 E27.09004
G1 X63.967 Y43.065 E27.11269
G1 X63.557 Y43.609 E27.13535
G1 X63.086 Y44.1 E27.15798
G1 X62.561 Y44.534 E27.18064
G1 X61.989 Y44.903 E27.20328
G1 X61.377 Y45.202 E27.22593
G1 X60.735 Y45.427 E27.24856
G1 X60.07 Y45.576 E27.27122
G1 X59.139 Y45.651 E27.30229
G1 X43.139 Y45.651 E27.83445
G1 X42.459 Y45.611 E27.85711
G1 X41.789 Y45.492 E27.87974
G1 X41.137 Y45.295 E27.90239
G1 X40.646 Y45.081 E27.92021
G1 X40.544 Y45.216 E27.92584
G1 X40.073 Y45.707 E27.94847
G1 X39.548 Y46.141 E27.97112
G1 X38.976 Y46.51 E27.99376
G1 X38.364 Y46.809 E28.01642
G1 X37.722 Y47.034 E28.03904
G1 X37.057 Y47.183 E28.06171
G1 X36.126 Y47.258 E28.09277
G1 X20.126 Y47.258 E28.62494
G1 X19.446 Y47.218 E28.64759
G1 X18.776 Y47.099 E28.67023
G1 X18.124 Y46.902 E28.69288
G1 X17.5 Y46.63 E28.71552
G1 X16.912 Y46.286 E28.73818
G1 X16.368 Y45.876 E28.76083
G1 X15.877 Y45.405 E28.78346
G1 X15.443 Y44.88 E28.80612
G1 X15.074 Y44.308 E28.82876
G1 X14.775 Y43.696 E28.85141
G1 X14.55 Y43.054 E28.87404
G1 X14.401 Y42.389 E28.89671
G1 X14.326 Y41.458 E28.92777
G1 X14.326 Y27.458 E29.39341
G1 X14.366 Y26.778 E29.41607
G1 X14.485 Y26.108 E29.4387
G1 X14.682 Y25.456 E29.46136
G1 X14.954 Y24.832 E29.484
G1 X15.298 Y24.244 E29.50666
G1 X15.708 Y23.7 E29.52931
G1 X16.179 Y23.209 E29.55194
G1 X16.704 Y22.775 E29.5746
G0 F3600 X16.571 Y23.393
G1 F1800 X17.091 Y22.992 E29.59644
G1 X17.655 Y22.656 E29.61827
G1 X18.257 Y22.392 E29.64014
G1 X18.886 Y22.202 E29.66199
G1 X19.533 Y22.091 E29.68383
G1 X20.126 Y22.058 E29.70358
G1 X36.126 Y22.058 E30.23574
G1 X36.782 Y22.098 E30.2576
G1 X37.428 Y22.217 E30.27945
G1 X38.055 Y22.414 E30.30131
G1 X38.653 Y22.686 E30.32316
G1 X39.214 Y23.028 E30.34501
G1 X39.564 Y23.306 E30.35988
G1 X39.584 Y23.286 E30.36082
G1 X40.104 Y22.885 E30.38266
G1 X40.668 Y22.549 E30.40449
