;FLAVOR:Marlin
;TIME:1127
;Filament used: 0.605878m
;Layer height: 0.2
;Generated with Cura_SteamEngine 3.4.1
M190 S75
M104 S220
M109 S220
M82 ;absolute extrusion mode
G21 ;metric values
G90 ;absolute positioning
M82 ;set extruder to absolute mode
M107 ;start with the fan off
G28 X0 Y0 ;move X/Y to min endstops
G28 Z0 ;move Z to min endstops
G1 Z15.0 F9000 ;move the platform down 15mm
G92 E0 ;zero the extruded length
G1 F200 E3 ;extrude 3mm of feed stock
G92 E0 ;zero the extruded length again
G1 F9000
;Put printing message on LCD screen
M117 Printing...
G92 E0
G1 F1500 E-6.5
;LAYER_COUNT:66
;LAYER:0
M107
G0 F3000 X22.03 Y27.559 Z0.2
;TYPE:SKIRT
G1 F1500 E0
G1 F1200 X22.41 Y27.27 E0.01191
G1 X22.833 Y27.049 E0.02381
G1 X23.287 Y26.902 E0.03572
G1 X23.937 Y26.827 E0.05204
G1 X39.937 Y26.827 E0.45116
G1 X40.412 Y26.867 E0.46305
G1 X40.874 Y26.986 E0.47495
G1 X41.31 Y27.18 E0.48686
G1 X41.708 Y27.444 E0.49877
G1 X42.055 Y27.77 E0.51065
G1 X42.344 Y28.15 E0.52256
G1 X42.565 Y28.573 E0.53446
G1 X42.712 Y29.027 E0.54637
G1 X42.787 Y29.677 E0.56269
G1 X42.787 Y43.677 E0.91192
G1 X42.747 Y44.152 E0.92381
G1 X42.628 Y44.614 E0.93571
G1 X42.434 Y45.05 E0.94762
G1 X42.17 Y45.448 E0.95953
G1 X41.844 Y45.795 E0.97141
G1 X41.464 Y46.084 E0.98331
G1 X41.041 Y46.305 E0.99522
G1 X40.587 Y46.452 E1.00712
G1 X39.937 Y46.527 E1.02345
G1 X23.937 Y46.527 E1.42257
G1 X23.462 Y46.487 E1.43446
G1 X23 Y46.368 E1.44636
G1 X22.564 Y46.174 E1.45826
G1 X22.166 Y45.91 E1.47018
G1 X21.819 Y45.584 E1.48205
G1 X21.53 Y45.204 E1.49396
G1 X21.309 Y44.781 E1.50587
G1 X21.162 Y44.327 E1.51777
G1 X21.087 Y43.677 E1.53409
G1 X21.087 Y29.677 E1.88332
G1 X21.127 Y29.202 E1.89522
G1 X21.246 Y28.74 E1.90712
G1 X21.44 Y28.304 E1.91902
G1 X21.704 Y27.906 E1.93093
G1 X22.03 Y27.559 E1.94281
G0 F3000 X22.324 Y27.702
G1 F1200 X22.697 Y27.449 E1.95405
G1 X23.109 Y27.265 E1.96531
G1 X23.547 Y27.157 E1.97656
G1 X23.937 Y27.127 E1.98632
G1 X39.937 Y27.127 E2.38544
G1 X40.386 Y27.167 E2.39669
G1 X40.822 Y27.285 E2.40795
G1 X41.23 Y27.479 E2.41922
G1 X41.597 Y27.741 E2.43047
G1 X41.912 Y28.064 E2.44173
G1 X42.165 Y28.437 E2.45297
G1 X42.349 Y28.849 E2.46423
G1 X42.457 Y29.287 E2.47548
G1 X42.487 Y29.677 E2.48524
G1 X42.487 Y43.677 E2.83447
G1 X42.447 Y44.126 E2.84571
G1 X42.329 Y44.562 E2.85698
G1 X42.135 Y44.97 E2.86825
G1 X41.873 Y45.337 E2.8795
G1 X41.55 Y45.652 E2.89075
G1 X41.177 Y45.905 E2.90199
G1 X40.765 Y46.089 E2.91325
G1 X40.327 Y46.197 E2.9245
G1 X39.937 Y46.227 E2.93426
G1 X23.937 Y46.227 E3.33338
G1 X23.488 Y46.187 E3.34463
G1 X23.052 Y46.069 E3.35589
G1 X22.644 Y45.875 E3.36716
G1 X22.277 Y45.613 E3.37841
G1 X21.962 Y45.29 E3.38967
G1 X21.709 Y44.917 E3.40091
G1 X21.525 Y44.505 E3.41217
G1 X21.417 Y44.067 E3.42342
G1 X21.387 Y43.677 E3.43318
G1 X21.387 Y29.677 E3.78241
G1 X21.427 Y29.228 E3.79365
G1 X21.545 Y28.792 E3.80492
G1 X21.739 Y28.384 E3.81619
G1 X22.001 Y28.017 E3.82744
G1 X22.324 Y27.702 E3.83869
G0 F3000 X22.298 Y28.136
G1 F1200 X22.616 Y27.856 E3.84926
G1 X22.981 Y27.64 E3.85984
G1 X23.38 Y27.497 E3.87041
G1 X23.937 Y27.427 E3.88442
G1 X39.937 Y27.427 E4.28354
G1 X40.359 Y27.467 E4.29411
G1 X40.766 Y27.585 E4.30468
G1 X41.143 Y27.778 E4.31525
G1 X41.478 Y28.038 E4.32583
G1 X41.758 Y28.356 E4.3364
G1 X41.974 Y28.721 E4.34698
G1 X42.117 Y29.12 E4.35755
G1 X42.187 Y29.677 E4.37155
G1 X42.187 Y43.677 E4.72078
G1 X42.147 Y44.099 E4.73136
G1 X42.029 Y44.506 E4.74193
G1 X41.836 Y44.883 E4.75249
G1 X41.576 Y45.218 E4.76307
G1 X41.258 Y45.498 E4.77364
G1 X40.893 Y45.714 E4.78422
G1 X40.494 Y45.857 E4.79479
G1 X39.937 Y45.927 E4.8088
G1 X23.937 Y45.927 E5.20792
G1 X23.515 Y45.887 E5.21849
G1 X23.108 Y45.769 E5.22906
G1 X22.731 Y45.576 E5.23963
G1 X22.396 Y45.316 E5.25021
G1 X22.116 Y44.998 E5.26078
G1 X21.9 Y44.633 E5.27136
G1 X21.757 Y44.234 E5.28193
G1 X21.687 Y43.677 E5.29593
G1 X21.687 Y29.677 E5.64517
G1 X21.727 Y29.255 E5.65574
G1 X21.845 Y28.848 E5.66631
G1 X22.038 Y28.471 E5.67687
G1 X22.298 Y28.136 E5.68745
G0 F3000 X22.593 Y28.264
G1 F1200 X22.905 Y28.022 E5.6973
G1 X23.259 Y27.849 E5.70713
G1 X23.641 Y27.75 E5.71698
G1 X23.937 Y27.727 E5.72438
G1 X39.937 Y27.727 E6.1235
G1 X40.329 Y27.767 E6.13333
G1 X40.706 Y27.885 E6.14319
G1 X41.051 Y28.076 E6.15302
G1 X41.35 Y28.333 E6.16286
G1 X41.592 Y28.645 E6.17271
G1 X41.765 Y28.999 E6.18254
G1 X41.864 Y29.381 E6.19238
G1 X41.887 Y29.677 E6.19979
G1 X41.887 Y43.677 E6.54902
G1 X41.847 Y44.069 E6.55885
G1 X41.729 Y44.446 E6.5687
G1 X41.538 Y44.791 E6.57854
G1 X41.281 Y45.09 E6.58837
G1 X40.969 Y45.332 E6.59822
G1 X40.615 Y45.505 E6.60805
G1 X40.233 Y45.604 E6.6179
G1 X39.937 Y45.627 E6.6253
G1 X23.937 Y45.627 E7.02442
G1 X23.545 Y45.587 E7.03425
G1 X23.168 Y45.469 E7.04411
G1 X22.823 Y45.278 E7.05394
G1 X22.524 Y45.021 E7.06378
G1 X22.282 Y44.709 E7.07363
G1 X22.109 Y44.355 E7.08346
G1 X22.01 Y43.973 E7.0933
G1 X21.987 Y43.677 E7.10071
G1 X21.987 Y29.677 E7.44994
G1 X22.027 Y29.285 E7.45977
G1 X22.145 Y28.908 E7.46962
G1 X22.336 Y28.563 E7.47946
G1 X22.593 Y28.264 E7.48929
G0 F3000 X22.887 Y28.404
G1 F1200 X23.191 Y28.205 E7.49836
G1 X23.53 Y28.078 E7.50739
G1 X23.937 Y28.027 E7.51762
G1 X39.937 Y28.027 E7.91674
G1 X40.298 Y28.067 E7.9258
G1 X40.641 Y28.185 E7.93485
G1 X40.95 Y28.374 E7.94389
G1 X41.21 Y28.627 E7.95294
G1 X41.409 Y28.931 E7.962
G1 X41.536 Y29.27 E7.97103
G1 X41.587 Y29.677 E7.98126
G1 X41.587 Y43.677 E8.33049
G1 X41.547 Y44.038 E8.33955
G1 X41.429 Y44.381 E8.3486
G1 X41.24 Y44.69 E8.35764
G1 X40.987 Y44.95 E8.36669
G1 X40.683 Y45.149 E8.37575
G1 X40.344 Y45.276 E8.38478
G1 X39.937 Y45.327 E8.39501
G1 X23.937 Y45.327 E8.79413
G1 X23.576 Y45.287 E8.80319
G1 X23.233 Y45.169 E8.81224
G1 X22.924 Y44.98 E8.82128
G1 X22.664 Y44.727 E8.83033
G1 X22.465 Y44.423 E8.83939
G1 X22.338 Y44.084 E8.84842
G1 X22.287 Y43.677 E8.85865
G1 X22.287 Y29.677 E9.20788
G1 X22.327 Y29.316 E9.21695
G1 X22.445 Y28.973 E9.22599
G1 X22.634 Y28.664 E9.23503
G1 X22.887 Y28.404 E9.24408
G0 F3000 X22.932 Y28.776
G1 F1200 X23.179 Y28.56 E9.25226
G1 X23.47 Y28.41 E9.26043
G1 X23.937 Y28.327 E9.27226
G1 X39.937 Y28.327 E9.67138
G1 X40.263 Y28.367 E9.67958
G1 X40.569 Y28.484 E9.68775
G1 X40.838 Y28.672 E9.69594
G1 X41.054 Y28.919 E9.70412
G1 X41.204 Y29.21 E9.71229
G1 X41.287 Y29.677 E9.72412
G1 X41.287 Y43.677 E10.07335
G1 X41.247 Y44.003 E10.08154
G1 X41.13 Y44.309 E10.08972
G1 X40.942 Y44.578 E10.0979
G1 X40.695 Y44.794 E10.10609
G1 X40.404 Y44.944 E10.11425
G1 X39.937 Y45.027 E10.12609
G1 X23.937 Y45.027 E10.52521
G1 X23.611 Y44.987 E10.5334
G1 X23.305 Y44.87 E10.54157
G1 X23.036 Y44.682 E10.54976
G1 X22.82 Y44.435 E10.55794
G1 X22.67 Y44.144 E10.56611
G1 X22.587 Y43.677 E10.57794
G1 X22.587 Y29.677 E10.92717
G1 X22.627 Y29.351 E10.93537
G1 X22.744 Y29.045 E10.94354
G1 X22.932 Y28.776 E10.95173
G0 F3000 X23.227 Y28.903
G1 F1200 X23.465 Y28.739 E10.95894
G1 X23.739 Y28.646 E10.96615
G1 X23.937 Y28.627 E10.97112
G1 X39.937 Y28.627 E11.37024
G1 X40.223 Y28.667 E11.37744
G1 X40.488 Y28.783 E11.38466
G1 X40.711 Y28.967 E11.39187
G1 X40.875 Y29.205 E11.39908
G1 X40.968 Y29.479 E11.4063
G1 X40.987 Y29.677 E11.41126
G1 X40.987 Y43.677 E11.76049
G1 X40.947 Y43.963 E11.76769
G1 X40.831 Y44.228 E11.77491
G1 X40.647 Y44.451 E11.78212
G1 X40.409 Y44.615 E11.78933
G1 X40.135 Y44.708 E11.79655
G1 X39.937 Y44.727 E11.80151
G1 X23.937 Y44.727 E12.20063
G1 X23.651 Y44.687 E12.20784
G1 X23.386 Y44.571 E12.21505
G1 X23.163 Y44.387 E12.22227
G1 X22.999 Y44.149 E12.22948
G1 X22.906 Y43.875 E12.23669
G1 X22.887 Y43.677 E12.24166
G1 X22.887 Y29.677 E12.59089
G1 X22.927 Y29.391 E12.59809
G1 X23.043 Y29.126 E12.60531
G1 X23.227 Y28.903 E12.61252
G0 F3000 X23.52 Y29.054
G1 F1200 X23.742 Y28.953 E12.6186
G1 X23.937 Y28.927 E12.62351
G1 X39.937 Y28.927 E13.02263
G1 X40.178 Y28.967 E13.02873
G1 X40.393 Y29.082 E13.03481
G1 X40.56 Y29.26 E13.0409
G1 X40.661 Y29.482 E13.04698
G1 X40.687 Y29.677 E13.05189
G1 X40.687 Y43.677 E13.40112
G1 X40.647 Y43.918 E13.40721
G1 X40.532 Y44.133 E13.41329
G1 X40.354 Y44.3 E13.41938
G1 X40.132 Y44.401 E13.42547
G1 X39.937 Y44.427 E13.43037
G1 X23.937 Y44.427 E13.8295
G1 X23.696 Y44.387 E13.83559
G1 X23.481 Y44.272 E13.84167
G1 X23.314 Y44.094 E13.84776
G1 X23.213 Y43.872 E13.85385
G1 X23.187 Y43.677 E13.85875
G1 X23.187 Y29.677 E14.20798
G1 X23.227 Y29.436 E14.21408
G1 X23.342 Y29.221 E14.22016
G1 X23.52 Y29.054 E14.22625
G0 F3000 X23.638 Y29.34
G1 F1200 X23.802 Y29.248 E14.23094
G1 X23.937 Y29.227 E14.23435
G1 X39.937 Y29.227 E14.63347
G1 X40.121 Y29.267 E14.63817
G1 X40.274 Y29.378 E14.64288
G1 X40.366 Y29.542 E14.64757
G1 X40.387 Y29.677 E14.65098
G1 X40.387 Y43.677 E15.00021
G1 X40.347 Y43.861 E15.00491
G1 X40.236 Y44.014 E15.00962
G1 X40.072 Y44.106 E15.01431
G1 X39.937 Y44.127 E15.01772
G1 X23.937 Y44.127 E15.41684
G1 X23.753 Y44.087 E15.42154
G1 X23.6 Y43.976 E15.42626
G1 X23.508 Y43.812 E15.43095
G1 X23.487 Y43.677 E15.43436
G1 X23.487 Y29.677 E15.78359
G1 X23.527 Y29.493 E15.78828
G1 X23.638 Y29.34 E15.793
G0 F3000 X23.826 Y29.576
G1 F1200 X23.937 Y29.527 E15.79603
G1 X39.937 Y29.527 E16.19515
G1 X40.038 Y29.566 E16.19785
G1 X40.087 Y29.677 E16.20088
G1 X40.087 Y43.677 E16.55011
G1 X40.048 Y43.778 E16.55281
G1 X39.937 Y43.827 E16.55583
G1 X23.937 Y43.827 E16.95496
G1 X23.836 Y43.788 E16.95766
G1 X23.787 Y43.677 E16.96068
G1 X23.787 Y29.677 E17.30991
G1 X23.826 Y29.576 E17.31262
G1 F1500 E10.81262
G0 F3000 X24.401 Y30.141
G0 X39.417 Y43.157
G0 X39.737 Y43.477
;TYPE:WALL-OUTER
G1 F1500 E17.31262
G1 F1200 X24.137 Y43.477 E17.70176
G1 X24.137 Y29.877 E18.04101
G1 X39.737 Y29.877 E18.43016
G1 X39.737 Y43.477 E18.76941
G0 F3000 X39.537 Y43.477
G0 X39.487 Y43.227
;TYPE:WALL-INNER
G1 F1200 X24.387 Y43.227 E19.14608
G1 X24.387 Y30.127 E19.47286
G1 X39.487 Y30.127 E19.84953
G1 X39.487 Y43.227 E20.17631
G0 F3000 X39.187 Y42.927
G1 F1200 X24.687 Y42.927 E20.53802
G1 X24.687 Y30.427 E20.84983
G1 X39.187 Y30.427 E21.21153
G1 X39.187 Y42.927 E21.52335
G0 F3000 X38.897 Y42.637
;TYPE:SKIN
G1 F1200 X24.977 Y42.637 E21.87058
G1 X24.977 Y30.717 E22.16793
G1 X38.897 Y30.717 E22.51517
G1 X38.897 Y42.637 E22.81251
G0 F3000 X38.762 Y31.125
G1 F1200 X38.488 Y30.851 E22.82218
G0 F3000 X38.064 Y30.851
G1 F1200 X38.762 Y31.549 E22.8468
G1 X38.815 Y31.602
G0 F3000 X38.762 Y31.973
G1 F1200 X37.64 Y30.851 E22.88638
G1 X37.587 Y30.798
G0 F3000 X37.215 Y30.851
G1 F1200 X38.762 Y32.398 E22.94096
G1 X38.815 Y32.451
G0 F3000 X38.762 Y32.822
G1 F1200 X36.791 Y30.851 E23.01049
G1 X36.738 Y30.798
G0 F3000 X36.367 Y30.851
G1 F1200 X38.762 Y33.246 E23.09498
G1 X38.815 Y33.299
G0 F3000 X38.762 Y33.671
G1 F1200 X35.942 Y30.851 E23.19446
G1 X35.889 Y30.798
G0 F3000 X35.518 Y30.851
G1 F1200 X38.762 Y34.095 E23.3089
G1 X38.815 Y34.148
G0 F3000 X38.762 Y34.519
G1 F1200 X35.094 Y30.851 E23.4383
G1 X35.041 Y30.798
G0 F3000 X34.67 Y30.851
G1 F1200 X38.762 Y34.943 E23.58266
G1 X38.815 Y34.996
G0 F3000 X38.762 Y35.368
G1 F1200 X34.245 Y30.851 E23.74201
G1 X34.192 Y30.798
G0 F3000 X33.821 Y30.851
G1 F1200 X38.762 Y35.792 E23.91632
G1 X38.815 Y35.845
G0 F3000 X38.762 Y36.216
G1 F1200 X33.397 Y30.851 E24.10558
G1 X33.344 Y30.798
G0 F3000 X32.973 Y30.851
G1 F1200 X38.762 Y36.64 E24.3098
G1 X38.815 Y36.693
G0 F3000 X38.762 Y37.065
G1 F1200 X32.548 Y30.851 E24.52902
G1 X32.495 Y30.798
G0 F3000 X32.124 Y30.851
G1 F1200 X38.762 Y37.489 E24.76319
G1 X38.815 Y37.542
G0 F3000 X38.762 Y37.913
G1 F1200 X31.7 Y30.851 E25.01232
G1 X31.647 Y30.798
G0 F3000 X31.276 Y30.851
G1 F1200 X38.762 Y38.337 E25.27641
G1 X38.815 Y38.39
G0 F3000 X38.762 Y38.762
G1 F1200 X30.851 Y30.851 E25.55549
G1 X30.798 Y30.798
G0 F3000 X30.427 Y30.851
G1 F1200 X38.762 Y39.186 E25.84953
G1 X38.815 Y39.239
G0 F3000 X38.762 Y39.61
G1 F1200 X30.003 Y30.851 E26.15853
G1 X29.95 Y30.798
G0 F3000 X29.578 Y30.851
G1 F1200 X38.762 Y40.034 E26.4825
G1 X38.815 Y40.087
G0 F3000 X38.762 Y40.459
G1 F1200 X29.154 Y30.851 E26.82145
G1 X29.101 Y30.798
G0 F3000 X28.73 Y30.851
G1 F1200 X38.762 Y40.883 E27.17536
G1 X38.815 Y40.936
G0 F3000 X38.762 Y41.307
G1 F1200 X28.306 Y30.851 E27.54422
G1 X28.253 Y30.798
G0 F3000 X27.881 Y30.851
G1 F1200 X38.762 Y41.732 E27.92808
G1 X38.815 Y41.785
G0 F3000 X38.762 Y42.156
G1 F1200 X27.457 Y30.851 E28.32689
G1 X27.404 Y30.798
G0 F3000 X27.033 Y30.851
G1 F1200 X38.682 Y42.501 E28.73786
G1 X38.735 Y42.554
G0 F3000 X38.258 Y42.501
G1 F1200 X26.609 Y30.851 E29.14883
G1 X26.556 Y30.798
G0 F3000 X26.184 Y30.851
G1 F1200 X37.834 Y42.501 E29.55981
G1 X37.887 Y42.554
G0 F3000 X37.41 Y42.501
G1 F1200 X25.76 Y30.851 E29.9708
G1 X25.707 Y30.798
G0 F3000 X25.336 Y30.851
G1 F1200 X36.985 Y42.501 E30.38177
G1 X37.038 Y42.554
G0 F3000 X36.561 Y42.501
G1 F1200 X25.112 Y31.051 E30.78568
G1 X25.059 Y30.998
G0 F3000 X25.112 Y31.476
G1 F1200 X36.137 Y42.501 E31.17461
G1 X36.19 Y42.554
G0 F3000 X35.713 Y42.501
G1 F1200 X25.112 Y31.9 E31.54859
G1 X25.059 Y31.847
G0 F3000 X25.112 Y32.324
G1 F1200 X35.288 Y42.501 E31.9076
G1 X35.341 Y42.554
G0 F3000 X34.864 Y42.501
G1 F1200 X25.112 Y32.748 E32.25164
G1 X25.059 Y32.695
G0 F3000 X25.112 Y33.173
G1 F1200 X34.44 Y42.501 E32.58071
G1 X34.493 Y42.554
G0 F3000 X34.016 Y42.501
G1 F1200 X25.112 Y33.597 E32.89482
G1 X25.059 Y33.544
G0 F3000 X25.112 Y34.021
G1 F1200 X33.591 Y42.501 E33.19396
G1 X33.644 Y42.554
G0 F3000 X33.167 Y42.501
G1 F1200 X25.112 Y34.445 E33.47814
G1 X25.059 Y34.392
G0 F3000 X25.112 Y34.87
G1 F1200 X32.743 Y42.501 E33.74735
G1 X32.796 Y42.554
G0 F3000 X32.319 Y42.501
G1 F1200 X25.112 Y35.294 E34.00159
G1 X25.059 Y35.241
G0 F3000 X25.112 Y35.718
G1 F1200 X31.894 Y42.501 E34.24086
G1 X31.947 Y42.554
G0 F3000 X31.47 Y42.501
G1 F1200 X25.112 Y36.143 E34.46516
G1 X25.059 Y36.09
G0 F3000 X25.112 Y36.567
G1 F1200 X31.046 Y42.501 E34.6745
G1 X31.099 Y42.554
G0 F3000 X30.621 Y42.501
G1 F1200 X25.112 Y36.991 E34.86886
G1 X25.059 Y36.938
G0 F3000 X25.112 Y37.415
G1 F1200 X30.197 Y42.501 E35.04826
G1 X30.25 Y42.554
G0 F3000 X29.773 Y42.501
G1 F1200 X25.112 Y37.84 E35.21269
G1 X25.059 Y37.787
G0 F3000 X25.112 Y38.264
G1 F1200 X29.349 Y42.501 E35.36216
G1 X29.402 Y42.554
G0 F3000 X28.924 Y42.501
G1 F1200 X25.112 Y38.688 E35.49666
G1 X25.059 Y38.635
G0 F3000 X25.112 Y39.112
G1 F1200 X28.5 Y42.501 E35.6162
G1 X28.553 Y42.554
G0 F3000 X28.076 Y42.501
G1 F1200 X25.112 Y39.537 E35.72076
G1 X25.059 Y39.484
G0 F3000 X25.112 Y39.961
G1 F1200 X27.652 Y42.501 E35.81037
G1 X27.705 Y42.554
G0 F3000 X27.227 Y42.501
G1 F1200 X25.112 Y40.385 E35.885
G1 X25.059 Y40.332
G0 F3000 X25.112 Y40.809
G1 F1200 X26.803 Y42.501 E35.94467
G1 X26.856 Y42.554
G0 F3000 X26.379 Y42.501
G1 F1200 X25.112 Y41.234 E35.98937
G1 X25.059 Y41.181
G0 F3000 X25.112 Y41.658
G1 F1200 X25.955 Y42.501 E36.01911
G1 X26.008 Y42.554
G0 F3000 X25.53 Y42.501
G1 F1200 X25.112 Y42.082 E36.03387
G0 F3000 X39.187 Y42.927
;TIME_ELAPSED:83.224856
;LAYER:1
M140 S75
M106 S255
G0 F4500 X39.187 Y42.927 Z0.4
;TYPE:WALL-INNER
G1 F1800 X24.687 Y42.927 E36.39557
G1 X24.687 Y30.427 E36.70739
G1 X39.187 Y30.427 E37.06909
G1 X39.187 Y42.927 E37.38091
G0 F4500 X39.487 Y43.227
G1 F1800 X24.387 Y43.227 E37.75758
G1 X24.387 Y30.127 E38.08436
G1 X39.487 Y30.127 E38.46103
G1 X39.487 Y43.227 E38.78781
G0 F4500 X39.737 Y43.477
;TYPE:WALL-OUTER
G1 F1200 X24.137 Y43.477 E39.17695
G1 X24.137 Y29.877 E39.51621
G1 X39.737 Y29.877 E39.90535
G1 X39.737 Y43.477 E40.2446
G0 F4500 X39.537 Y43.477
G0 X39.417 Y43.157
G0 X38.897 Y42.637
;TYPE:SKIN
G1 F1200 X24.977 Y42.637 E40.59184
G1 X24.977 Y30.717 E40.88918
G1 X38.897 Y30.717 E41.23642
G1 X38.897 Y42.637 E41.53377
G0 F4500 X38.533 Y42.501
G1 F1200 X38.761 Y42.272 E41.54183
G0 F4500 X38.761 Y41.848
G1 F1200 X38.108 Y42.501 E41.56486
G1 X38.055 Y42.554
G0 F4500 X37.684 Y42.501
G1 F1200 X38.761 Y41.424 E41.60286
G1 X38.814 Y41.371
G0 F4500 X38.761 Y41
G1 F1200 X37.26 Y42.501 E41.65581
G1 X37.207 Y42.554
G0 F4500 X36.836 Y42.501
G1 F1200 X38.761 Y40.575 E41.72374
G1 X38.814 Y40.522
G0 F4500 X38.761 Y40.151
G1 F1200 X36.411 Y42.501 E41.80664
G1 X36.358 Y42.554
G0 F4500 X35.987 Y42.501
G1 F1200 X38.761 Y39.727 E41.9045
G1 X38.814 Y39.674
G0 F4500 X38.761 Y39.303
G1 F1200 X35.563 Y42.501 E42.01732
G1 X35.51 Y42.554
G0 F4500 X35.138 Y42.501
G1 F1200 X38.761 Y38.878 E42.14513
