;FLAVOR:Marlin
;TIME:1097
;Filament used: 0.517247m
;Layer height: 0.2
;Generated with Cura_SteamEngine 3.4.1
M190 S75
M104 S220
M109 S220
M82 ;absolute extrusion mode
G21 ;metric values
G90 ;absolute positioning
M82 ;set extruder to absolute mode
M107 ;start with the fan off
G28 X0 Y0 ;move X/Y to min endstops
G28 Z0 ;move Z to min endstops
G1 Z15.0 F9000 ;move the platform down 15mm
G92 E0 ;zero the extruded length
G1 F200 E3 ;extrude 3mm of feed stock
G92 E0 ;zero the extruded length again
G1 F9000
;Put printing message on LCD screen
M117 Printing...
G92 E0
G1 F1500 E-6.5
;LAYER_COUNT:61
;LAYER:0
M107
G0 F3000 X14.643 Y14.907 Z0.2
;TYPE:SKIRT
G1 F1500 E0
G1 F1200 X15.169 Y14.47 E0.01706
G1 X15.743 Y14.097 E0.03413
G1 X16.355 Y13.794 E0.05117
G1 X16.999 Y13.564 E0.06823
G1 X17.666 Y13.411 E0.0853
G1 X18.64 Y13.329 E0.10968
G1 X32.64 Y13.329 E0.45891
G1 X33.323 Y13.369 E0.47598
G1 X33.996 Y13.488 E0.49303
G1 X34.651 Y13.685 E0.51009
G1 X35.278 Y13.958 E0.52715
G1 X35.869 Y14.301 E0.54419
G1 X36.416 Y14.711 E0.56125
G1 X36.912 Y15.182 E0.57831
G1 X37.349 Y15.708 E0.59537
G1 X37.722 Y16.282 E0.61244
G1 X38.025 Y16.894 E0.62948
G1 X38.255 Y17.538 E0.64654
G1 X38.408 Y18.205 E0.66361
G1 X38.49 Y19.179 E0.68799
G1 X38.49 Y34.679 E1.07464
G1 X38.45 Y35.362 E1.09171
G1 X38.331 Y36.035 E1.10875
G1 X38.134 Y36.69 E1.12582
G1 X37.861 Y37.317 E1.14288
G1 X37.518 Y37.908 E1.15992
G1 X37.108 Y38.455 E1.17697
G1 X36.637 Y38.951 E1.19404
G1 X36.111 Y39.388 E1.21109
G1 X35.537 Y39.761 E1.22817
G1 X34.925 Y40.064 E1.24521
G1 X34.281 Y40.294 E1.26226
G1 X33.614 Y40.447 E1.27933
G1 X32.64 Y40.529 E1.30372
G1 X18.64 Y40.529 E1.65295
G1 X17.957 Y40.489 E1.67002
G1 X17.284 Y40.37 E1.68706
G1 X16.629 Y40.173 E1.70413
G1 X16.002 Y39.9 E1.72118
G1 X15.411 Y39.557 E1.73823
G1 X14.864 Y39.147 E1.75528
G1 X14.368 Y38.676 E1.77235
G1 X13.931 Y38.15 E1.7894
G1 X13.558 Y37.576 E1.80648
G1 X13.255 Y36.964 E1.82351
G1 X13.025 Y36.32 E1.84057
G1 X12.872 Y35.653 E1.85764
G1 X12.79 Y34.679 E1.88203
G1 X12.79 Y19.179 E2.26868
G1 X12.83 Y18.496 E2.28574
G1 X12.949 Y17.823 E2.30279
G1 X13.146 Y17.168 E2.31985
G1 X13.419 Y16.541 E2.33691
G1 X13.762 Y15.95 E2.35396
G1 X14.172 Y15.403 E2.37101
G1 X14.643 Y14.907 E2.38807
G0 F3000 X14.938 Y15.044
G1 F1200 X15.46 Y14.63 E2.40469
G1 X16.028 Y14.282 E2.42131
G1 X16.633 Y14.005 E2.43791
G1 X17.267 Y13.801 E2.45452
G1 X17.921 Y13.676 E2.47113
G1 X18.64 Y13.629 E2.4891
G1 X32.64 Y13.629 E2.83833
G1 X33.305 Y13.669 E2.85495
G1 X33.96 Y13.788 E2.87156
G1 X34.596 Y13.985 E2.88817
G1 X35.204 Y14.257 E2.90478
G1 X35.776 Y14.6 E2.92142
G1 X36.302 Y15.008 E2.93803
G1 X36.775 Y15.477 E2.95464
G1 X37.189 Y15.999 E2.97126
G1 X37.537 Y16.567 E2.98788
G1 X37.814 Y17.172 E3.00448
G1 X38.018 Y17.806 E3.02109
G1 X38.143 Y18.46 E3.0377
G1 X38.19 Y19.179 E3.05567
G1 X38.19 Y34.679 E3.44232
G1 X38.15 Y35.344 E3.45894
G1 X38.031 Y35.999 E3.47555
G1 X37.834 Y36.635 E3.49216
G1 X37.562 Y37.243 E3.50877
G1 X37.219 Y37.815 E3.52541
G1 X36.811 Y38.341 E3.54201
G1 X36.342 Y38.814 E3.55863
G1 X35.82 Y39.228 E3.57525
G1 X35.252 Y39.576 E3.59187
G1 X34.647 Y39.853 E3.60847
G1 X34.013 Y40.057 E3.62508
G1 X33.359 Y40.182 E3.64169
G1 X32.64 Y40.229 E3.65966
G1 X18.64 Y40.229 E4.00889
G1 X17.975 Y40.189 E4.02551
G1 X17.32 Y40.07 E4.04212
G1 X16.684 Y39.873 E4.05873
G1 X16.076 Y39.601 E4.07534
G1 X15.504 Y39.258 E4.09198
G1 X14.978 Y38.85 E4.10859
G1 X14.505 Y38.381 E4.1252
G1 X14.091 Y37.859 E4.14182
G1 X13.743 Y37.291 E4.15844
G1 X13.466 Y36.686 E4.17504
G1 X13.262 Y36.052 E4.19165
G1 X13.137 Y35.398 E4.20826
G1 X13.09 Y34.679 E4.22623
G1 X13.09 Y19.179 E4.61288
G1 X13.13 Y18.514 E4.6295
G1 X13.249 Y17.859 E4.64611
G1 X13.446 Y17.223 E4.66272
G1 X13.718 Y16.615 E4.67933
G1 X14.061 Y16.043 E4.69597
G1 X14.469 Y15.517 E4.71257
G1 X14.938 Y15.044 E4.72919
G0 F3000 X15.232 Y15.186
G1 F1200 X15.749 Y14.797 E4.74533
G1 X16.311 Y14.474 E4.7615
G1 X16.908 Y14.223 E4.77765
G1 X17.532 Y14.047 E4.79383
G1 X18.172 Y13.95 E4.80997
G1 X18.64 Y13.929 E4.82166
G1 X32.64 Y13.929 E5.17089
G1 X33.287 Y13.969 E5.18706
G1 X33.923 Y14.088 E5.2032
G1 X34.54 Y14.285 E5.21936
G1 X35.129 Y14.556 E5.23553
G1 X35.679 Y14.898 E5.25169
G1 X36.183 Y15.305 E5.26785
G1 X36.633 Y15.771 E5.28401
G1 X37.022 Y16.288 E5.30015
G1 X37.345 Y16.85 E5.31632
G1 X37.596 Y17.447 E5.33247
G1 X37.772 Y18.071 E5.34864
G1 X37.869 Y18.711 E5.36479
G1 X37.89 Y19.179 E5.37648
G1 X37.89 Y34.679 E5.76313
G1 X37.85 Y35.326 E5.7793
G1 X37.731 Y35.962 E5.79544
G1 X37.534 Y36.579 E5.81159
G1 X37.263 Y37.168 E5.82777
G1 X36.921 Y37.718 E5.84392
G1 X36.514 Y38.222 E5.86008
G1 X36.048 Y38.672 E5.87624
G1 X35.531 Y39.061 E5.89238
G1 X34.969 Y39.384 E5.90855
G1 X34.372 Y39.635 E5.92471
G1 X33.748 Y39.811 E5.94088
G1 X33.108 Y39.908 E5.95703
G1 X32.64 Y39.929 E5.96871
G1 X18.64 Y39.929 E6.31794
G1 X17.993 Y39.889 E6.33412
G1 X17.357 Y39.77 E6.35026
G1 X16.74 Y39.573 E6.36641
G1 X16.151 Y39.302 E6.38259
G1 X15.601 Y38.96 E6.39874
G1 X15.097 Y38.553 E6.4149
G1 X14.647 Y38.087 E6.43106
G1 X14.258 Y37.57 E6.4472
G1 X13.935 Y37.008 E6.46337
G1 X13.684 Y36.411 E6.47952
G1 X13.508 Y35.787 E6.4957
G1 X13.411 Y35.147 E6.51185
G1 X13.39 Y34.679 E6.52353
G1 X13.39 Y19.179 E6.91018
G1 X13.43 Y18.532 E6.92635
G1 X13.549 Y17.896 E6.94249
G1 X13.746 Y17.279 E6.95865
G1 X14.017 Y16.69 E6.97482
G1 X14.359 Y16.14 E6.99098
G1 X14.766 Y15.636 E7.00714
G1 X15.232 Y15.186 E7.0233
G0 F3000 X15.062 Y15.758
G1 F1200 X15.525 Y15.332 E7.03899
G1 X16.038 Y14.968 E7.05468
G1 X16.592 Y14.672 E7.07035
G1 X17.18 Y14.449 E7.08604
G1 X17.792 Y14.302 E7.10174
G1 X18.64 Y14.229 E7.12297
G1 X32.64 Y14.229 E7.4722
G1 X33.268 Y14.269 E7.4879
G1 X33.885 Y14.388 E7.50357
G1 X34.483 Y14.585 E7.51928
G1 X35.05 Y14.856 E7.53496
G1 X35.579 Y15.196 E7.55064
G1 X36.061 Y15.601 E7.56635
G1 X36.487 Y16.064 E7.58204
G1 X36.851 Y16.577 E7.59773
G1 X37.147 Y17.131 E7.6134
G1 X37.37 Y17.719 E7.62909
G1 X37.517 Y18.331 E7.64479
G1 X37.59 Y19.179 E7.66602
G1 X37.59 Y34.679 E8.05267
G1 X37.55 Y35.307 E8.06837
G1 X37.431 Y35.924 E8.08404
G1 X37.234 Y36.522 E8.09975
G1 X36.963 Y37.089 E8.11542
G1 X36.623 Y37.618 E8.13111
G1 X36.218 Y38.1 E8.14681
G1 X35.755 Y38.526 E8.16251
G1 X35.242 Y38.89 E8.1782
G1 X34.688 Y39.186 E8.19387
G1 X34.1 Y39.409 E8.20955
G1 X33.488 Y39.556 E8.22526
G1 X32.64 Y39.629 E8.24649
G1 X18.64 Y39.629 E8.59572
G1 X18.012 Y39.589 E8.61142
G1 X17.395 Y39.47 E8.62709
G1 X16.797 Y39.273 E8.6428
G1 X16.23 Y39.002 E8.65847
G1 X15.701 Y38.662 E8.67416
G1 X15.219 Y38.257 E8.68986
G1 X14.793 Y37.794 E8.70556
G1 X14.429 Y37.281 E8.72125
G1 X14.133 Y36.727 E8.73692
G1 X13.91 Y36.139 E8.7526
G1 X13.763 Y35.527 E8.76831
G1 X13.69 Y34.679 E8.78954
G1 X13.69 Y19.179 E9.17619
G1 X13.73 Y18.551 E9.19188
G1 X13.849 Y17.934 E9.20756
G1 X14.046 Y17.336 E9.22326
G1 X14.317 Y16.769 E9.23894
G1 X14.657 Y16.24 E9.25463
G1 X15.062 Y15.758 E9.27033
G0 F3000 X15.358 Y15.885
G1 F1200 X15.817 Y15.484 E9.28554
G1 X16.324 Y15.147 E9.30072
G1 X16.872 Y14.878 E9.31595
G1 X17.449 Y14.684 E9.33113
G1 X18.048 Y14.567 E9.34636
G1 X18.64 Y14.529 E9.36116
G1 X32.64 Y14.529 E9.71039
G1 X33.248 Y14.569 E9.72559
G1 X33.846 Y14.688 E9.7408
G1 X34.423 Y14.885 E9.75601
G1 X34.97 Y15.155 E9.77122
G1 X35.476 Y15.494 E9.78642
G1 X35.934 Y15.897 E9.80163
G1 X36.335 Y16.356 E9.81684
G1 X36.672 Y16.863 E9.83202
G1 X36.941 Y17.411 E9.84725
G1 X37.135 Y17.988 E9.86244
G1 X37.252 Y18.587 E9.87766
G1 X37.29 Y19.179 E9.89246
G1 X37.29 Y34.679 E10.27911
G1 X37.25 Y35.287 E10.29431
G1 X37.131 Y35.885 E10.30952
G1 X36.934 Y36.462 E10.32473
G1 X36.664 Y37.009 E10.33994
G1 X36.325 Y37.515 E10.35514
G1 X35.922 Y37.973 E10.37035
G1 X35.463 Y38.374 E10.38556
G1 X34.956 Y38.711 E10.40075
G1 X34.408 Y38.98 E10.41597
G1 X33.831 Y39.174 E10.43116
G1 X33.232 Y39.291 E10.44638
G1 X32.64 Y39.329 E10.46118
G1 X18.64 Y39.329 E10.81041
G1 X18.032 Y39.289 E10.82561
G1 X17.434 Y39.17 E10.84082
G1 X16.857 Y38.973 E10.85603
G1 X16.31 Y38.703 E10.87125
G1 X15.804 Y38.364 E10.88644
G1 X15.346 Y37.961 E10.90166
G1 X14.945 Y37.502 E10.91686
G1 X14.608 Y36.995 E10.93205
G1 X14.339 Y36.447 E10.94728
G1 X14.145 Y35.87 E10.96246
G1 X14.028 Y35.271 E10.97769
G1 X13.99 Y34.679 E10.99248
G1 X13.99 Y19.179 E11.37913
G1 X14.03 Y18.571 E11.39433
G1 X14.149 Y17.973 E11.40954
G1 X14.346 Y17.396 E11.42475
G1 X14.616 Y16.849 E11.43997
G1 X14.955 Y16.343 E11.45516
G1 X15.358 Y15.885 E11.47038
G0 F3000 X15.653 Y16.017
G1 F1200 X16.108 Y15.642 E11.48509
G1 X16.609 Y15.332 E11.49978
G1 X17.148 Y15.093 E11.51449
G1 X17.714 Y14.929 E11.52919
G1 X18.298 Y14.842 E11.54392
G1 X18.64 Y14.829 E11.55246
G1 X32.64 Y14.829 E11.90169
G1 X33.228 Y14.869 E11.91639
G1 X33.806 Y14.988 E11.93111
G1 X34.362 Y15.184 E11.94582
G1 X34.886 Y15.454 E11.96052
G1 X35.369 Y15.792 E11.97523
G1 X35.802 Y16.192 E11.98993
G1 X36.177 Y16.647 E12.00464
G1 X36.487 Y17.148 E12.01934
G1 X36.726 Y17.687 E12.03404
G1 X36.89 Y18.253 E12.04874
G1 X36.977 Y18.837 E12.06347
G1 X36.99 Y19.179 E12.07201
G1 X36.99 Y34.679 E12.45866
G1 X36.95 Y35.267 E12.47336
G1 X36.831 Y35.845 E12.48808
G1 X36.635 Y36.401 E12.50279
G1 X36.365 Y36.925 E12.51749
G1 X36.027 Y37.408 E12.5322
G1 X35.627 Y37.841 E12.5469
G1 X35.172 Y38.216 E12.56161
G1 X34.671 Y38.526 E12.57631
G1 X34.132 Y38.765 E12.59101
G1 X33.566 Y38.929 E12.60571
G1 X32.982 Y39.016 E12.62044
G1 X32.64 Y39.029 E12.62898
G1 X18.64 Y39.029 E12.97821
G1 X18.052 Y38.989 E12.99291
G1 X17.474 Y38.87 E13.00763
G1 X16.918 Y38.674 E13.02234
G1 X16.394 Y38.404 E13.03704
G1 X15.911 Y38.066 E13.05175
G1 X15.478 Y37.666 E13.06645
G1 X15.103 Y37.211 E13.08116
G1 X14.793 Y36.71 E13.09586
G1 X14.554 Y36.171 E13.11057
G1 X14.39 Y35.605 E13.12527
G1 X14.303 Y35.021 E13.14
G1 X14.29 Y34.679 E13.14853
G1 X14.29 Y19.179 E13.53518
G1 X14.33 Y18.591 E13.54988
G1 X14.449 Y18.013 E13.5646
G1 X14.645 Y17.457 E13.57931
G1 X14.915 Y16.933 E13.59401
G1 X15.253 Y16.45 E13.60872
G1 X15.653 Y16.017 E13.62342
G0 F3000 X15.947 Y16.154
G1 F1200 X16.398 Y15.806 E13.63763
G1 X16.892 Y15.526 E13.6518
G1 X17.421 Y15.317 E13.66599
G1 X17.975 Y15.184 E13.6802
G1 X18.64 Y15.129 E13.69685
G1 X32.64 Y15.129 E14.04608
G1 X33.207 Y15.169 E14.06026
G1 X33.764 Y15.288 E14.07446
G1 X34.298 Y15.484 E14.08865
G1 X34.799 Y15.753 E14.10284
G1 X35.258 Y16.089 E14.11703
G1 X35.665 Y16.486 E14.13121
G1 X36.013 Y16.937 E14.14542
G1 X36.293 Y17.431 E14.15959
G1 X36.502 Y17.96 E14.17377
G1 X36.635 Y18.514 E14.18799
G1 X36.69 Y19.179 E14.20463
G1 X36.69 Y34.679 E14.59128
G1 X36.65 Y35.246 E14.60546
G1 X36.531 Y35.803 E14.61967
G1 X36.335 Y36.337 E14.63386
G1 X36.066 Y36.838 E14.64804
G1 X35.73 Y37.297 E14.66223
G1 X35.333 Y37.704 E14.67641
G1 X34.882 Y38.052 E14.69062
G1 X34.388 Y38.332 E14.70479
G1 X33.859 Y38.541 E14.71898
G1 X33.305 Y38.674 E14.73319
G1 X32.64 Y38.729 E14.74984
G1 X18.64 Y38.729 E15.09907
G1 X18.073 Y38.689 E15.11325
G1 X17.516 Y38.57 E15.12745
G1 X16.982 Y38.374 E15.14164
G1 X16.481 Y38.105 E15.15583
G1 X16.022 Y37.769 E15.17002
G1 X15.615 Y37.372 E15.1842
G1 X15.267 Y36.921 E15.19841
G1 X14.987 Y36.427 E15.21258
G1 X14.778 Y35.898 E15.22676
G1 X14.645 Y35.344 E15.24098
G1 X14.59 Y34.679 E15.25762
G1 X14.59 Y19.179 E15.64427
G1 X14.63 Y18.612 E15.65845
G1 X14.749 Y18.055 E15.67266
G1 X14.945 Y17.521 E15.68685
G1 X15.214 Y17.02 E15.70103
G1 X15.55 Y16.561 E15.71522
G1 X15.947 Y16.154 E15.7294
G0 F3000 X16.241 Y16.297
G1 F1200 X16.686 Y15.978 E15.74306
G1 X17.173 Y15.728 E15.75672
G1 X17.691 Y15.551 E15.77037
G1 X18.229 Y15.452 E15.78402
G1 X18.64 Y15.429 E15.79429
G1 X32.64 Y15.429 E16.14352
G1 X33.186 Y15.469 E16.15718
G1 X33.72 Y15.588 E16.17082
G1 X34.231 Y15.783 E16.18447
G1 X34.709 Y16.051 E16.19814
G1 X35.142 Y16.386 E16.21179
G1 X35.522 Y16.78 E16.22545
G1 X35.841 Y17.225 E16.23911
G1 X36.091 Y17.712 E16.25276
G1 X36.268 Y18.23 E16.26642
G1 X36.367 Y18.768 E16.28006
G1 X36.39 Y19.179 E16.29033
G1 X36.39 Y34.679 E16.67698
G1 X36.35 Y35.225 E16.69064
G1 X36.231 Y35.759 E16.70428
G1 X36.036 Y36.27 E16.71793
G1 X35.768 Y36.748 E16.7316
G1 X35.433 Y37.181 E16.74525
G1 X35.039 Y37.561 E16.75891
G1 X34.594 Y37.88 E16.77257
G1 X34.107 Y38.13 E16.78622
G1 X33.589 Y38.307 E16.79988
G1 X33.051 Y38.406 E16.81352
G1 X32.64 Y38.429 E16.82379
G1 X18.64 Y38.429 E17.17302
G1 X18.094 Y38.389 E17.18668
G1 X17.56 Y38.27 E17.20033
G1 X17.049 Y38.075 E17.21397
G1 X16.571 Y37.807 E17.22764
G1 X16.138 Y37.472 E17.2413
G1 X15.758 Y37.078 E17.25495
G1 X15.439 Y36.633 E17.26861
G1 X15.189 Y36.146 E17.28227
G1 X15.012 Y35.628 E17.29592
G1 X14.913 Y35.09 E17.30957
G1 X14.89 Y34.679 E17.31983
G1 X14.89 Y19.179 E17.70648
G1 X14.93 Y18.633 E17.72014
G1 X15.049 Y18.099 E17.73379
G1 X15.244 Y17.588 E17.74743
G1 X15.512 Y17.11 E17.7611
G1 X15.847 Y16.677 E17.77476
G1 X16.241 Y16.297 E17.78841
G0 F3000 X16.143 Y16.798
G1 F1200 X16.533 Y16.447 E17.8015
G1 X16.972 Y16.159 E17.8146
G1 X17.45 Y15.941 E17.8277
G1 X17.955 Y15.798 E17.8408
G1 X18.64 Y15.729 E17.85797
G1 X32.64 Y15.729 E18.2072
G1 X33.163 Y15.769 E18.22029
G1 X33.675 Y15.888 E18.2334
G1 X34.162 Y16.083 E18.24648
G1 X34.614 Y16.35 E18.25958
G1 X35.021 Y16.682 E18.27268
G1 X35.372 Y17.072 E18.28577
G1 X35.66 Y17.511 E18.29887
G1 X35.878 Y17.989 E18.31197
G1 X36.021 Y18.494 E18.32506
G1 X36.09 Y19.179 E18.34224
G1 X36.09 Y34.679 E18.72889
G1 X36.05 Y35.202 E18.74197
G1 X35.931 Y35.714 E18.75508
G1 X35.736 Y36.201 E18.76817
G1 X35.469 Y36.653 E18.78127
G1 X35.137 Y37.06 E18.79437
G1 X34.747 Y37.411 E18.80746
G1 X34.308 Y37.699 E18.82055
G1 X33.83 Y37.917 E18.83366
G1 X33.325 Y38.06 E18.84675
G1 X32.64 Y38.129 E18.86392
G1 X18.64 Y38.129 E19.21316
G1 X18.117 Y38.089 E19.22624
G1 X17.605 Y37.97 E19.23935
G1 X17.118 Y37.775 E19.25244
G1 X16.666 Y37.508 E19.26553
G1 X16.259 Y37.176 E19.27864
G1 X15.908 Y36.786 E19.29173
G1 X15.62 Y36.347 E19.30482
G1 X15.402 Y35.869 E19.31793
G1 X15.259 Y35.364 E19.33102
G1 X15.19 Y34.679 E19.34819
G1 X15.19 Y19.179 E19.73484
G1 X15.23 Y18.656 E19.74793
G1 X15.349 Y18.144 E19.76104
G1 X15.544 Y17.657 E19.77413
G1 X15.811 Y17.205 E19.78722
G1 X16.143 Y16.798 E19.80032
G0 F3000 X16.439 Y16.926
G1 F1200 X16.824 Y16.605 E19.81283
G1 X17.256 Y16.349 E19.82535
G1 X17.723 Y16.166 E19.83787
G1 X18.212 Y16.058 E19.85036
G1 X18.64 Y16.029 E19.86106
G1 X32.64 Y16.029 E20.21029
G1 X33.14 Y16.069 E20.2228
G1 X33.627 Y16.188 E20.23531
G1 X34.09 Y16.382 E20.24783
G1 X34.515 Y16.648 E20.26034
G1 X34.893 Y16.978 E20.27285
G1 X35.214 Y17.363 E20.28536
G1 X35.47 Y17.795 E20.29788
G1 X35.653 Y18.262 E20.3104
G1 X35.761 Y18.751 E20.32289
G1 X35.79 Y19.179 E20.33359
G1 X35.79 Y34.679 E20.72024
G1 X35.75 Y35.179 E20.73275
G1 X35.631 Y35.666 E20.74526
G1 X35.437 Y36.129 E20.75778
G1 X35.171 Y36.554 E20.77029
G1 X34.841 Y36.932 E20.7828
G1 X34.456 Y37.253 E20.79531
G1 X34.024 Y37.509 E20.80783
G1 X33.557 Y37.692 E20.82035
G1 X33.068 Y37.8 E20.83284
G1 X32.64 Y37.829 E20.84354
G1 X18.64 Y37.829 E21.19277
G1 X18.14 Y37.789 E21.20528
G1 X17.653 Y37.67 E21.21779
G1 X17.19 Y37.476 E21.23031
G1 X16.765 Y37.21 E21.24282
G1 X16.387 Y36.88 E21.25533
G1 X16.066 Y36.495 E21.26784
G1 X15.81 Y36.063 E21.28036
G1 X15.627 Y35.596 E21.29288
G1 X15.519 Y35.107 E21.30537
G1 X15.49 Y34.679 E21.31607
G1 X15.49 Y19.179 E21.70272
G1 X15.53 Y18.679 E21.71523
G1 X15.649 Y18.192 E21.72774
G1 X15.843 Y17.729 E21.74026
G1 X16.109 Y17.304 E21.75277
G1 X16.439 Y16.926 E21.76528
G0 F3000 X16.733 Y17.061
G1 F1200 X17.113 Y16.772 E21.77719
G1 X17.536 Y16.551 E21.7891
G1 X17.99 Y16.404 E21.801
G1 X18.64 Y16.329 E21.81732
G1 X32.64 Y16.329 E22.16655
G1 X33.115 Y16.369 E22.17845
G1 X33.577 Y16.488 E22.19035
G1 X34.013 Y16.682 E22.20225
G1 X34.411 Y16.946 E22.21416
G1 X34.758 Y17.272 E22.22604
G1 X35.047 Y17.652 E22.23795
G1 X35.268 Y18.075 E22.24986
G1 X35.415 Y18.529 E22.26176
G1 X35.49 Y19.179 E22.27808
G1 X35.49 Y34.679 E22.66473
G1 X35.45 Y35.154 E22.67662
G1 X35.331 Y35.616 E22.68852
G1 X35.137 Y36.052 E22.70043
G1 X34.873 Y36.45 E22.71234
G1 X34.547 Y36.797 E22.72422
G1 X34.167 Y37.086 E22.73613
G1 X33.744 Y37.307 E22.74803
G1 X33.29 Y37.454 E22.75993
G1 X32.64 Y37.529 E22.77626
G1 X18.64 Y37.529 E23.12549
G1 X18.165 Y37.489 E23.13738
