;FLAVOR:Marlin
;TIME:2236
;Filament used: 3.61813m
;Layer height: 0.2
;Generated with Cura_SteamEngine 3.6.0
M140 S55
M105
M190 S55
M104 S210
M105
M109 S210
M82 ;absolute extrusion mode
G21 ;metric values
G90 ;absolute positioning
M82 ;set extruder to absolute mode
M107 ;start with the fan off
G28 X0 Y0 ;move X/Y to min endstops
G28 Z0 ;move Z to min endstops
G1 Z15.0 F9000 ;move the platform down 15mm
G92 E0 ;zero the extruded length
G1 F200 E3 ;extrude 3mm of feed stock
G92 E0 ;zero the extruded length again
G1 F9000
;Put printing message on LCD screen
M117 Printing...
G92 E0
G1 F1500 E-5
;LAYER_COUNT:18
;LAYER:0
M107
G0 F4500 X49.748 Y85.449 Z0.2
;TYPE:SKIRT
G1 F1500 E0
G1 F3600 X53.645 Y83.459 E0.14645
G1 X54.157 Y83.242 E0.16506
G1 X54.831 Y83.078 E0.18827
G1 X59.479 Y82.379 E0.34558
G1 X60.055 Y82.336 E0.36491
G1 X163.729 Y82.346 E3.83467
G1 X164.284 Y82.386 E3.8533
G1 X164.828 Y82.505 E3.87193
G1 X165.349 Y82.701 E3.89056
G1 X165.836 Y82.969 E3.90917
G1 X166.28 Y83.304 E3.92778
G1 X166.672 Y83.7 E3.94643
G1 X167.002 Y84.147 E3.96503
G1 X167.266 Y84.637 E3.98366
G1 X167.456 Y85.16 E4.00228
G1 X167.569 Y85.705 E4.02091
G1 X167.604 Y86.221 E4.03822
G1 X167.604 Y114.202 E4.97468
G1 X167.564 Y114.757 E4.99331
G1 X167.445 Y115.301 E5.01194
G1 X167.249 Y115.821 E5.03054
G1 X166.981 Y116.309 E5.04918
G1 X166.646 Y116.753 E5.06779
G1 X166.25 Y117.144 E5.08642
G1 X165.803 Y117.475 E5.10503
G1 X165.313 Y117.739 E5.12366
G1 X164.79 Y117.929 E5.14228
G1 X164.245 Y118.042 E5.16091
G1 X163.729 Y118.077 E5.17822
G1 X59.729 Y118.075 E8.65889
G1 X59.122 Y118.027 E8.67927
G1 X54.819 Y117.345 E8.82508
G1 X54.278 Y117.219 E8.84367
G1 X53.669 Y116.972 E8.86567
G1 X49.766 Y114.987 E9.01222
G1 X49.29 Y114.7 E9.03082
G1 X48.784 Y114.274 E9.05296
G1 X45.69 Y111.182 E9.19935
G1 X45.326 Y110.761 E9.21798
G1 X44.978 Y110.203 E9.23999
G1 X42.988 Y106.306 E9.38643
G1 X42.771 Y105.794 E9.40504
G1 X42.612 Y105.153 E9.42715
G1 X41.924 Y100.828 E9.57372
G1 X41.876 Y100.273 E9.59236
G1 X41.923 Y99.615 E9.61444
G1 X42.605 Y95.293 E9.76088
G1 X42.731 Y94.751 E9.7795
G1 X42.979 Y94.14 E9.80157
G1 X44.964 Y90.237 E9.94812
G1 X45.251 Y89.761 E9.96672
G1 X45.677 Y89.255 E9.98886
G1 X48.769 Y86.161 E10.13525
G1 X49.19 Y85.797 E10.15388
G1 X49.748 Y85.449 E10.17589
G0 F4500 X49.907 Y85.761
G1 F3600 X53.804 Y83.771 E10.32233
G1 X54.293 Y83.566 E10.34008
G1 X54.883 Y83.424 E10.36039
G1 X59.531 Y82.725 E10.5177
G1 X60.055 Y82.686 E10.53528
G1 X163.729 Y82.696 E14.00505
G1 X164.258 Y82.736 E14.0228
G1 X164.776 Y82.855 E14.04059
G1 X165.269 Y83.05 E14.05833
G1 X165.728 Y83.317 E14.0761
G1 X166.141 Y83.65 E14.09386
G1 X166.499 Y84.041 E14.1116
G1 X166.795 Y84.482 E14.12938
G1 X167.022 Y84.962 E14.14715
G1 X167.173 Y85.471 E14.16492
G1 X167.254 Y86.221 E14.19016
G1 X167.254 Y114.202 E15.12663
G1 X167.214 Y114.731 E15.14439
G1 X167.095 Y115.248 E15.16214
G1 X166.9 Y115.742 E15.17992
G1 X166.633 Y116.2 E15.19766
G1 X166.3 Y116.614 E15.21544
G1 X165.909 Y116.972 E15.23319
G1 X165.468 Y117.268 E15.25096
G1 X164.988 Y117.494 E15.26872
G1 X164.48 Y117.646 E15.28646
G1 X163.729 Y117.727 E15.31174
G1 X59.729 Y117.725 E18.79242
G1 X59.177 Y117.682 E18.81095
G1 X54.874 Y117 E18.95676
G1 X54.358 Y116.877 E18.97451
G1 X53.828 Y116.66 E18.99368
G1 X49.925 Y114.675 E19.14023
G1 X49.471 Y114.4 E19.15799
G1 X49.031 Y114.026 E19.17732
G1 X45.937 Y110.934 E19.32371
G1 X45.591 Y110.532 E19.34147
G1 X45.29 Y110.044 E19.36065
G1 X43.3 Y106.147 E19.5071
G1 X43.095 Y105.658 E19.52485
G1 X42.958 Y105.098 E19.54414
G1 X42.27 Y100.773 E19.69071
G1 X42.226 Y100.244 E19.70848
G1 X42.269 Y99.67 E19.72774
G1 X42.951 Y95.348 E19.87418
G1 X43.073 Y94.831 E19.89196
G1 X43.291 Y94.299 E19.9112
G1 X45.276 Y90.396 E20.05775
G1 X45.551 Y89.942 E20.07551
G1 X45.925 Y89.502 E20.09484
G1 X49.017 Y86.408 E20.24123
G1 X49.419 Y86.062 E20.25898
G1 X49.907 Y85.761 E20.27817
G0 F4500 X50.066 Y86.072
G1 F3600 X53.963 Y84.082 E20.42462
G1 X54.428 Y83.89 E20.44146
G1 X54.935 Y83.77 E20.45889
G1 X59.583 Y83.071 E20.6162
G1 X60.055 Y83.036 E20.63204
G1 X163.729 Y83.046 E24.10181
G1 X164.231 Y83.086 E24.11866
G1 X164.721 Y83.205 E24.13554
G1 X165.185 Y83.4 E24.15238
G1 X165.613 Y83.665 E24.16923
G1 X165.993 Y83.995 E24.18607
G1 X166.317 Y84.381 E24.20294
G1 X166.575 Y84.814 E24.21981
G1 X166.762 Y85.281 E24.23664
G1 X166.872 Y85.773 E24.25352
G1 X166.904 Y86.221 E24.26855
G1 X166.904 Y114.202 E25.20502
G1 X166.864 Y114.704 E25.22187
G1 X166.745 Y115.193 E25.23871
G1 X166.551 Y115.658 E25.25558
G1 X166.285 Y116.086 E25.27244
G1 X165.955 Y116.466 E25.28929
G1 X165.569 Y116.789 E25.30613
G1 X165.137 Y117.048 E25.32299
G1 X164.669 Y117.235 E25.33986
G1 X164.178 Y117.345 E25.3567
G1 X163.729 Y117.377 E25.37176
G1 X59.729 Y117.375 E28.85243
G1 X59.232 Y117.336 E28.86912
G1 X54.929 Y116.654 E29.01493
G1 X54.439 Y116.536 E29.0318
G1 X53.987 Y116.348 E29.04818
G1 X50.084 Y114.363 E29.19473
G1 X49.654 Y114.1 E29.2116
G1 X49.279 Y113.779 E29.22812
G1 X46.185 Y110.687 E29.37452
G1 X45.858 Y110.304 E29.39137
G1 X45.601 Y109.885 E29.40782
G1 X43.611 Y105.988 E29.55427
G1 X43.419 Y105.523 E29.5711
G1 X43.303 Y105.043 E29.58763
G1 X42.615 Y100.718 E29.7342
G1 X42.576 Y100.216 E29.75105
G1 X42.615 Y99.724 E29.76757
G1 X43.297 Y95.402 E29.91401
G1 X43.415 Y94.912 E29.93088
G1 X43.603 Y94.458 E29.94732
G1 X45.588 Y90.555 E30.09387
G1 X45.851 Y90.125 E30.11074
G1 X46.172 Y89.75 E30.12726
G1 X49.264 Y86.656 E30.27366
G1 X49.647 Y86.329 E30.29051
G1 X50.066 Y86.072 E30.30696
G1 F1500 E25.30696
G1 F300 Z0.5
;MESH:edgardo-keychain.stl
G0 F4500 X52.234 Y89.892 Z0.5
;TYPE:WALL-INNER
G1 F300 Z0.2
G1 F1500 E30.30696
G1 F3600 X55.796 Y88.076 E30.44077
G1 X59.844 Y87.436 E30.57793
G1 X162.513 Y87.436 E34.01406
G1 X162.513 Y112.986 E34.86917
G1 X59.844 Y112.986 E38.3053
G1 X55.796 Y112.346 E38.44246
G1 X52.234 Y110.53 E38.57627
G1 X49.421 Y107.717 E38.70941
G1 X47.605 Y104.155 E38.84322
G1 X46.982 Y100.211 E38.97686
G1 X47.605 Y96.267 E39.11049
G1 X49.421 Y92.705 E39.24431
G1 X52.234 Y89.892 E39.37745
G0 F4500 X54.602 Y93.137
G1 F3600 X52.666 Y95.073 E39.46908
G1 X51.425 Y97.508 E39.56055
G1 X50.997 Y100.211 E39.65214
G1 X51.425 Y102.914 E39.74373
G1 X52.666 Y105.349 E39.8352
G1 X54.602 Y107.285 E39.92683
G1 X57.039 Y108.526 E40.01836
G1 X59.74 Y108.952 E40.10987
G1 X62.441 Y108.526 E40.20139
G1 X64.878 Y107.285 E40.29292
G1 X66.814 Y105.349 E40.38455
G1 X68.055 Y102.912 E40.47608
G1 X68.481 Y100.211 E40.56759
G1 X68.055 Y97.51 E40.65911
G1 X66.814 Y95.073 E40.75063
G1 X64.878 Y93.137 E40.84227
G1 X62.443 Y91.896 E40.93373
G1 X59.74 Y91.468 E41.02533
G1 X57.037 Y91.896 E41.11692
G1 X54.602 Y93.137 E41.20838
G0 F4500 X54.81 Y93.424
G1 F3600 X52.953 Y95.281 E41.29628
G1 X51.762 Y97.618 E41.38406
G1 X51.351 Y100.211 E41.47193
G1 X51.762 Y102.804 E41.5598
G1 X52.953 Y105.141 E41.64758
G1 X54.81 Y106.998 E41.73548
G1 X57.148 Y108.189 E41.82329
G1 X59.74 Y108.598 E41.91111
G1 X62.332 Y108.189 E41.99894
G1 X64.67 Y106.998 E42.08675
G1 X66.527 Y105.141 E42.17465
G1 X67.718 Y102.803 E42.26246
G1 X68.127 Y100.211 E42.35028
G1 X67.718 Y97.619 E42.43811
G1 X66.527 Y95.281 E42.52592
G1 X64.67 Y93.424 E42.61382
G1 X62.333 Y92.233 E42.7016
G1 X59.74 Y91.822 E42.78947
G1 X57.147 Y92.233 E42.87733
G1 X54.81 Y93.424 E42.96512
G0 F4500 X52.028 Y89.604
G1 F3600 X55.687 Y87.739 E43.10257
G1 X59.814 Y87.086 E43.24241
G1 X162.863 Y87.086 E46.69125
G1 X162.863 Y113.336 E47.56979
G1 X59.814 Y113.336 E51.01864
G1 X55.687 Y112.683 E51.15848
G1 X52.028 Y110.818 E51.29593
G1 X49.133 Y107.923 E51.43295
G1 X47.268 Y104.264 E51.5704
G1 X46.627 Y100.211 E51.70773
G1 X47.268 Y96.158 E51.84506
G1 X49.133 Y92.499 E51.98251
G1 X52.028 Y89.604 E52.11953
G0 F4500 X51.822 Y89.316
G1 F3600 X55.578 Y87.402 E52.26062
G1 X59.784 Y86.736 E52.40314
G1 X163.213 Y86.736 E55.8647
G1 X163.213 Y113.686 E56.76667
G1 X59.784 Y113.686 E60.22823
G1 X55.578 Y113.02 E60.37075
G1 X51.822 Y111.106 E60.51184
G1 X48.845 Y108.129 E60.65274
G1 X46.931 Y104.373 E60.79383
G1 X46.272 Y100.211 E60.93486
G1 X46.931 Y96.049 E61.07588
G1 X48.845 Y92.293 E61.21697
G1 X51.822 Y89.316 E61.35787
G1 F1500 E56.35787
G0 F4500 X51.88 Y89.396
G0 X54.96 Y93.631
G0 X55.018 Y93.711
G1 F1500 E61.35787
G1 F3600 X53.24 Y95.489 E61.44203
G1 X52.099 Y97.728 E61.52613
G1 X51.705 Y100.211 E61.61027
G1 X52.099 Y102.694 E61.69441
G1 X53.24 Y104.933 E61.77852
G1 X55.018 Y106.711 E61.86267
G1 X57.257 Y107.852 E61.94678
G1 X59.74 Y108.244 E62.03091
G1 X62.223 Y107.852 E62.11504
G1 X64.462 Y106.711 E62.19914
G1 X66.24 Y104.933 E62.2833
G1 X67.381 Y102.694 E62.3674
G1 X67.773 Y100.211 E62.45153
G1 X67.381 Y97.728 E62.53566
G1 X66.24 Y95.489 E62.61976
G1 X64.462 Y93.711 E62.70392
G1 X62.223 Y92.57 E62.78802
G1 X59.74 Y92.176 E62.87216
G1 X57.257 Y92.57 E62.9563
G1 X55.018 Y93.711 E63.04041
G0 F4500 X55.211 Y93.977
;TYPE:WALL-OUTER
G1 F3600 X53.506 Y95.682 E63.12111
G1 X52.412 Y97.83 E63.20178
G1 X52.034 Y100.211 E63.28247
G1 X52.412 Y102.592 E63.36315
G1 X53.506 Y104.74 E63.44383
G1 X55.211 Y106.445 E63.52453
G1 X57.359 Y107.539 E63.60521
G1 X59.74 Y107.915 E63.68588
G1 X62.121 Y107.539 E63.76656
G1 X64.269 Y106.445 E63.84723
G1 X65.974 Y104.74 E63.92793
G1 X67.068 Y102.592 E64.00861
G1 X67.444 Y100.211 E64.08928
G1 X67.068 Y97.83 E64.16996
G1 X65.974 Y95.682 E64.25063
G1 X64.269 Y93.977 E64.33133
G1 X62.121 Y92.883 E64.41201
G1 X59.74 Y92.505 E64.49269
G1 X57.359 Y92.883 E64.57338
G1 X55.211 Y93.977 E64.65406
G0 F4500 X55.07 Y94.118
G1 F1500 E59.65406
G0 F4500 X54.771 Y93.818
G0 X51.88 Y89.396
G0 X51.629 Y89.049
G1 F1500 E64.65406
G1 F3600 X55.475 Y87.089 E64.79852
G1 X59.758 Y86.411 E64.94365
G1 X163.538 Y86.411 E68.41696
G1 X163.538 Y114.011 E69.34068
G1 X59.758 Y114.011 E72.81399
G1 X55.475 Y113.333 E72.95912
G1 X51.629 Y111.373 E73.10359
G1 X48.578 Y108.322 E73.24799
G1 X46.618 Y104.476 E73.39246
G1 X45.943 Y100.211 E73.53698
G1 X46.618 Y95.946 E73.6815
G1 X48.578 Y92.1 E73.82597
G1 X51.629 Y89.049 E73.97037
G0 F4500 X51.807 Y88.959
G0 X52.439 Y90.169
;TYPE:SKIN
G1 F3600 X55.902 Y88.404 E74.10046
G1 X59.871 Y87.776 E74.23495
G1 X162.173 Y87.776 E77.65879
G1 X162.173 Y112.646 E78.49114
G1 X59.871 Y112.646 E81.91499
G1 X55.902 Y112.018 E82.04947
G1 X52.439 Y110.253 E82.17956
G1 X49.698 Y107.512 E82.30929
G1 X47.933 Y104.049 E82.43938
G1 X47.326 Y100.211 E82.56942
G1 X47.933 Y96.373 E82.69947
G1 X49.698 Y92.91 E82.82956
G1 X52.439 Y90.169 E82.95929
G0 F4500 X54.4 Y92.859
G1 F3600 X52.388 Y94.871 E83.05452
G1 X51.097 Y97.401 E83.14958
G1 X50.653 Y100.211 E83.24479
G1 X51.097 Y103.021 E83.34
G1 X52.388 Y105.551 E83.43506
G1 X54.4 Y107.563 E83.53029
G1 X56.932 Y108.854 E83.62541
G1 X59.74 Y109.296 E83.72055
G1 X62.548 Y108.854 E83.81569
G1 X65.08 Y107.563 E83.91081
G1 X67.092 Y105.551 E84.00604
G1 X68.383 Y103.019 E84.10116
G1 X68.825 Y100.211 E84.19629
G1 X68.383 Y97.403 E84.29143
G1 X67.092 Y94.871 E84.38655
G1 X65.08 Y92.859 E84.48178
G1 X62.55 Y91.568 E84.57684
G1 X59.74 Y91.124 E84.67205
G1 X56.93 Y91.568 E84.76726
G1 X54.4 Y92.859 E84.86232
G1 F1500 E79.86232
G0 F4500 X52.061 Y97.716
G0 X51.665 Y100.211
G0 X52.888 Y110.305
G1 F1500 E84.86232
G1 F3600 X49.643 Y107.06 E85.01591
G1 X49.581 Y106.998
G0 F4500 X49.13 Y106.052
G1 F3600 X53.897 Y110.819 E85.24154
G1 X53.959 Y110.881
G0 F4500 X54.906 Y111.333
G1 F3600 X48.616 Y105.043 E85.53925
G1 X48.554 Y104.981
G0 F4500 X48.102 Y104.034
G1 F3600 X55.915 Y111.847 E85.90905
G0 F4500 X56.517 Y111.954
G1 F3600 X47.994 Y103.432 E86.31242
G0 F4500 X47.902 Y102.844
G1 F3600 X57.105 Y112.048 E86.74803
G0 F4500 X57.694 Y112.141
G1 F3600 X47.808 Y102.256 E87.21592
G0 F4500 X47.715 Y101.667
G1 F3600 X58.281 Y112.234 E87.71605
G0 F4500 X58.87 Y112.327
G1 F3600 X47.622 Y101.079 E88.24842
G0 F4500 X47.529 Y100.491
G1 F3600 X51.819 Y104.781 E88.45147
G1 X51.881 Y104.843
G0 F4500 X51.304 Y103.771
G1 F3600 X47.519 Y99.987 E88.6306
G0 F4500 X47.587 Y99.559
G1 F3600 X50.918 Y102.89 E88.78826
G0 F4500 X50.825 Y102.302
G1 F3600 X47.655 Y99.132 E88.93829
G0 F4500 X47.722 Y98.705
G1 F3600 X50.732 Y101.714 E89.08074
G0 F4500 X50.638 Y101.126
G1 F3600 X47.79 Y98.277 E89.21556
G0 F4500 X47.858 Y97.85
G1 F3600 X50.546 Y100.538 E89.34278
G0 F4500 X50.524 Y100.021
G1 F3600 X47.926 Y97.423 E89.46575
G0 F4500 X47.993 Y96.995
G1 F3600 X50.591 Y99.593 E89.58872
G0 F4500 X50.659 Y99.166
G1 F3600 X48.061 Y96.568 E89.71168
G0 F4500 X48.193 Y96.206
G1 F3600 X50.726 Y98.738 E89.83155
G0 F4500 X50.794 Y98.311
G1 F3600 X48.361 Y95.878 E89.9467
G0 F4500 X48.528 Y95.55
G1 F3600 X50.861 Y97.884 E90.05715
G0 F4500 X50.929 Y97.456
G1 F3600 X48.694 Y95.222 E90.16291
G0 F4500 X48.861 Y94.894
G1 F3600 X51.071 Y97.104 E90.26751
G0 F4500 X51.239 Y96.776
G1 F3600 X49.029 Y94.567 E90.37209
G0 F4500 X49.196 Y94.238
G1 F3600 X51.405 Y96.448 E90.47667
G0 F4500 X51.573 Y96.121
G1 F3600 X49.363 Y93.91 E90.58129
G0 F4500 X49.53 Y93.582
G1 F3600 X51.741 Y95.793 E90.68594
G0 F4500 X51.908 Y95.465
G1 F3600 X49.697 Y93.255 E90.79057
G0 F4500 X49.883 Y92.946
G1 F3600 X52.075 Y95.138 E90.89432
G0 F4500 X52.242 Y94.81
G1 F3600 X50.131 Y92.698 E90.99426
G0 F4500 X50.378 Y92.451
G1 F3600 X52.482 Y94.555 E91.09384
G0 F4500 X52.729 Y94.307
G1 F3600 X50.626 Y92.203 E91.1934
G0 F4500 X50.873 Y91.956
G1 F3600 X52.977 Y94.06 E91.29298
G0 F4500 X53.224 Y93.812
G1 F3600 X51.12 Y91.708 E91.39257
G0 F4500 X51.368 Y91.461
G1 F3600 X53.472 Y93.565 E91.49215
G0 F4500 X53.719 Y93.317
G1 F3600 X51.615 Y91.213 E91.59174
G0 F4500 X51.863 Y90.966
G1 F3600 X53.967 Y93.07 E91.69132
G0 F4500 X54.214 Y92.822
G1 F3600 X52.11 Y90.718 E91.79091
G0 F4500 X52.358 Y90.471
G1 F3600 X54.511 Y92.624 E91.89281
G0 F4500 X54.839 Y92.457
G1 F3600 X52.629 Y90.247 E91.99741
G0 F4500 X52.957 Y90.08
G1 F3600 X55.167 Y92.29 E92.10201
G0 F4500 X55.494 Y92.122
G1 F3600 X53.285 Y89.913 E92.20657
G0 F4500 X53.613 Y89.746
G1 F3600 X55.822 Y91.955 E92.31112
G0 F4500 X56.149 Y91.788
G1 F3600 X53.94 Y89.579 E92.41567
G0 F4500 X54.269 Y89.412
G1 F3600 X56.478 Y91.621 E92.52023
G0 F4500 X56.805 Y91.453
G1 F3600 X54.597 Y89.245 E92.62473
G0 F4500 X54.925 Y89.078
G1 F3600 X57.21 Y91.363 E92.73289
G0 F4500 X57.637 Y91.295
G1 F3600 X55.252 Y88.91 E92.84577
G0 F4500 X55.58 Y88.744
G1 F3600 X58.065 Y91.228 E92.96336
G0 F4500 X58.492 Y91.16
G1 F3600 X55.908 Y88.577 E93.08564
G0 F4500 X56.323 Y88.496
G1 F3600 X58.92 Y91.093 E93.20856
G0 F4500 X59.347 Y91.025
G1 F3600 X56.75 Y88.428 E93.33148
G0 F4500 X57.178 Y88.361
G1 F3600 X59.787 Y90.971 E93.45499
G0 F4500 X60.376 Y91.064
G1 F3600 X57.605 Y88.293 E93.58614
G0 F4500 X58.032 Y88.225
G1 F3600 X60.963 Y91.157 E93.72489
G0 F4500 X61.551 Y91.25
G1 F3600 X58.46 Y88.158 E93.87122
G0 F4500 X58.887 Y88.09
G1 F3600 X62.139 Y91.343 E94.02516
G1 X62.201 Y91.405
G0 F4500 X62.819 Y91.527
G1 F3600 X59.314 Y88.022 E94.19106
G0 F4500 X59.741 Y87.954
G1 F3600 X63.83 Y92.044 E94.38462
G1 X63.892 Y92.106
G0 F4500 X64.842 Y92.56
G1 F3600 X60.214 Y87.932 E94.60366
G0 F4500 X60.709 Y87.932
G1 F3600 X85.265 Y112.488 E95.76592
G0 F4500 X85.76 Y112.488
G1 F3600 X61.204 Y87.932 E96.92818
G0 F4500 X61.699 Y87.932
G1 F3600 X86.255 Y112.488 E98.09044
G0 F4500 X86.749 Y112.488
G1 F3600 X62.194 Y87.932 E99.25267
G0 F4500 X62.689 Y87.932
G1 F3600 X87.244 Y112.488 E100.41491
G0 F4500 X87.739 Y112.488
G1 F3600 X63.184 Y87.932 E101.57714
G0 F4500 X63.679 Y87.932
G1 F3600 X88.234 Y112.488 E102.73937
G0 F4500 X88.729 Y112.488
G1 F3600 X64.174 Y87.932 E103.90161
G0 F4500 X64.669 Y87.932
G1 F3600 X89.224 Y112.488 E105.06384
G0 F4500 X89.719 Y112.488
G1 F3600 X65.164 Y87.932 E106.22608
G0 F4500 X65.659 Y87.932
G1 F3600 X90.214 Y112.488 E107.38831
G0 F4500 X90.709 Y112.488
G1 F3600 X66.154 Y87.932 E108.55055
G0 F4500 X66.649 Y87.932
G1 F3600 X91.204 Y112.488 E109.71278
G0 F4500 X91.699 Y112.488
G1 F3600 X67.144 Y87.932 E110.87501
G0 F4500 X67.639 Y87.932
G1 F3600 X92.194 Y112.488 E112.03725
G0 F4500 X92.689 Y112.488
G1 F3600 X68.133 Y87.932 E113.19951
G0 F4500 X68.628 Y87.932
G1 F3600 X93.184 Y112.488 E114.36176
G0 F4500 X93.679 Y112.488
G1 F3600 X69.123 Y87.932 E115.52402
G0 F4500 X69.618 Y87.932
G1 F3600 X94.174 Y112.488 E116.68628
G0 F4500 X94.669 Y112.488
