;FLAVOR:Marlin
;TIME:2290
;Filament used: 0.665994m
;Layer height: 0.2
;Generated with Cura_SteamEngine 3.6.0
M140 S55
M105
M190 S55
M104 S192
M105
M109 S192
M82 ;absolute extrusion mode
G21 ;metric values
G90 ;absolute positioning
M82 ;set extruder to absolute mode
M107 ;start with the fan off
G28 X0 Y0 ;move X/Y to min endstops
G28 Z0 ;move Z to min endstops
G1 Z15.0 F9000 ;move the platform down 15mm
G92 E0 ;zero the extruded length
G1 F200 E3 ;extrude 3mm of feed stock
G92 E0 ;zero the extruded length again
G1 F9000
;Put printing message on LCD screen
M117 Printing...
G92 E0
G1 F900 E-4
;LAYER_COUNT:100
;LAYER:0
M107
G0 F8000 X86.342 Y114.734 Z0.2
;TYPE:SKIRT
G1 F900 E0
G1 F913.4 X86.9 Y114.391 E0.01906
G1 X87.813 Y113.923 E0.04892
G1 X88.457 Y113.657 E0.0692
G1 X89.841 Y113.216 E0.11147
G1 X90.693 Y113.039 E0.1368
G1 X92.244 Y112.88 E0.18217
G1 X92.825 Y112.861 E0.19909
G1 X93.145 Y112.884 E0.20843
G1 X94.726 Y113.061 E0.25472
G1 X95.458 Y113.21 E0.27646
G1 X96.432 Y113.499 E0.30603
G1 X96.969 Y113.699 E0.32271
G1 X97.89 Y114.115 E0.35212
G1 X98.383 Y114.378 E0.36838
G1 X99.153 Y114.857 E0.39477
G1 X99.719 Y115.278 E0.4153
G1 X100.992 Y116.403 E0.46474
G1 X101.4 Y116.817 E0.48166
G1 X101.61 Y117.082 E0.4915
G1 X102.416 Y118.189 E0.53135
G1 X102.76 Y118.749 E0.55048
G1 X103.228 Y119.662 E0.58033
G1 X103.494 Y120.306 E0.60061
G1 X103.935 Y121.69 E0.64289
G1 X104.111 Y122.535 E0.66801
G1 X104.27 Y124.061 E0.71266
G1 X104.291 Y124.642 E0.72958
G1 X104.268 Y124.962 E0.73891
G1 X104.091 Y126.568 E0.78594
G1 X103.941 Y127.307 E0.80788
G1 X103.652 Y128.281 E0.83745
G1 X103.452 Y128.818 E0.85412
G1 X103.036 Y129.739 E0.88354
G1 X102.774 Y130.23 E0.89973
G1 X102.296 Y130.999 E0.92608
G1 X101.881 Y131.559 E0.94637
G1 X100.79 Y132.8 E0.99446
G1 X100.244 Y133.319 E1.01638
G1 X99.584 Y133.843 E1.04091
G1 X99.158 Y134.14 E1.05602
G1 X98.262 Y134.687 E1.08657
G1 X97.765 Y134.947 E1.10289
G1 X96.898 Y135.329 E1.13047
G1 X96.251 Y135.554 E1.1504
G1 X94.83 Y135.921 E1.19311
G1 X94.044 Y136.046 E1.21628
G1 X92.721 Y136.131 E1.25486
G1 X91.927 Y136.108 E1.27797
G1 X90.523 Y135.933 E1.31915
G1 X89.844 Y135.79 E1.33935
G1 X88.87 Y135.501 E1.36891
G1 X88.332 Y135.301 E1.38562
G1 X87.407 Y134.883 E1.41516
G1 X86.914 Y134.619 E1.43143
G1 X86.148 Y134.142 E1.45769
G1 X85.583 Y133.722 E1.47818
G1 X84.309 Y132.596 E1.52767
G1 X83.901 Y132.182 E1.54458
G1 X83.691 Y131.916 E1.55444
G1 X82.886 Y130.81 E1.59426
G1 X82.542 Y130.251 E1.61336
G1 X82.073 Y129.336 E1.64328
G1 X81.807 Y128.691 E1.66359
G1 X81.367 Y127.309 E1.70579
G1 X81.19 Y126.458 E1.73109
G1 X81.031 Y124.907 E1.77647
G1 X81.012 Y124.326 E1.79338
G1 X81.035 Y124.006 E1.80272
G1 X81.212 Y122.425 E1.84902
G1 X81.361 Y121.693 E1.87076
G1 X81.65 Y120.719 E1.90033
G1 X81.85 Y120.182 E1.917
G1 X82.266 Y119.261 E1.94641
G1 X82.528 Y118.77 E1.96261
G1 X83.006 Y118.001 E1.98896
G1 X83.429 Y117.432 E2.00959
G1 X84.559 Y116.154 E2.05924
G1 X84.973 Y115.747 E2.07614
G1 X85.239 Y115.536 E2.08602
G1 X86.342 Y114.734 E2.12571
G0 F8000 X86.548 Y115.017
G1 F913.4 X87.059 Y114.703 E2.14316
G1 X87.972 Y114.235 E2.17302
G1 X88.564 Y113.991 E2.19165
G1 X89.948 Y113.55 E2.23393
G1 X90.729 Y113.387 E2.25715
G1 X92.28 Y113.228 E2.30252
G1 X93.106 Y113.232 E2.32656
G1 X94.687 Y113.409 E2.37286
G1 X95.358 Y113.545 E2.39278
G1 X96.332 Y113.834 E2.42235
G1 X96.825 Y114.018 E2.43767
G1 X97.746 Y114.434 E2.46708
G1 X98.198 Y114.675 E2.48198
G1 X98.968 Y115.154 E2.50838
G1 X99.487 Y115.54 E2.5272
G1 X100.76 Y116.665 E2.57664
G1 X101.149 Y117.063 E2.59284
G1 X101.327 Y117.288 E2.60119
G1 X102.133 Y118.395 E2.64104
G1 X102.448 Y118.908 E2.65856
G1 X102.916 Y119.821 E2.68842
G1 X103.16 Y120.413 E2.70705
G1 X103.601 Y121.797 E2.74932
G1 X103.763 Y122.571 E2.77234
G1 X103.922 Y124.097 E2.81699
G1 X103.92 Y124.924 E2.84106
G1 X103.743 Y126.53 E2.88808
G1 X103.606 Y127.207 E2.90818
G1 X103.317 Y128.181 E2.93775
G1 X103.133 Y128.674 E2.95306
G1 X102.717 Y129.595 E2.98247
G1 X102.477 Y130.046 E2.99734
G1 X101.999 Y130.815 E3.02369
G1 X101.618 Y131.328 E3.04229
G1 X100.527 Y132.569 E3.09038
G1 X100.026 Y133.045 E3.11049
G1 X99.366 Y133.569 E3.13501
G1 X98.976 Y133.841 E3.14885
G1 X98.08 Y134.388 E3.1794
G1 X97.623 Y134.627 E3.19441
G1 X96.756 Y135.009 E3.22198
G1 X96.163 Y135.215 E3.24025
G1 X94.742 Y135.582 E3.28297
G1 X94.021 Y135.697 E3.30421
G1 X92.698 Y135.782 E3.3428
G1 X91.971 Y135.76 E3.36396
G1 X90.567 Y135.585 E3.40514
G1 X89.944 Y135.455 E3.42366
G1 X88.97 Y135.166 E3.45323
G1 X88.476 Y134.982 E3.46857
G1 X87.551 Y134.564 E3.49811
G1 X87.099 Y134.322 E3.51303
G1 X86.333 Y133.845 E3.53929
G1 X85.815 Y133.459 E3.55809
G1 X84.541 Y132.333 E3.60758
G1 X84.151 Y131.936 E3.62377
G1 X83.974 Y131.71 E3.63213
G1 X83.169 Y130.604 E3.67194
G1 X82.854 Y130.092 E3.68943
G1 X82.385 Y129.177 E3.71936
G1 X82.141 Y128.585 E3.73799
G1 X81.701 Y127.203 E3.7802
G1 X81.538 Y126.422 E3.80342
G1 X81.379 Y124.871 E3.84879
G1 X81.383 Y124.045 E3.87283
G1 X81.56 Y122.464 E3.91913
G1 X81.696 Y121.793 E3.93906
G1 X81.985 Y120.819 E3.96862
G1 X82.169 Y120.326 E3.98394
G1 X82.585 Y119.405 E4.01335
G1 X82.825 Y118.954 E4.02822
G1 X83.303 Y118.185 E4.05457
G1 X83.691 Y117.664 E4.07347
G1 X84.821 Y116.386 E4.12312
G1 X85.219 Y115.997 E4.13932
G1 X85.445 Y115.819 E4.14769
G1 X86.548 Y115.017 E4.18738
G0 F8000 X86.754 Y115.3
G1 F913.4 X87.219 Y115.014 E4.20326
G1 X88.132 Y114.546 E4.23312
G1 X88.67 Y114.324 E4.25006
G1 X90.054 Y113.883 E4.29233
G1 X90.765 Y113.735 E4.31347
G1 X92.316 Y113.576 E4.35884
G1 X93.067 Y113.58 E4.3807
G1 X94.648 Y113.757 E4.427
G1 X95.259 Y113.881 E4.44514
G1 X96.233 Y114.17 E4.47471
G1 X96.681 Y114.337 E4.48863
G1 X97.602 Y114.753 E4.51804
G1 X98.013 Y114.972 E4.53159
G1 X98.783 Y115.451 E4.55798
G1 X99.255 Y115.803 E4.57512
G1 X100.528 Y116.928 E4.62456
G1 X101.044 Y117.494 E4.64685
G1 X101.85 Y118.601 E4.6867
G1 X102.137 Y119.068 E4.70265
G1 X102.605 Y119.981 E4.73251
G1 X102.827 Y120.519 E4.74945
G1 X103.268 Y121.903 E4.79172
G1 X103.415 Y122.608 E4.81268
G1 X103.574 Y124.134 E4.85733
G1 X103.572 Y124.885 E4.87919
G1 X103.395 Y126.491 E4.92621
G1 X103.27 Y127.108 E4.94453
G1 X102.981 Y128.082 E4.9741
G1 X102.814 Y128.53 E4.98801
G1 X102.398 Y129.451 E5.01742
G1 X102.18 Y129.861 E5.03094
G1 X101.702 Y130.63 E5.05729
G1 X101.355 Y131.096 E5.0742
G1 X100.264 Y132.337 E5.12228
G1 X99.809 Y132.771 E5.14058
G1 X99.149 Y133.295 E5.16511
G1 X98.794 Y133.543 E5.17771
G1 X97.898 Y134.09 E5.20826
G1 X97.482 Y134.307 E5.22192
G1 X96.615 Y134.689 E5.24949
G1 X96.075 Y134.876 E5.26612
G1 X94.654 Y135.243 E5.30883
G1 X93.999 Y135.348 E5.32814
G1 X92.676 Y135.433 E5.36672
G1 X92.014 Y135.413 E5.386
G1 X90.61 Y135.238 E5.42717
G1 X90.043 Y135.119 E5.44403
G1 X89.069 Y134.83 E5.4736
G1 X88.62 Y134.663 E5.48754
G1 X87.695 Y134.245 E5.51708
G1 X87.284 Y134.025 E5.53065
G1 X86.518 Y133.548 E5.55691
G1 X86.047 Y133.197 E5.57401
G1 X84.773 Y132.071 E5.62349
G1 X84.257 Y131.504 E5.6458
G1 X83.452 Y130.398 E5.68561
G1 X83.165 Y129.932 E5.70154
G1 X82.696 Y129.017 E5.73146
G1 X82.474 Y128.478 E5.74843
G1 X82.034 Y127.096 E5.79064
G1 X81.886 Y126.386 E5.81174
G1 X81.727 Y124.835 E5.85712
G1 X81.731 Y124.084 E5.87897
G1 X81.908 Y122.503 E5.92527
G1 X82.032 Y121.892 E5.94342
G1 X82.321 Y120.918 E5.97298
G1 X82.488 Y120.47 E5.9869
G1 X82.904 Y119.549 E6.01631
G1 X83.122 Y119.139 E6.02982
G1 X83.6 Y118.37 E6.05617
G1 X83.953 Y117.896 E6.07337
G1 X85.083 Y116.618 E6.12302
G1 X85.651 Y116.102 E6.14535
G1 X86.754 Y115.3 E6.18504
G0 F8000 X86.96 Y115.583
G1 F913.4 X87.379 Y115.326 E6.19935
G1 X88.292 Y114.858 E6.22921
G1 X88.776 Y114.658 E6.24445
G1 X90.16 Y114.217 E6.28672
G1 X90.8 Y114.084 E6.30574
G1 X92.351 Y113.925 E6.35112
G1 X93.028 Y113.928 E6.37082
G1 X94.609 Y114.105 E6.41712
G1 X95.159 Y114.216 E6.43345
G1 X96.133 Y114.505 E6.46302
G1 X96.537 Y114.655 E6.47556
G1 X97.458 Y115.071 E6.50497
G1 X97.828 Y115.269 E6.51718
G1 X98.598 Y115.748 E6.54357
G1 X99.024 Y116.065 E6.55903
G1 X100.297 Y117.19 E6.60847
G1 X100.761 Y117.7 E6.62853
G1 X101.567 Y118.807 E6.66838
G1 X101.825 Y119.228 E6.68275
G1 X102.293 Y120.141 E6.71261
G1 X102.493 Y120.625 E6.72785
G1 X102.934 Y122.009 E6.77013
G1 X103.067 Y122.644 E6.78901
G1 X103.226 Y124.17 E6.83366
G1 X103.224 Y124.847 E6.85336
G1 X103.047 Y126.453 E6.90038
G1 X102.935 Y127.008 E6.91686
G1 X102.646 Y127.982 E6.94643
G1 X102.496 Y128.386 E6.95897
G1 X102.08 Y129.307 E6.98838
G1 X101.883 Y129.676 E7.00055
G1 X101.405 Y130.445 E7.02691
G1 X101.093 Y130.865 E7.04213
G1 X100.002 Y132.106 E7.09022
G1 X99.591 Y132.497 E7.10673
G1 X98.931 Y133.021 E7.13126
G1 X98.611 Y133.244 E7.14261
G1 X97.715 Y133.791 E7.17316
G1 X97.341 Y133.986 E7.18543
G1 X96.474 Y134.368 E7.21301
G1 X95.988 Y134.537 E7.22798
G1 X94.567 Y134.904 E7.27069
G1 X93.977 Y134.998 E7.28808
G1 X92.654 Y135.083 E7.32666
G1 X92.057 Y135.066 E7.34404
G1 X90.653 Y134.891 E7.38522
G1 X90.143 Y134.784 E7.40038
G1 X89.169 Y134.495 E7.42995
G1 X88.765 Y134.344 E7.4425
G1 X87.84 Y133.926 E7.47204
G1 X87.469 Y133.728 E7.48428
G1 X86.703 Y133.251 E7.51054
G1 X86.278 Y132.935 E7.52596
G1 X85.004 Y131.809 E7.57544
G1 X84.54 Y131.298 E7.59553
G1 X83.735 Y130.192 E7.63534
G1 X83.477 Y129.772 E7.64968
G1 X83.008 Y128.857 E7.67961
G1 X82.808 Y128.372 E7.69487
G1 X82.368 Y126.99 E7.73708
G1 X82.235 Y126.351 E7.75608
G1 X82.076 Y124.8 E7.80145
G1 X82.079 Y124.123 E7.82116
G1 X82.256 Y122.542 E7.86745
G1 X82.367 Y121.992 E7.88378
G1 X82.656 Y121.018 E7.91335
G1 X82.806 Y120.614 E7.92589
G1 X83.222 Y119.693 E7.9553
G1 X83.419 Y119.324 E7.96748
G1 X83.897 Y118.555 E7.99383
G1 X84.215 Y118.128 E8.00932
G1 X85.345 Y116.85 E8.05897
G1 X85.857 Y116.385 E8.0791
G1 X86.96 Y115.583 E8.11879
G1 F900 E4.11879
G1 F300 Z0.4
;MESH:Universal_Filament_Filter_smaller_filament-exit-hole_By_CT3D.stl
G0 F8000 X89.892 Y121.04 Z0.4
;TYPE:WALL-INNER
G1 F300 Z0.2
G1 F900 E8.11879
G1 F913.4 X89.556 Y121.341 E8.13191
G1 X89.249 Y121.67 E8.14501
G1 X88.979 Y122.031 E8.15813
G1 X88.749 Y122.415 E8.17116
G1 X88.558 Y122.82 E8.18419
G1 X88.411 Y123.237 E8.19706
G1 X88.309 Y123.654 E8.20955
G1 X88.247 Y124.072 E8.22185
G1 X88.228 Y124.496 E8.2342
G1 X88.243 Y124.869 E8.24506
G1 X88.298 Y125.292 E8.25748
G1 X88.393 Y125.701 E8.2697
G1 X88.53 Y126.11 E8.28225
G1 X88.709 Y126.507 E8.29492
G1 X88.928 Y126.89 E8.30776
G1 X89.191 Y127.259 E8.32095
G1 X89.492 Y127.595 E8.33408
G1 X89.821 Y127.902 E8.34718
G1 X90.182 Y128.172 E8.36029
G1 X90.566 Y128.402 E8.37332
G1 X90.971 Y128.593 E8.38635
G1 X91.388 Y128.74 E8.39922
G1 X91.804 Y128.842 E8.41169
G1 X92.225 Y128.906 E8.42408
G1 X92.652 Y128.923 E8.43652
G1 X93.02 Y128.908 E8.44723
G1 X93.443 Y128.853 E8.45965
G1 X93.852 Y128.758 E8.47187
G1 X94.261 Y128.621 E8.48442
G1 X94.658 Y128.442 E8.4971
G1 X95.041 Y128.223 E8.50994
G1 X95.41 Y127.96 E8.52312
G1 X95.746 Y127.659 E8.53625
G1 X96.053 Y127.33 E8.54935
G1 X96.323 Y126.969 E8.56247
G1 X96.553 Y126.585 E8.57549
G1 X96.744 Y126.18 E8.58852
G1 X96.891 Y125.763 E8.60139
G1 X96.993 Y125.346 E8.61389
G1 X97.055 Y124.928 E8.62618
G1 X97.074 Y124.502 E8.63859
G1 X97.059 Y124.131 E8.6494
G1 X97.004 Y123.708 E8.66181
G1 X96.909 Y123.299 E8.67403
G1 X96.772 Y122.89 E8.68659
G1 X96.593 Y122.493 E8.69926
G1 X96.374 Y122.11 E8.7121
G1 X96.111 Y121.741 E8.72529
G1 X95.81 Y121.405 E8.73842
G1 X95.481 Y121.098 E8.75151
G1 X95.12 Y120.828 E8.76463
G1 X94.736 Y120.598 E8.77766
G1 X94.331 Y120.407 E8.79069
G1 X93.914 Y120.26 E8.80356
G1 X93.497 Y120.158 E8.81605
G1 X93.079 Y120.096 E8.82835
G1 X92.655 Y120.077 E8.8407
G1 X92.282 Y120.092 E8.85156
G1 X91.859 Y120.147 E8.86398
G1 X91.45 Y120.242 E8.8762
G1 X91.041 Y120.379 E8.88875
G1 X90.644 Y120.558 E8.90143
G1 X90.261 Y120.777 E8.91427
G1 X89.892 Y121.04 E8.92745
G1 F900 E4.92745
G1 F300 Z0.4
G0 F8000 X92.988 Y117.956 Z0.4
G1 F300 Z0.2
G1 F900 E8.92745
G1 F913.4 X93.411 Y117.992 E8.93981
G1 X93.821 Y118.053 E8.95187
G1 X94.231 Y118.14 E8.96407
G1 X94.635 Y118.254 E8.97629
G1 X95.017 Y118.39 E8.98809
G1 X95.451 Y118.576 E9.00183
G1 X95.81 Y118.76 E9.01357
G1 X96.189 Y118.985 E9.02639
G1 X96.57 Y119.248 E9.03987
G1 X96.901 Y119.513 E9.05221
G1 X97.229 Y119.812 E9.06512
G1 X97.542 Y120.139 E9.0783
G1 X97.845 Y120.506 E9.09215
G1 X98.081 Y120.832 E9.10386
G1 X98.337 Y121.242 E9.11793
G1 X98.522 Y121.587 E9.12932
G1 X98.708 Y121.999 E9.14248
G1 X98.86 Y122.405 E9.15509
G1 X98.995 Y122.861 E9.16893
G1 X99.083 Y123.248 E9.18048
G1 X99.15 Y123.654 E9.19246
G1 X99.189 Y124.042 E9.20381
G1 X99.203 Y124.515 E9.21758
G1 X99.195 Y124.838 E9.22698
G1 X99.16 Y125.261 E9.23933
G1 X99.101 Y125.653 E9.25087
G1 X99.009 Y126.088 E9.26381
G1 X98.899 Y126.479 E9.27563
G1 X98.763 Y126.862 E9.28746
G1 X98.58 Y127.289 E9.30098
G1 X98.391 Y127.659 E9.31307
G1 X98.166 Y128.038 E9.3259
G1 X97.904 Y128.417 E9.33931
G1 X97.642 Y128.745 E9.35152
G1 X97.334 Y129.082 E9.36481
G1 X97.012 Y129.392 E9.37782
G1 X96.649 Y129.691 E9.39151
G1 X96.319 Y129.93 E9.40336
G1 X95.933 Y130.171 E9.41661
G1 X95.538 Y130.382 E9.42964
G1 X95.136 Y130.563 E9.44247
G1 X94.748 Y130.708 E9.45453
G1 X94.299 Y130.841 E9.46815
G1 X93.896 Y130.933 E9.48018
G1 X93.487 Y131 E9.49225
G1 X93.098 Y131.038 E9.50362
G1 X92.644 Y131.052 E9.51684
G1 X92.314 Y131.044 E9.52645
G1 X91.891 Y131.008 E9.5388
G1 X91.481 Y130.947 E9.55086
G1 X91.071 Y130.86 E9.56306
G1 X90.667 Y130.746 E9.57528
G1 X90.285 Y130.61 E9.58708
G1 X89.851 Y130.424 E9.60082
G1 X89.492 Y130.24 E9.61256
G1 X89.113 Y130.015 E9.62539
G1 X88.732 Y129.752 E9.63886
G1 X88.401 Y129.487 E9.6512
G1 X88.07 Y129.185 E9.66424
G1 X87.76 Y128.861 E9.67729
G1 X87.457 Y128.494 E9.69114
G1 X87.221 Y128.168 E9.70285
G1 X86.98 Y127.782 E9.7161
G1 X86.766 Y127.382 E9.7293
G1 X86.588 Y126.985 E9.74196
G1 X86.442 Y126.594 E9.75411
G1 X86.307 Y126.139 E9.76792
G1 X86.219 Y125.748 E9.77958
G1 X86.151 Y125.335 E9.79177
G1 X86.113 Y124.947 E9.80311
G1 X86.099 Y124.483 E9.81662
G1 X86.107 Y124.161 E9.826
G1 X86.143 Y123.731 E9.83855
G1 X86.201 Y123.347 E9.84986
G1 X86.293 Y122.912 E9.86279
G1 X86.405 Y122.515 E9.8748
G1 X86.539 Y122.138 E9.88644
G1 X86.724 Y121.706 E9.90012
G1 X86.911 Y121.34 E9.91208
G1 X87.136 Y120.962 E9.92488
G1 X87.399 Y120.581 E9.93836
G1 X87.664 Y120.25 E9.9507
G1 X87.959 Y119.926 E9.96345
G1 X88.29 Y119.608 E9.97681
G1 X88.653 Y119.309 E9.99049
G1 X88.983 Y119.07 E10.00235
G1 X89.369 Y118.829 E10.0156
G1 X89.764 Y118.618 E10.02863
G1 X90.166 Y118.437 E10.04146
G1 X90.554 Y118.292 E10.05351
G1 X91.003 Y118.159 E10.06714
G1 X91.407 Y118.067 E10.0792
G1 X91.816 Y118 E10.09126
G1 X92.204 Y117.962 E10.10261
G1 X92.659 Y117.948 E10.11586
G1 X92.988 Y117.956 E10.12543
G0 F8000 X93.01 Y117.606
G1 F913.4 X93.445 Y117.643 E10.13814
G1 X93.88 Y117.708 E10.15094
G1 X94.321 Y117.802 E10.16406
G1 X94.741 Y117.92 E10.17676
G1 X95.148 Y118.065 E10.18933
G1 X95.592 Y118.255 E10.20339
G1 X95.986 Y118.457 E10.21627
G1 X96.376 Y118.689 E10.22948
G1 X96.769 Y118.96 E10.24337
G1 X97.132 Y119.25 E10.25689
G1 X97.478 Y119.566 E10.27053
G1 X97.805 Y119.907 E10.28428
G1 X98.115 Y120.283 E10.29846
G1 X98.375 Y120.642 E10.31136
G1 X98.634 Y121.057 E10.3256
G1 X98.841 Y121.443 E10.33835
G1 X99.036 Y121.876 E10.35217
G1 X99.192 Y122.293 E10.36512
G1 X99.331 Y122.762 E10.37936
G1 X99.426 Y123.179 E10.39181
G1 X99.498 Y123.618 E10.40475
G1 X99.539 Y124.032 E10.41686
G1 X99.553 Y124.505 E10.43063
G1 X99.545 Y124.859 E10.44094
G1 X99.508 Y125.297 E10.45373
G1 X99.444 Y125.725 E10.46632
G1 X99.351 Y126.167 E10.47947
G1 X99.233 Y126.585 E10.49211
G1 X99.088 Y126.993 E10.50471
G1 X98.898 Y127.436 E10.51874
G1 X98.697 Y127.83 E10.53161
G1 X98.462 Y128.225 E10.54499
G1 X98.191 Y128.618 E10.55888
G1 X97.901 Y128.981 E10.5724
G1 X97.588 Y129.324 E10.58591
G1 X97.244 Y129.654 E10.59979
G1 X96.872 Y129.961 E10.61382
G1 X96.509 Y130.224 E10.62687
G1 X96.103 Y130.477 E10.64079
G1 X95.697 Y130.694 E10.65419
G1 X95.27 Y130.887 E10.66783
G1 X94.855 Y131.042 E10.68072
G1 X94.395 Y131.178 E10.69468
G1 X93.965 Y131.276 E10.70751
G1 X93.533 Y131.347 E10.72026
G1 X93.113 Y131.388 E10.73254
G1 X92.647 Y131.402 E10.7461
G1 X92.292 Y131.394 E10.75644
G1 X91.857 Y131.357 E10.76914
