;FLAVOR:Marlin
;TIME:4789
;Filament used: 4.61907m
;Layer height: 0.2
;Generated with Cura_SteamEngine 3.6.0
M140 S60
M105
M190 S60
M104 S210
M105
M109 S210
M82 ;absolute extrusion mode
G21 ;metric values
G90 ;absolute positioning
M82 ;set extruder to absolute mode
M107 ;start with the fan off
G28 X0 Y0 ;move X/Y to min endstops
G28 Z0 ;move Z to min endstops
G1 Z15.0 F9000 ;move the platform down 15mm
G92 E0 ;zero the extruded length
G1 F200 E3 ;extrude 3mm of feed stock
G92 E0 ;zero the extruded length again
G1 F9000
;Put printing message on LCD screen
M117 Printing...
G92 E0
G1 F1200 E-4
;LAYER_COUNT:75
;LAYER:0
M107
G0 F3000 X46.629 Y81.214 Z0.3
;TYPE:SKIRT
G1 F1200 E0
G1 F1800 X47.145 Y80.975 E0.02128
G1 X47.69 Y80.81 E0.04258
G1 X48.252 Y80.724 E0.06386
G1 X48.586 Y80.71 E0.07637
G1 X51.265 Y80.71 E0.17661
G1 X51.396 Y80.712 E0.18151
G1 X55.34 Y80.84 E0.32916
G1 X76.135 Y80.85 E1.10726
G1 X81.605 Y80.695 E1.31202
G1 X87.012 Y80.236 E1.51507
G1 X92.373 Y79.471 E1.71769
G1 X97.701 Y78.404 E1.92101
G1 X100.326 Y77.76 E2.02215
G1 X105.551 Y76.242 E2.22574
G1 X110.678 Y74.432 E2.42918
G1 X115.67 Y72.345 E2.63164
G1 X120.569 Y69.963 E2.83547
G1 X124.183 Y67.98 E2.98971
G1 X155.162 Y50.124 E4.32764
G1 X155.673 Y49.875 E4.34891
G1 X156.002 Y49.759 E4.36196
G1 X157.159 Y49.406 E4.40723
G1 X157.714 Y49.279 E4.42853
G1 X158.296 Y49.23 E4.45038
G1 X159.649 Y49.215 E4.50101
G1 X160.217 Y49.249 E4.5223
G1 X160.612 Y49.32 E4.53732
G1 X161.557 Y49.54 E4.57363
G1 X162.101 Y49.708 E4.59493
G1 X162.427 Y49.851 E4.60825
G1 X163.415 Y50.337 E4.64945
G1 X164.093 Y50.758 E4.67931
G1 X164.721 Y51.24 E4.70893
G1 X165.301 Y51.784 E4.73869
G1 X165.93 Y52.502 E4.77441
G1 X166.274 Y52.955 E4.79569
G1 X166.453 Y53.256 E4.80879
G1 X166.968 Y54.216 E4.84956
G1 X167.201 Y54.735 E4.87084
G1 X167.29 Y55.009 E4.88162
G1 X167.551 Y55.914 E4.91687
G1 X167.67 Y56.47 E4.93814
G1 X167.702 Y56.787 E4.95006
G1 X167.79 Y58.217 E5.00367
G1 X167.798 Y58.468 E5.01307
G1 X167.764 Y127.617 E7.60046
G1 X167.715 Y128.243 E7.62396
G1 X167.627 Y128.804 E7.6452
G1 X167.511 Y129.32 E7.66499
G1 X167.352 Y129.86 E7.68606
G1 X167.104 Y130.497 E7.71163
G1 X166.699 Y131.324 E7.74609
G1 X166.414 Y131.816 E7.76737
G1 X166.226 Y132.071 E7.77922
G1 X165.491 Y132.991 E7.82328
G1 X164.962 Y133.539 E7.85178
G1 X164.516 Y133.921 E7.87375
G1 X163.833 Y134.394 E7.90484
G1 X162.671 Y135.033 E7.95446
G1 X162.154 Y135.271 E7.97576
G1 X161.791 Y135.39 E7.99005
G1 X160.931 Y135.626 E8.02342
G1 X160.373 Y135.737 E8.04471
G1 X159.904 Y135.77 E8.0623
G1 X158.551 Y135.785 E8.11293
G1 X157.983 Y135.751 E8.13422
G1 X157.588 Y135.68 E8.14924
G1 X156.643 Y135.46 E8.18554
G1 X155.892 Y135.205 E8.21522
G1 X155.125 Y134.858 E8.24672
G1 X154.769 Y134.676 E8.26168
G1 X127.655 Y119.025 E9.43311
G1 X122.849 Y116.428 E9.63751
G1 X117.946 Y114.127 E9.84017
G1 X112.848 Y112.076 E10.04579
G1 X110.375 Y111.204 E10.1439
G1 X105.164 Y109.607 E10.34784
G1 X99.861 Y108.305 E10.55216
G1 X97.204 Y107.769 E10.65358
G1 X94.582 Y107.32 E10.75312
G1 X89.174 Y106.626 E10.95713
G1 X83.736 Y106.239 E11.16112
G1 X79.609 Y106.15 E11.31558
G1 X53.837 Y106.19 E12.27991
G1 X51.097 Y106.297 E12.38251
G1 X50.922 Y106.3 E12.38906
G1 X48.57 Y106.29 E12.47707
G1 X48.003 Y106.248 E12.49834
G1 X47.447 Y106.126 E12.51964
G1 X46.914 Y105.928 E12.54092
G1 X46.413 Y105.657 E12.56223
G1 X45.956 Y105.319 E12.5835
G1 X45.738 Y105.118 E12.59459
G1 X45.541 Y104.923 E12.60496
G1 X45.166 Y104.496 E12.62623
G1 X44.854 Y104.02 E12.64752
G1 X44.612 Y103.505 E12.66882
G1 X44.445 Y102.961 E12.69011
G1 X44.356 Y102.399 E12.7114
G1 X44.34 Y102.046 E12.72462
G1 X44.336 Y84.961 E13.3639
G1 X44.376 Y84.393 E13.38521
G1 X44.495 Y83.837 E13.40648
G1 X44.69 Y83.303 E13.42776
G1 X44.959 Y82.802 E13.44903
G1 X45.295 Y82.343 E13.47032
G1 X45.522 Y82.096 E13.48287
G1 X45.722 Y81.896 E13.49345
G1 X46.152 Y81.523 E13.51475
G1 X46.629 Y81.214 E13.53602
G0 F3000 X46.811 Y81.457
G1 F1800 X47.31 Y81.234 E13.55647
G1 X47.837 Y81.086 E13.57695
G1 X48.586 Y81.01 E13.60512
G1 X51.265 Y81.01 E13.70536
G1 X51.387 Y81.012 E13.70993
G1 X55.331 Y81.14 E13.85758
G1 X76.144 Y81.15 E14.63636
G1 X81.603 Y80.996 E14.8407
G1 X87.062 Y80.531 E15.0457
G1 X92.422 Y79.767 E15.24829
G1 X97.786 Y78.692 E15.45299
G1 X100.387 Y78.055 E15.55319
G1 X105.645 Y76.527 E15.75807
G1 X110.767 Y74.719 E15.96131
G1 X115.797 Y72.616 E16.16531
G1 X120.727 Y70.219 E16.37043
G1 X124.303 Y68.256 E16.52307
G1 X155.311 Y50.384 E17.86223
G1 X155.804 Y50.146 E17.88272
G1 X156.09 Y50.046 E17.89405
G1 X157.247 Y49.693 E17.93932
G1 X157.78 Y49.572 E17.95977
G1 X158.299 Y49.53 E17.97925
G1 X159.652 Y49.515 E18.02988
G1 X160.199 Y49.549 E18.05039
G1 X160.544 Y49.613 E18.06352
G1 X161.489 Y49.833 E18.09982
G1 X162.012 Y49.995 E18.12031
G1 X162.294 Y50.12 E18.13185
G1 X163.282 Y50.606 E18.17305
G1 X163.91 Y50.996 E18.20071
G1 X164.538 Y51.478 E18.23033
G1 X165.076 Y51.982 E18.25792
G1 X165.705 Y52.7 E18.29363
G1 X166.034 Y53.137 E18.3141
G1 X166.189 Y53.398 E18.32546
G1 X166.704 Y54.358 E18.36622
G1 X167.002 Y55.092 E18.39586
G1 X167.263 Y55.997 E18.43111
G1 X167.376 Y56.532 E18.45157
G1 X167.403 Y56.806 E18.46187
G1 X167.491 Y58.236 E18.51548
G1 X167.498 Y58.468 E18.52416
G1 X167.464 Y127.617 E21.11156
G1 X167.419 Y128.196 E21.13329
G1 X167.331 Y128.757 E21.15453
G1 X167.223 Y129.235 E21.17287
G1 X167.064 Y129.775 E21.19393
G1 X166.835 Y130.365 E21.21762
G1 X166.43 Y131.192 E21.25207
G1 X165.992 Y131.884 E21.28271
G1 X165.257 Y132.804 E21.32678
G1 X164.766 Y133.311 E21.35318
G1 X164.32 Y133.693 E21.37516
G1 X163.688 Y134.131 E21.40393
G1 X162.526 Y134.77 E21.45355
G1 X162.028 Y134.998 E21.47404
G1 X161.711 Y135.1 E21.4865
G1 X160.851 Y135.336 E21.51987
G1 X160.314 Y135.442 E21.54035
G1 X159.901 Y135.47 E21.55584
G1 X158.548 Y135.485 E21.60647
G1 X158.001 Y135.451 E21.62698
G1 X157.656 Y135.387 E21.64011
G1 X156.711 Y135.167 E21.67641
G1 X156.015 Y134.932 E21.7039
G1 X155.248 Y134.585 E21.7354
G1 X154.919 Y134.416 E21.74924
G1 X127.814 Y118.77 E22.92029
G1 X122.991 Y116.164 E23.12541
G1 X118.059 Y113.85 E23.32926
G1 X112.964 Y111.8 E23.53475
G1 X110.453 Y110.914 E23.63439
G1 X105.245 Y109.319 E23.83819
G1 X99.924 Y108.012 E24.04321
G1 X97.248 Y107.472 E24.14536
G1 X94.619 Y107.022 E24.24516
G1 X89.218 Y106.329 E24.44891
G1 X83.743 Y105.939 E24.65429
G1 X79.614 Y105.85 E24.80882
G1 X53.825 Y105.89 E25.77379
G1 X51.085 Y105.997 E25.87639
G1 X50.923 Y106 E25.88245
G1 X48.571 Y105.99 E25.97046
G1 X48.025 Y105.948 E25.99095
G1 X47.492 Y105.826 E26.01141
G1 X46.981 Y105.629 E26.0319
G1 X46.505 Y105.359 E26.05238
G1 X45.949 Y104.905 E26.07924
G1 X45.752 Y104.71 E26.08961
G1 X45.392 Y104.298 E26.11008
G1 X45.096 Y103.837 E26.13058
G1 X44.87 Y103.339 E26.15104
G1 X44.719 Y102.813 E26.17152
G1 X44.64 Y102.046 E26.20037
G1 X44.636 Y84.961 E26.83965
G1 X44.676 Y84.415 E26.86014
G1 X44.795 Y83.881 E26.88061
G1 X44.99 Y83.369 E26.90111
G1 X45.258 Y82.892 E26.92158
G1 X45.734 Y82.308 E26.94977
G1 X45.934 Y82.108 E26.96035
G1 X46.349 Y81.751 E26.98084
G1 X46.811 Y81.457 E27.00133
G0 F3000 X46.991 Y81.701
G1 F1800 X47.473 Y81.494 E27.02096
G1 X47.981 Y81.363 E27.04059
G1 X48.586 Y81.31 E27.06331
G1 X51.265 Y81.31 E27.16355
G1 X51.377 Y81.312 E27.16774
G1 X55.321 Y81.44 E27.3154
G1 X76.117 Y81.45 E28.09353
G1 X81.638 Y81.294 E28.3002
G1 X87.093 Y80.83 E28.50505
G1 X92.472 Y80.063 E28.70835
G1 X97.844 Y78.987 E28.91335
G1 X100.468 Y78.344 E29.01444
G1 X105.744 Y76.811 E29.22002
G1 X110.878 Y74.998 E29.42375
G1 X115.924 Y72.888 E29.6284
G1 X120.852 Y70.492 E29.83344
G1 X124.463 Y68.51 E29.98757
G1 X155.461 Y50.644 E31.3263
G1 X156.177 Y50.333 E31.35551
G1 X157.334 Y49.98 E31.40077
G1 X157.847 Y49.866 E31.42043
G1 X158.303 Y49.83 E31.43755
G1 X159.656 Y49.815 E31.48818
G1 X160.18 Y49.849 E31.50783
G1 X160.476 Y49.905 E31.5191
G1 X161.421 Y50.125 E31.5554
G1 X162.162 Y50.389 E31.58484
G1 X163.15 Y50.875 E31.62604
G1 X163.728 Y51.234 E31.6515
G1 X164.356 Y51.716 E31.68112
G1 X164.85 Y52.18 E31.70648
G1 X165.479 Y52.898 E31.74219
G1 X165.924 Y53.54 E31.77142
G1 X166.439 Y54.5 E31.81219
G1 X166.714 Y55.175 E31.83946
G1 X166.975 Y56.08 E31.8747
G1 X167.103 Y56.824 E31.90295
G1 X167.191 Y58.254 E31.95656
G1 X167.198 Y58.468 E31.96457
G1 X167.164 Y127.617 E34.55196
G1 X167.122 Y128.15 E34.57197
G1 X167.034 Y128.711 E34.59322
G1 X166.936 Y129.15 E34.61005
G1 X166.777 Y129.69 E34.63111
G1 X166.565 Y130.233 E34.65292
G1 X166.16 Y131.06 E34.68738
G1 X165.757 Y131.696 E34.71555
G1 X165.022 Y132.616 E34.75961
G1 X164.571 Y133.083 E34.7839
G1 X164.125 Y133.465 E34.80588
G1 X163.543 Y133.868 E34.83237
G1 X162.381 Y134.507 E34.88199
G1 X161.903 Y134.724 E34.90163
G1 X161.632 Y134.811 E34.91228
G1 X160.772 Y135.047 E34.94565
G1 X160.257 Y135.147 E34.96528
G1 X159.897 Y135.17 E34.97877
G1 X158.544 Y135.185 E35.0294
G1 X158.02 Y135.151 E35.04905
G1 X157.724 Y135.095 E35.06032
G1 X156.779 Y134.875 E35.09663
G1 X156.139 Y134.658 E35.12192
G1 X155.372 Y134.311 E35.15342
G1 X155.069 Y134.156 E35.16615
G1 X127.958 Y118.507 E36.33745
G1 X123.127 Y115.896 E36.54292
G1 X118.186 Y113.578 E36.74714
G1 X113.061 Y111.516 E36.95384
G1 X110.568 Y110.636 E37.05277
G1 X105.303 Y109.023 E37.25881
G1 X100 Y107.721 E37.46313
G1 X97.326 Y107.181 E37.5652
G1 X94.662 Y106.726 E37.66633
G1 X89.224 Y106.028 E37.87147
G1 X83.772 Y105.639 E38.07599
G1 X79.621 Y105.55 E38.23135
G1 X53.813 Y105.59 E39.19702
G1 X51.074 Y105.697 E39.29959
G1 X50.924 Y105.7 E39.3052
G1 X48.572 Y105.69 E39.39321
G1 X48.049 Y105.648 E39.41284
G1 X47.538 Y105.527 E39.43249
G1 X47.052 Y105.33 E39.45211
G1 X46.601 Y105.061 E39.47176
G1 X46.16 Y104.692 E39.49328
G1 X45.963 Y104.497 E39.50365
G1 X45.619 Y104.1 E39.52331
G1 X45.339 Y103.656 E39.54295
G1 X45.13 Y103.175 E39.56257
G1 X44.997 Y102.667 E39.58222
G1 X44.94 Y102.046 E39.60555
G1 X44.936 Y84.961 E40.24483
G1 X44.976 Y84.437 E40.2645
G1 X45.095 Y83.926 E40.28413
G1 X45.29 Y83.439 E40.30376
G1 X45.556 Y82.986 E40.32342
G1 X45.946 Y82.52 E40.34615
G1 X46.146 Y82.32 E40.35674
G1 X46.545 Y81.979 E40.37638
G1 X46.991 Y81.701 E40.39604
G0 F3000 X47.169 Y81.947
G1 F1800 X47.634 Y81.757 E40.41484
G1 X48.122 Y81.644 E40.43358
G1 X48.586 Y81.61 E40.45099
G1 X51.265 Y81.61 E40.55123
G1 X51.367 Y81.612 E40.55505
G1 X55.311 Y81.74 E40.7027
G1 X76.126 Y81.75 E41.48155
G1 X81.654 Y81.594 E41.68847
G1 X87.128 Y81.128 E41.89404
G1 X92.518 Y80.36 E42.09776
G1 X97.924 Y79.276 E42.30406
G1 X100.535 Y78.637 E42.40464
G1 X105.833 Y77.097 E42.61109
G1 X110.994 Y75.275 E42.81588
G1 X116.044 Y73.163 E43.0207
G1 X120.985 Y70.761 E43.22627
G1 X124.624 Y68.764 E43.38159
G1 X155.611 Y50.904 E44.71985
G1 X156.265 Y50.62 E44.74653
G1 X157.422 Y50.267 E44.79179
G1 X157.912 Y50.159 E44.81057
G1 X158.306 Y50.13 E44.82535
G1 X159.659 Y50.115 E44.87598
G1 X160.159 Y50.15 E44.89473
G1 X160.408 Y50.197 E44.90421
G1 X161.353 Y50.417 E44.94052
G1 X162.029 Y50.658 E44.96737
G1 X163.017 Y51.144 E45.00857
G1 X163.545 Y51.472 E45.03183
G1 X164.173 Y51.954 E45.06145
G1 X164.624 Y52.377 E45.08459
G1 X165.253 Y53.095 E45.12031
G1 X165.66 Y53.682 E45.14703
G1 X166.175 Y54.642 E45.1878
G1 X166.426 Y55.258 E45.21269
G1 X166.687 Y56.163 E45.24793
G1 X166.804 Y56.843 E45.27375
G1 X166.892 Y58.273 E45.32736
G1 X166.898 Y58.468 E45.33466
G1 X166.864 Y127.617 E47.92205
G1 X166.826 Y128.103 E47.94029
G1 X166.738 Y128.664 E47.96154
G1 X166.648 Y129.066 E47.97695
G1 X166.489 Y129.606 E47.99801
G1 X166.296 Y130.101 E48.01789
G1 X165.891 Y130.928 E48.05235
G1 X165.523 Y131.509 E48.07808
G1 X164.788 Y132.429 E48.12214
G1 X164.376 Y132.855 E48.14432
G1 X163.93 Y133.237 E48.16629
G1 X163.399 Y133.605 E48.19047
G1 X162.237 Y134.244 E48.24009
G1 X161.553 Y134.522 E48.26771
G1 X160.693 Y134.758 E48.30108
G1 X160.2 Y134.852 E48.31986
G1 X159.894 Y134.87 E48.33133
G1 X158.541 Y134.885 E48.38196
G1 X158.041 Y134.85 E48.40071
G1 X157.792 Y134.803 E48.4102
G1 X156.847 Y134.583 E48.4465
G1 X156.263 Y134.385 E48.46958
G1 X155.496 Y134.038 E48.50107
G1 X155.219 Y133.896 E48.51272
G1 X128.117 Y118.252 E49.68363
G1 X123.263 Y115.629 E49.89008
G1 X118.291 Y113.296 E50.09558
G1 X113.185 Y111.241 E50.30153
G1 X110.653 Y110.349 E50.40198
G1 X105.39 Y108.736 E50.60795
G1 X100.063 Y107.428 E50.8132
G1 X97.364 Y106.883 E50.91622
G1 X94.705 Y106.428 E51.01716
G1 X89.265 Y105.73 E51.22238
G1 X83.779 Y105.339 E51.42818
G1 X79.626 Y105.25 E51.58361
G1 X53.828 Y105.29 E52.54891
G1 X51.062 Y105.398 E52.65249
G1 X50.926 Y105.4 E52.65758
G1 X48.574 Y105.39 E52.74558
G1 X48.074 Y105.348 E52.76436
G1 X47.587 Y105.227 E52.78313
G1 X47.125 Y105.03 E52.80193
G1 X46.701 Y104.763 E52.82068
G1 X46.371 Y104.479 E52.83697
G1 X46.174 Y104.284 E52.84734
G1 X45.847 Y103.904 E52.8661
G1 X45.584 Y103.476 E52.88489
G1 X45.392 Y103.013 E52.90365
G1 X45.277 Y102.525 E52.92241
G1 X45.24 Y102.046 E52.94039
G1 X45.236 Y84.961 E53.57967
G1 X45.276 Y84.461 E53.59843
G1 X45.395 Y83.973 E53.61723
G1 X45.589 Y83.511 E53.63598
G1 X45.854 Y83.085 E53.65475
G1 X46.159 Y82.733 E53.67218
G1 X46.359 Y82.533 E53.68276
G1 X46.74 Y82.207 E53.70152
G1 X47.169 Y81.947 E53.72029
G1 F1200 E49.72029
G1 F300 Z0.6
G0 F3000 X48.643 Y84.9 Z0.6
;TYPE:SUPPORT
G1 F300 Z0.3
G1 F1200 E53.72029
G1 F1800 X50.961 Y84.9 E53.80703
G1 X50.885 Y84.976 E53.81105
G1 X50.886 Y87.824 E53.91762
G1 X51.062 Y88 E53.92693
G1 X51.119 Y88 E53.92906
G1 X51.119 Y88.114 E53.93333
G1 X51.705 Y88.7 E53.96434
G1 X55.373 Y88.7 E54.10158
G1 X55.373 Y90.2 E54.15771
G1 X51.704 Y90.2 E54.295
G1 X51.118 Y90.786 E54.32601
G1 X51.118 Y90.9 E54.33027
G1 X51.061 Y90.9 E54.3324
G1 X50.885 Y91.076 E54.34172
G1 X50.886 Y93.924 E54.44828
G1 X51.062 Y94.1 E54.4576
G1 X51.119 Y94.1 E54.45973
G1 X51.119 Y94.214 E54.46399
G1 X51.705 Y94.8 E54.495
G1 X55.373 Y94.8 E54.63225
G1 X55.373 Y96.3 E54.68838
G1 X51.704 Y96.3 E54.82566
G1 X51.118 Y96.886 E54.85667
G1 X51.118 Y97 E54.86094
G1 X51.061 Y97 E54.86307
G1 X50.885 Y97.176 E54.87238
G1 X50.886 Y102.024 E55.05379
G1 X50.962 Y102.1 E55.05781
G1 X48.643 Y102.1 E55.14458
G1 X48.526 Y101.983 E55.15077
G1 X48.526 Y97.217 E55.3291
G1 X49.982 Y95.761 E55.40615
G1 X49.982 Y95.339 E55.42194
G1 X48.526 Y93.883 E55.49899
G1 X48.526 Y91.117 E55.60248
G1 X49.982 Y89.661 E55.67953
G1 X49.982 Y89.239 E55.69532
G1 X48.526 Y87.783 E55.77237
G1 X48.526 Y85.017 E55.87586
G1 X48.643 Y84.9 E55.88205
G0 F3000 X48.645 Y85.2
G1 F1800 X50.765 Y85.2 E55.96138
G0 F3000 X50.4 Y85.02
G1 F1800 X50.4 Y101.98 E56.59598
G0 F3000 X50.765 Y101.4
G1 F1800 X48.645 Y101.4 E56.67531
G0 F3000 X48.645 Y100.8
G1 F1800 X50.765 Y100.8 E56.75463
G0 F3000 X50.765 Y100.2
G1 F1800 X48.645 Y100.2 E56.83396
G0 F3000 X49.2 Y101.98
G1 F1800 X49.2 Y96.713 E57.03104
G0 F3000 X49.312 Y96.6
G1 F1800 X51.233 Y96.6 E57.10292
G0 F3000 X51 Y96.834
G1 F1800 X51 Y94.265 E57.19904
G0 F3000 X50.991 Y94.2
G1 F1800 X49.012 Y94.2 E57.27309
G0 F3000 X49.2 Y94.387
G1 F1800 X49.2 Y90.613 E57.41431
G0 F3000 X49.212 Y90.6
G1 F1800 X51.133 Y90.6 E57.48619
G0 F3000 X51 Y90.734
G1 F1800 X51 Y88.165 E57.58231
G0 F3000 X51.034 Y88.2
G1 F1800 X49.112 Y88.2 E57.65423
G0 F3000 X49.2 Y88.287
G1 F1800 X49.2 Y85.02 E57.77647
G0 F3000 X49.8 Y85.02
G1 F1800 X49.8 Y88.887 E57.92117
G0 F3000 X49.712 Y88.8
G1 F1800 X51.634 Y88.8 E57.99308
G0 F3000 X51.6 Y88.765
G1 F1800 X51.6 Y90.134 E58.04431
G0 F3000 X50.765 Y91.2
G1 F1800 X48.645 Y91.2 E58.12363
G0 F3000 X48.645 Y91.8
G1 F1800 X50.765 Y91.8 E58.20296
G0 F3000 X50.765 Y92.4
G1 F1800 X48.645 Y92.4 E58.28228
G0 F3000 X48.645 Y93
G1 F1800 X50.765 Y93 E58.36161
G0 F3000 X50.765 Y93.6
G1 F1800 X48.645 Y93.6 E58.44094
G0 F3000 X49.612 Y94.8
G1 F1800 X51.534 Y94.8 E58.51285
G0 F3000 X51.6 Y94.865
G1 F1800 X51.6 Y96.234 E58.56408
G0 F3000 X50.765 Y97.2
G1 F1800 X48.712 Y97.2 E58.6409
G0 F3000 X48.645 Y97.8
G1 F1800 X50.765 Y97.8 E58.72022
G0 F3000 X50.765 Y98.4
G1 F1800 X48.645 Y98.4 E58.79955
G0 F3000 X48.645 Y99
G1 F1800 X50.765 Y99 E58.87887
G0 F3000 X50.765 Y99.6
G1 F1800 X48.645 Y99.6 E58.9582
G1 F1200 E54.9582
G1 F300 Z0.6
G0 F3000 X49.8 Y101.98 Z0.6
G1 F300 Z0.3
G1 F1200 E58.9582
G1 F1800 X49.8 Y96.113 E59.17773
G0 F3000 X49.912 Y96
G1 F1800 X55.252 Y96 E59.37754
