;FLAVOR:Marlin
;TIME:4053
;Filament used: 4.1387m
;Layer height: 0.3
;Generated with Cura_SteamEngine 3.6.0
M140 S55
M105
M190 S55
M104 S200
M105
M109 S200
M82 ;absolute extrusion mode
G21 ;metric values
G90 ;absolute positioning
M82 ;set extruder to absolute mode
M107 ;start with the fan off
G28 X0 Y0 ;move X/Y to min endstops
G28 Z0 ;move Z to min endstops
G1 Z15.0 F9000 ;move the platform down 15mm
G92 E0 ;zero the extruded length
G1 F200 E3 ;extrude 3mm of feed stock
G92 E0 ;zero the extruded length again
G1 F9000
;Put printing message on LCD screen
M117 Printing...
G92 E0
G1 F1500 E-6.5
;LAYER_COUNT:71
;LAYER:0
M107
G0 F3840 X53.834 Y70.229 Z0.3
;TYPE:SKIRT
G1 F1500 E0
G1 F2400 X54.335 Y69.92 E0.02203
G1 X54.874 Y69.68 E0.0441
G1 X55.44 Y69.516 E0.06615
G1 X56.024 Y69.43 E0.08824
G1 X56.359 Y69.417 E0.10078
G1 X63.333 Y69.408 E0.36173
G1 X68.799 Y69.253 E0.56634
G1 X74.187 Y68.795 E0.76867
G1 X79.537 Y68.033 E0.97088
G1 X84.87 Y66.964 E1.1744
G1 X87.471 Y66.326 E1.27461
G1 X90.048 Y65.617 E1.37461
G1 X95.043 Y64.023 E1.5708
G1 X95.616 Y63.882 E1.59288
G1 X96.366 Y63.817 E1.62105
G1 X109.346 Y63.818 E2.10673
G1 X109.935 Y63.858 E2.12882
G1 X110.512 Y63.977 E2.15086
G1 X111.068 Y64.173 E2.17292
G1 X111.592 Y64.443 E2.19498
G1 X112.075 Y64.781 E2.21704
G1 X112.508 Y65.181 E2.2391
G1 X112.883 Y65.636 E2.26116
G1 X113.193 Y66.138 E2.28323
G1 X113.432 Y66.677 E2.3053
G1 X113.596 Y67.243 E2.32735
G1 X113.683 Y67.826 E2.3494
G1 X113.696 Y68.169 E2.36225
G1 X113.693 Y83.778 E2.9463
G1 X113.665 Y84.272 E2.96481
G1 X113.337 Y87.139 E3.07279
G1 X112.953 Y92.568 E3.27644
G1 X112.866 Y96.656 E3.42943
G1 X112.856 Y137.178 E4.94567
G1 X112.816 Y137.766 E4.96772
G1 X112.697 Y138.344 E4.98981
G1 X112.5 Y138.9 E5.01188
G1 X112.231 Y139.424 E5.03392
G1 X111.893 Y139.907 E5.05597
G1 X111.492 Y140.34 E5.07806
G1 X111.037 Y140.715 E5.10012
G1 X110.536 Y141.024 E5.12214
G1 X109.997 Y141.264 E5.14422
G1 X109.431 Y141.428 E5.16627
G1 X108.847 Y141.514 E5.18836
G1 X108.512 Y141.527 E5.2009
G1 X101.538 Y141.536 E5.46185
G1 X96.072 Y141.691 E5.66646
G1 X90.684 Y142.149 E5.86879
G1 X85.334 Y142.911 E6.071
G1 X80.001 Y143.98 E6.27452
G1 X77.4 Y144.618 E6.37473
G1 X74.823 Y145.327 E6.47473
G1 X69.827 Y146.921 E6.67096
G1 X69.254 Y147.062 E6.69304
G1 X68.504 Y147.127 E6.7212
G1 X55.525 Y147.127 E7.20685
G1 X54.937 Y147.087 E7.2289
G1 X54.359 Y146.968 E7.25098
G1 X53.803 Y146.772 E7.27304
G1 X53.279 Y146.502 E7.2951
G1 X52.796 Y146.164 E7.31716
G1 X52.363 Y145.764 E7.33921
G1 X51.988 Y145.309 E7.36127
G1 X51.678 Y144.808 E7.38332
G1 X51.439 Y144.269 E7.40538
G1 X51.275 Y143.703 E7.42743
G1 X51.188 Y143.119 E7.44952
G1 X51.175 Y142.776 E7.46237
G1 X51.178 Y127.166 E8.04646
G1 X51.206 Y126.672 E8.06497
G1 X51.534 Y123.805 E8.17295
G1 X51.918 Y118.376 E8.3766
G1 X52.005 Y114.288 E8.52959
G1 X52.015 Y73.766 E10.04583
G1 X52.055 Y73.178 E10.06788
G1 X52.174 Y72.6 E10.08996
G1 X52.371 Y72.044 E10.11204
G1 X52.64 Y71.52 E10.13408
G1 X52.978 Y71.037 E10.15613
G1 X53.379 Y70.604 E10.17822
G1 X53.834 Y70.229 E10.20028
G0 F3840 X54.123 Y70.394
G1 F2400 X54.618 Y70.113 E10.22158
G1 X55.147 Y69.904 E10.24286
G1 X55.701 Y69.772 E10.26417
G1 X56.36 Y69.717 E10.28891
G1 X63.342 Y69.708 E10.55016
G1 X68.815 Y69.553 E10.75503
G1 X74.222 Y69.094 E10.95808
G1 X79.583 Y68.329 E11.16071
G1 X84.95 Y67.253 E11.36552
G1 X87.524 Y66.622 E11.46469
G1 X90.139 Y65.903 E11.56617
G1 X95.134 Y64.309 E11.76235
G1 X95.687 Y64.174 E11.78365
G1 X96.366 Y64.117 E11.80915
G1 X109.346 Y64.118 E12.29483
G1 X109.914 Y64.158 E12.31614
G1 X110.47 Y64.277 E12.33741
G1 X111.004 Y64.473 E12.35869
G1 X111.505 Y64.742 E12.37997
G1 X111.964 Y65.078 E12.40126
G1 X112.371 Y65.475 E12.42253
G1 X112.719 Y65.926 E12.44385
G1 X113 Y66.421 E12.46514
G1 X113.208 Y66.95 E12.48641
G1 X113.341 Y67.503 E12.5077
G1 X113.396 Y68.169 E12.5327
G1 X113.393 Y83.778 E13.11675
G1 X113.367 Y84.238 E13.13399
G1 X113.038 Y87.107 E13.24205
G1 X112.653 Y92.561 E13.44663
G1 X112.566 Y96.65 E13.59967
G1 X112.556 Y137.178 E15.11613
G1 X112.516 Y137.745 E15.1374
G1 X112.397 Y138.302 E15.15871
G1 X112.201 Y138.836 E15.17999
G1 X111.932 Y139.337 E15.20127
G1 X111.595 Y139.796 E15.22258
G1 X111.198 Y140.203 E15.24385
G1 X110.748 Y140.55 E15.26511
G1 X110.253 Y140.831 E15.28641
G1 X109.724 Y141.04 E15.3077
G1 X109.17 Y141.172 E15.329
G1 X108.511 Y141.227 E15.35375
G1 X101.529 Y141.236 E15.615
G1 X96.056 Y141.391 E15.81987
G1 X90.649 Y141.85 E16.02291
G1 X85.288 Y142.615 E16.22554
G1 X79.921 Y143.691 E16.43036
G1 X77.347 Y144.322 E16.52952
G1 X74.724 Y145.043 E16.63131
G1 X69.735 Y146.635 E16.82726
G1 X69.183 Y146.77 E16.84852
G1 X68.504 Y146.827 E16.87402
G1 X55.525 Y146.827 E17.35966
G1 X54.958 Y146.787 E17.38093
G1 X54.401 Y146.668 E17.40224
G1 X53.867 Y146.472 E17.42353
G1 X53.366 Y146.203 E17.44481
G1 X52.907 Y145.867 E17.46609
G1 X52.5 Y145.47 E17.48736
G1 X52.152 Y145.019 E17.50868
G1 X51.872 Y144.525 E17.52993
G1 X51.663 Y143.996 E17.55121
G1 X51.53 Y143.442 E17.57253
G1 X51.475 Y142.776 E17.59753
G1 X51.478 Y127.166 E18.18162
G1 X51.504 Y126.706 E18.19886
G1 X51.833 Y123.837 E18.30692
G1 X52.218 Y118.383 E18.5115
G1 X52.305 Y114.294 E18.66454
G1 X52.315 Y73.766 E20.181
G1 X52.355 Y73.199 E20.20227
G1 X52.474 Y72.642 E20.22358
G1 X52.67 Y72.108 E20.24486
G1 X52.939 Y71.607 E20.26614
G1 X53.276 Y71.148 E20.28745
G1 X53.673 Y70.741 E20.30872
G1 X54.123 Y70.394 E20.32998
G0 F3840 X53.966 Y70.884
G1 F2400 X54.412 Y70.566 E20.35048
G1 X54.898 Y70.316 E20.37093
G1 X55.416 Y70.139 E20.39141
G1 X55.955 Y70.04 E20.41192
G1 X56.36 Y70.017 E20.4271
G1 X63.351 Y70.008 E20.68868
G1 X68.812 Y69.854 E20.8931
G1 X74.272 Y69.389 E21.09814
G1 X79.632 Y68.625 E21.30073
G1 X85.013 Y67.547 E21.50607
G1 X87.593 Y66.914 E21.60547
G1 X90.244 Y66.185 E21.70835
G1 X95.226 Y64.595 E21.90403
G1 X95.758 Y64.467 E21.9245
G1 X96.366 Y64.417 E21.94733
G1 X109.346 Y64.418 E22.43301
G1 X109.892 Y64.458 E22.4535
G1 X110.426 Y64.577 E22.47397
G1 X110.938 Y64.773 E22.49448
G1 X111.415 Y65.04 E22.51493
G1 X111.848 Y65.375 E22.53542
G1 X112.228 Y65.769 E22.5559
G1 X112.547 Y66.214 E22.57639
G1 X112.797 Y66.701 E22.59687
G1 X112.974 Y67.219 E22.61735
G1 X113.073 Y67.757 E22.63782
G1 X113.096 Y68.169 E22.65326
G1 X113.093 Y83.778 E23.23731
G1 X113.069 Y84.204 E23.25328
G1 X112.74 Y87.075 E23.36141
G1 X112.353 Y92.554 E23.56693
G1 X112.266 Y96.644 E23.72
G1 X112.256 Y137.178 E25.23669
G1 X112.216 Y137.724 E25.25718
G1 X112.097 Y138.258 E25.27765
G1 X111.901 Y138.769 E25.29813
G1 X111.633 Y139.247 E25.31863
G1 X111.299 Y139.68 E25.33909
G1 X110.905 Y140.06 E25.35957
G1 X110.459 Y140.378 E25.38007
G1 X109.973 Y140.628 E25.40052
G1 X109.455 Y140.805 E25.421
G1 X108.916 Y140.904 E25.44151
G1 X108.511 Y140.927 E25.45669
G1 X101.52 Y140.936 E25.71827
G1 X96.059 Y141.09 E25.92269
G1 X90.599 Y141.555 E26.12773
G1 X85.239 Y142.319 E26.33032
G1 X79.858 Y143.397 E26.53566
G1 X77.278 Y144.03 E26.63506
G1 X74.627 Y144.759 E26.73794
G1 X69.644 Y146.349 E26.93365
G1 X69.112 Y146.477 E26.95413
G1 X68.504 Y146.527 E26.97696
G1 X55.525 Y146.527 E27.4626
G1 X54.979 Y146.487 E27.48308
G1 X54.445 Y146.368 E27.50356
G1 X53.934 Y146.173 E27.52402
G1 X53.456 Y145.905 E27.54453
G1 X53.023 Y145.57 E27.56501
G1 X52.643 Y145.176 E27.58549
G1 X52.324 Y144.731 E27.60598
G1 X52.074 Y144.244 E27.62646
G1 X51.897 Y143.726 E27.64695
G1 X51.798 Y143.188 E27.66741
G1 X51.775 Y142.776 E27.68285
G1 X51.778 Y127.166 E28.26694
G1 X51.802 Y126.74 E28.28291
G1 X52.131 Y123.869 E28.39104
G1 X52.518 Y118.39 E28.59656
G1 X52.605 Y114.3 E28.74963
G1 X52.615 Y73.766 E30.26632
G1 X52.655 Y73.22 E30.28681
G1 X52.774 Y72.686 E30.30728
G1 X52.97 Y72.175 E30.32775
G1 X53.238 Y71.697 E30.34826
G1 X53.572 Y71.264 E30.36872
G1 X53.966 Y70.884 E30.3892
G0 F3840 X54.259 Y71.034
G1 F2400 X54.698 Y70.747 E30.40883
G1 X55.175 Y70.529 E30.42845
G1 X55.681 Y70.386 E30.44813
G1 X56.361 Y70.317 E30.4737
G1 X63.323 Y70.308 E30.7342
G1 X68.847 Y70.152 E30.94098
G1 X74.303 Y69.688 E31.14587
G1 X79.681 Y68.921 E31.34914
G1 X85.071 Y67.841 E31.55483
G1 X87.681 Y67.201 E31.65538
G1 X90.313 Y66.477 E31.75752
G1 X95.317 Y64.88 E31.95406
G1 X95.828 Y64.759 E31.97371
G1 X96.366 Y64.717 E31.99391
G1 X109.346 Y64.718 E32.47959
G1 X109.87 Y64.758 E32.49925
G1 X110.381 Y64.877 E32.51888
G1 X110.868 Y65.072 E32.53851
G1 X111.321 Y65.339 E32.55819
G1 X111.727 Y65.671 E32.57781
G1 X112.078 Y66.061 E32.59744
G1 X112.366 Y66.5 E32.61709
G1 X112.584 Y66.978 E32.63675
G1 X112.727 Y67.483 E32.65639
G1 X112.796 Y68.169 E32.68218
G1 X112.793 Y83.778 E33.26624
G1 X112.771 Y84.169 E33.28089
G1 X112.439 Y87.065 E33.38996
G1 X112.053 Y92.525 E33.59477
G1 X111.966 Y96.637 E33.74867
G1 X111.956 Y137.178 E35.26562
G1 X111.916 Y137.701 E35.28524
G1 X111.797 Y138.213 E35.30491
G1 X111.602 Y138.7 E35.32454
G1 X111.335 Y139.152 E35.34418
G1 X111.002 Y139.558 E35.36383
G1 X110.612 Y139.91 E35.38349
G1 X110.173 Y140.197 E35.40311
G1 X109.696 Y140.415 E35.42274
G1 X109.19 Y140.558 E35.44241
G1 X108.51 Y140.627 E35.46799
G1 X101.548 Y140.636 E35.72849
G1 X96.024 Y140.792 E35.93527
G1 X90.568 Y141.256 E36.14015
G1 X85.19 Y142.023 E36.34342
G1 X79.8 Y143.103 E36.54911
G1 X77.19 Y143.743 E36.64967
G1 X74.558 Y144.467 E36.75181
G1 X69.553 Y146.064 E36.94839
G1 X69.042 Y146.185 E36.96803
G1 X68.504 Y146.227 E36.98823
G1 X55.525 Y146.227 E37.47387
G1 X55.002 Y146.187 E37.4935
G1 X54.49 Y146.068 E37.51317
G1 X54.003 Y145.873 E37.53279
G1 X53.551 Y145.606 E37.55244
G1 X53.144 Y145.274 E37.57209
G1 X52.793 Y144.884 E37.59172
G1 X52.505 Y144.445 E37.61137
G1 X52.287 Y143.967 E37.63103
G1 X52.144 Y143.462 E37.65067
G1 X52.075 Y142.776 E37.67646
G1 X52.078 Y127.166 E38.26055
G1 X52.1 Y126.775 E38.27521
G1 X52.432 Y123.879 E38.38428
G1 X52.818 Y118.419 E38.58909
G1 X52.905 Y114.307 E38.74298
G1 X52.915 Y73.766 E40.25993
G1 X52.955 Y73.243 E40.27956
G1 X53.074 Y72.731 E40.29923
G1 X53.269 Y72.244 E40.31886
G1 X53.536 Y71.792 E40.3385
G1 X53.869 Y71.386 E40.35815
G1 X54.259 Y71.034 E40.37781
G0 F3840 X54.55 Y71.193
G1 F2400 X54.982 Y70.937 E40.3966
G1 X55.448 Y70.753 E40.41534
G1 X55.938 Y70.646 E40.43411
G1 X56.361 Y70.617 E40.44997
G1 X63.332 Y70.608 E40.71081
G1 X68.863 Y70.452 E40.91785
G1 X74.338 Y69.986 E41.12345
G1 X79.728 Y69.218 E41.32717
G1 X85.156 Y68.13 E41.53431
G1 X87.75 Y67.493 E41.63426
G1 X90.389 Y66.768 E41.73666
G1 X95.408 Y65.166 E41.9338
G1 X95.897 Y65.052 E41.95259
G1 X96.366 Y65.017 E41.97018
G1 X109.346 Y65.018 E42.45586
G1 X109.846 Y65.058 E42.47463
G1 X110.334 Y65.177 E42.49343
G1 X110.796 Y65.371 E42.51218
G1 X111.221 Y65.637 E42.53094
G1 X111.599 Y65.967 E42.54971
G1 X111.92 Y66.352 E42.56847
G1 X112.176 Y66.784 E42.58726
G1 X112.359 Y67.251 E42.60603
G1 X112.467 Y67.741 E42.6248
G1 X112.496 Y68.169 E42.64085
G1 X112.493 Y83.778 E43.2249
G1 X112.473 Y84.135 E43.23828
G1 X112.141 Y87.033 E43.34743
G1 X111.753 Y92.518 E43.55318
G1 X111.666 Y96.612 E43.7064
G1 X111.656 Y137.178 E45.22428
G1 X111.616 Y137.678 E45.24305
G1 X111.497 Y138.165 E45.26181
G1 X111.302 Y138.627 E45.28058
G1 X111.037 Y139.053 E45.29935
G1 X110.707 Y139.431 E45.31812
G1 X110.321 Y139.751 E45.33688
G1 X109.889 Y140.007 E45.35567
G1 X109.423 Y140.191 E45.37442
G1 X108.933 Y140.298 E45.39319
G1 X108.51 Y140.327 E45.40905
G1 X101.539 Y140.336 E45.66989
G1 X96.008 Y140.492 E45.87693
G1 X90.533 Y140.958 E46.08253
G1 X85.143 Y141.726 E46.28625
G1 X79.715 Y142.814 E46.49339
G1 X77.121 Y143.451 E46.59334
G1 X74.482 Y144.176 E46.69574
G1 X69.462 Y145.778 E46.89291
G1 X68.973 Y145.892 E46.9117
G1 X68.504 Y145.927 E46.9293
G1 X55.525 Y145.927 E47.41494
G1 X55.025 Y145.887 E47.43371
G1 X54.538 Y145.768 E47.45247
G1 X54.075 Y145.574 E47.47125
G1 X53.65 Y145.308 E47.49001
G1 X53.272 Y144.978 E47.50879
G1 X52.951 Y144.593 E47.52754
G1 X52.695 Y144.161 E47.54633
G1 X52.512 Y143.694 E47.5651
G1 X52.404 Y143.205 E47.58384
G1 X52.375 Y142.776 E47.59993
G1 X52.378 Y127.166 E48.18402
G1 X52.398 Y126.809 E48.1974
G1 X52.73 Y123.911 E48.30654
G1 X53.118 Y118.426 E48.51229
G1 X53.205 Y114.313 E48.66622
G1 X53.215 Y73.766 E50.1834
G1 X53.255 Y73.266 E50.20217
G1 X53.374 Y72.779 E50.22092
G1 X53.569 Y72.317 E50.23969
G1 X53.834 Y71.891 E50.25846
G1 X54.164 Y71.513 E50.27724
G1 X54.55 Y71.193 E50.296
G1 F1500 E43.796
G1 F300 Z0.7
;MESH:HUD-holder1.STL(1)
G0 F3840 X73.305 Y82.708 Z0.7
;TYPE:WALL-INNER
G1 F300 Z0.3
G1 F1500 E50.296
G1 F2400 X73.305 Y119.708 E51.68045
G1 X57.405 Y119.708 E52.27539
G1 X57.405 Y74.808 E53.95544
G1 X97.405 Y74.808 E55.45215
G1 X97.405 Y69.208 E55.66169
G1 X108.305 Y69.208 E56.06954
G1 X108.305 Y82.708 E56.57468
G1 X73.305 Y82.708 E57.8843
G0 F3840 X70.408 Y96.127
G1 F2400 X70.339 Y95.614 E57.90367
G1 X70.19 Y95.12 E57.92297
G1 X69.955 Y94.657 E57.9424
G1 X69.648 Y94.24 E57.96178
G1 X69.273 Y93.883 E57.98115
G1 X68.845 Y93.592 E58.00051
G1 X68.373 Y93.378 E58.01991
G1 X67.871 Y93.248 E58.03931
G1 X67.355 Y93.204 E58.05869
G1 X66.838 Y93.248 E58.0781
G1 X66.338 Y93.378 E58.09743
G1 X65.866 Y93.592 E58.11682
G1 X65.438 Y93.883 E58.13619
G1 X65.063 Y94.24 E58.15556
G1 X64.753 Y94.657 E58.17501
G1 X64.522 Y95.12 E58.19437
G1 X64.371 Y95.614 E58.2137
G1 X64.303 Y96.129 E58.23313
G1 X64.326 Y96.648 E58.25257
G1 X64.435 Y97.152 E58.27187
G1 X64.628 Y97.633 E58.29126
G1 X64.9 Y98.073 E58.31061
G1 X65.242 Y98.462 E58.33
G1 X65.647 Y98.789 E58.34947
G1 X66.098 Y99.04 E58.36879
G1 X66.585 Y99.212 E58.38811
G1 X67.095 Y99.301 E58.40748
G1 X67.616 Y99.301 E58.42698
G1 X68.125 Y99.212 E58.44631
G1 X68.613 Y99.04 E58.46567
G1 X69.063 Y98.787 E58.48499
G1 X69.468 Y98.463 E58.5044
G1 X69.81 Y98.073 E58.5238
G1 X70.082 Y97.634 E58.54313
G1 X70.276 Y97.153 E58.56253
G1 X70.385 Y96.646 E58.58194
G1 X70.408 Y96.127 E58.60138
G0 F3840 X70.408 Y106.127
G1 F2400 X70.339 Y105.614 E58.62075
G1 X70.19 Y105.12 E58.64005
G1 X69.955 Y104.657 E58.65948
G1 X69.648 Y104.24 E58.67886
G1 X69.273 Y103.883 E58.69823
G1 X68.845 Y103.592 E58.7176
G1 X68.373 Y103.378 E58.73699
G1 X67.871 Y103.248 E58.75639
G1 X67.355 Y103.204 E58.77577
G1 X66.838 Y103.248 E58.79518
G1 X66.338 Y103.378 E58.81451
G1 X65.866 Y103.592 E58.83391
G1 X65.438 Y103.883 E58.85327
G1 X65.063 Y104.24 E58.87264
G1 X64.753 Y104.657 E58.89209
G1 X64.522 Y105.12 E58.91145
G1 X64.371 Y105.614 E58.93078
G1 X64.303 Y106.129 E58.95021
G1 X64.326 Y106.648 E58.96965
G1 X64.435 Y107.152 E58.98895
G1 X64.628 Y107.633 E59.00834
G1 X64.9 Y108.073 E59.0277
G1 X65.242 Y108.462 E59.04708
G1 X65.647 Y108.789 E59.06655
G1 X66.098 Y109.04 E59.08587
G1 X66.585 Y109.212 E59.10519
G1 X67.095 Y109.301 E59.12456
G1 X67.616 Y109.301 E59.14406
G1 X68.125 Y109.212 E59.16339
G1 X68.613 Y109.04 E59.18275
G1 X69.063 Y108.787 E59.20207
G1 X69.468 Y108.463 E59.22148
G1 X69.81 Y108.073 E59.24089
G1 X70.082 Y107.634 E59.26021
G1 X70.276 Y107.153 E59.27962
G1 X70.385 Y106.646 E59.29902
G1 X70.408 Y106.127 E59.31846
G0 F3840 X70.408 Y116.127
G1 F2400 X70.339 Y115.614 E59.33783
G1 X70.19 Y115.12 E59.35713
G1 X69.955 Y114.657 E59.37656
G1 X69.648 Y114.24 E59.39594
G1 X69.273 Y113.883 E59.41531
G1 X68.845 Y113.592 E59.43468
G1 X68.373 Y113.378 E59.45407
G1 X67.871 Y113.248 E59.47347
G1 X67.355 Y113.204 E59.49285
G1 X66.838 Y113.248 E59.51226
G1 X66.338 Y113.378 E59.53159
G1 X65.866 Y113.592 E59.55099
G1 X65.438 Y113.883 E59.57035
G1 X65.063 Y114.24 E59.58973
G1 X64.753 Y114.657 E59.60917
G1 X64.522 Y115.12 E59.62853
G1 X64.371 Y115.614 E59.64786
G1 X64.303 Y116.129 E59.66729
G1 X64.326 Y116.648 E59.68673
G1 X64.435 Y117.152 E59.70603
G1 X64.628 Y117.633 E59.72542
G1 X64.9 Y118.073 E59.74478
G1 X65.242 Y118.462 E59.76416
G1 X65.647 Y118.789 E59.78363
G1 X66.098 Y119.04 E59.80295
G1 X66.585 Y119.212 E59.82227
G1 X67.095 Y119.301 E59.84164
G1 X67.616 Y119.301 E59.86114
G1 X68.125 Y119.212 E59.88047
G1 X68.613 Y119.04 E59.89983
G1 X69.063 Y118.787 E59.91915
G1 X69.468 Y118.463 E59.93856
G1 X69.81 Y118.073 E59.95797
G1 X70.082 Y117.634 E59.97729
G1 X70.276 Y117.153 E59.9967
G1 X70.385 Y116.646 E60.0161
G1 X70.408 Y116.127 E60.03554
G0 F3840 X70.107 Y116.14
G1 F2400 X70.045 Y115.678 E60.05298
G1 X69.91 Y115.232 E60.07042
G1 X69.699 Y114.815 E60.0879
