;FLAVOR:Marlin
;TIME:4872
;Filament used: 3.8436m
;Layer height: 0.3
;Generated with Cura_SteamEngine 3.6.0
M140 S55
M105
M190 S55
M104 S200
M105
M109 S200
M82 ;absolute extrusion mode
G21 ;metric values
G90 ;absolute positioning
M82 ;set extruder to absolute mode
M107 ;start with the fan off
G28 X0 Y0 ;move X/Y to min endstops
G28 Z0 ;move Z to min endstops
G1 Z15.0 F9000 ;move the platform down 15mm
G92 E0 ;zero the extruded length
G1 F200 E3 ;extrude 3mm of feed stock
G92 E0 ;zero the extruded length again
G1 F9000
;Put printing message on LCD screen
M117 Printing...
G92 E0
G1 F1500 E-6.5
;LAYER_COUNT:74
;LAYER:0
M107
G0 F1500 X76.467 Y51.017 Z0.3
;TYPE:SKIRT
G1 F1500 E0
G1 F1200 X76.801 Y50.583 E0.02049
G1 X77.195 Y50.203 E0.04097
G1 X77.639 Y49.884 E0.06143
G1 X78.126 Y49.633 E0.08193
G1 X78.644 Y49.456 E0.10241
G1 X79.182 Y49.356 E0.12289
G1 X79.596 Y49.333 E0.1384
G1 X132.077 Y49.334 E2.10212
G1 X132.623 Y49.374 E2.1226
G1 X133.157 Y49.493 E2.14308
G1 X133.668 Y49.688 E2.16354
G1 X134.146 Y49.956 E2.18405
G1 X134.579 Y50.291 E2.20453
G1 X134.959 Y50.685 E2.22501
G1 X135.278 Y51.13 E2.2455
G1 X135.528 Y51.617 E2.26598
G1 X135.705 Y52.135 E2.28647
G1 X135.804 Y52.673 E2.30693
G1 X135.827 Y53.085 E2.32237
G1 X135.825 Y58.087 E2.50954
G1 X135.8 Y58.519 E2.52573
G1 X135.417 Y61.806 E2.64955
G1 X135.03 Y67.264 E2.85429
G1 X134.951 Y72.815 E3.06202
G1 X134.99 Y125.488 E5.03292
G1 X134.95 Y126.034 E5.0534
G1 X134.832 Y126.569 E5.0739
G1 X134.637 Y127.08 E5.09437
G1 X134.369 Y127.557 E5.11484
G1 X134.035 Y127.991 E5.13533
G1 X133.641 Y128.371 E5.15581
G1 X133.197 Y128.69 E5.17627
G1 X132.71 Y128.941 E5.19677
G1 X132.192 Y129.118 E5.21725
G1 X131.654 Y129.218 E5.23773
G1 X131.24 Y129.241 E5.25324
G1 X78.759 Y129.241 E7.21696
G1 X78.213 Y129.201 E7.23744
G1 X77.679 Y129.082 E7.25792
G1 X77.168 Y128.887 E7.27838
G1 X76.69 Y128.619 E7.29889
G1 X76.257 Y128.284 E7.31937
G1 X75.877 Y127.89 E7.33985
G1 X75.558 Y127.445 E7.36034
G1 X75.308 Y126.958 E7.38082
G1 X75.131 Y126.44 E7.40131
G1 X75.032 Y125.902 E7.42177
G1 X75.009 Y125.49 E7.43721
G1 X75.011 Y120.487 E7.62441
G1 X75.036 Y120.055 E7.64061
G1 X75.419 Y116.768 E7.76443
G1 X75.806 Y111.31 E7.96917
G1 X75.885 Y105.759 E8.17689
G1 X75.846 Y53.086 E10.1478
G1 X75.886 Y52.54 E10.16828
G1 X76.004 Y52.005 E10.18878
G1 X76.199 Y51.494 E10.20924
G1 X76.467 Y51.017 E10.22972
G0 F1500 X76.765 Y51.111
G1 F1200 X77.097 Y50.704 E10.24937
G1 X77.487 Y50.353 E10.269
G1 X77.926 Y50.064 E10.28867
G1 X78.403 Y49.846 E10.30829
G1 X78.908 Y49.702 E10.32794
G1 X79.596 Y49.633 E10.35381
G1 X132.077 Y49.634 E12.31753
G1 X132.601 Y49.674 E12.33719
G1 X133.112 Y49.793 E12.35683
G1 X133.599 Y49.988 E12.37646
G1 X134.051 Y50.255 E12.3961
G1 X134.458 Y50.587 E12.41575
G1 X134.809 Y50.977 E12.43538
G1 X135.097 Y51.416 E12.45503
G1 X135.315 Y51.894 E12.47469
G1 X135.458 Y52.399 E12.49433
G1 X135.527 Y53.085 E12.52012
G1 X135.525 Y58.087 E12.70729
G1 X135.502 Y58.485 E12.72221
G1 X135.117 Y61.796 E12.84693
G1 X134.731 Y67.239 E13.05111
G1 X134.651 Y72.81 E13.25958
G1 X134.69 Y125.488 E15.23067
G1 X134.65 Y126.012 E15.25033
G1 X134.532 Y126.523 E15.26996
G1 X134.337 Y127.011 E15.28962
G1 X134.071 Y127.463 E15.30924
G1 X133.739 Y127.87 E15.3289
G1 X133.349 Y128.221 E15.34853
G1 X132.91 Y128.51 E15.3682
G1 X132.433 Y128.728 E15.38782
G1 X131.928 Y128.872 E15.40747
G1 X131.24 Y128.941 E15.43334
G1 X78.759 Y128.941 E17.39706
G1 X78.236 Y128.901 E17.41668
G1 X77.724 Y128.782 E17.43635
G1 X77.237 Y128.587 E17.45598
G1 X76.785 Y128.32 E17.47562
G1 X76.378 Y127.988 E17.49528
G1 X76.027 Y127.598 E17.51491
G1 X75.739 Y127.159 E17.53456
G1 X75.521 Y126.681 E17.55421
G1 X75.378 Y126.176 E17.57385
G1 X75.309 Y125.49 E17.59965
G1 X75.311 Y120.487 E17.78685
G1 X75.334 Y120.089 E17.80177
G1 X75.719 Y116.778 E17.92649
G1 X76.105 Y111.335 E18.13067
G1 X76.185 Y105.764 E18.33914
G1 X76.146 Y53.086 E20.31023
G1 X76.186 Y52.562 E20.32989
G1 X76.304 Y52.051 E20.34952
G1 X76.499 Y51.563 E20.36918
G1 X76.765 Y51.111 E20.38881
G0 F1500 X77.064 Y51.21
G1 F1200 X77.393 Y50.831 E20.40759
G1 X77.778 Y50.51 E20.42634
G1 X78.21 Y50.254 E20.44513
G1 X78.676 Y50.07 E20.46388
G1 X79.166 Y49.962 E20.48265
G1 X79.596 Y49.933 E20.49878
G1 X132.077 Y49.934 E22.46249
G1 X132.577 Y49.974 E22.48126
G1 X133.064 Y50.093 E22.50002
G1 X133.527 Y50.287 E22.51881
G1 X133.952 Y50.553 E22.53757
G1 X134.33 Y50.883 E22.55634
G1 X134.651 Y51.268 E22.5751
G1 X134.907 Y51.7 E22.59389
G1 X135.09 Y52.167 E22.61265
G1 X135.198 Y52.657 E22.63143
G1 X135.227 Y53.085 E22.64748
G1 X135.225 Y58.087 E22.83464
G1 X135.204 Y58.45 E22.84825
G1 X134.819 Y61.761 E22.97297
G1 X134.431 Y67.232 E23.1782
G1 X134.351 Y72.806 E23.38679
G1 X134.39 Y125.489 E25.35806
G1 X134.35 Y125.989 E25.37683
G1 X134.232 Y126.476 E25.39558
G1 X134.038 Y126.939 E25.41436
G1 X133.772 Y127.364 E25.43312
G1 X133.443 Y127.743 E25.4519
G1 X133.058 Y128.064 E25.47066
G1 X132.626 Y128.32 E25.48945
G1 X132.16 Y128.504 E25.5082
G1 X131.67 Y128.612 E25.52697
G1 X131.24 Y128.641 E25.5431
G1 X78.759 Y128.641 E27.50681
G1 X78.259 Y128.601 E27.52558
G1 X77.772 Y128.482 E27.54434
G1 X77.309 Y128.288 E27.56312
G1 X76.884 Y128.022 E27.58188
G1 X76.506 Y127.692 E27.60066
G1 X76.185 Y127.307 E27.61942
G1 X75.929 Y126.875 E27.6382
G1 X75.746 Y126.408 E27.65697
G1 X75.638 Y125.919 E27.67571
G1 X75.609 Y125.49 E27.6918
G1 X75.611 Y120.487 E27.879
G1 X75.632 Y120.124 E27.89261
G1 X76.017 Y116.813 E28.01733
G1 X76.405 Y111.342 E28.22256
G1 X76.485 Y105.768 E28.43114
G1 X76.446 Y53.085 E30.40242
G1 X76.486 Y52.585 E30.42119
G1 X76.604 Y52.098 E30.43994
G1 X76.798 Y51.635 E30.45872
G1 X77.064 Y51.21 E30.47748
G1 F1500 E23.97748
G1 F300 Z0.7
;MESH:HUD-supportArm2.STL(1)
G0 F1500 X99.536 Y57.024 Z0.7
;TYPE:WALL-INNER
G1 F300 Z0.3
G1 F1500 E30.47748
G1 F1200 X99.536 Y103.024 E32.19869
G1 X80.636 Y103.024 E32.90589
G1 X80.636 Y54.124 E34.73561
G1 X131.036 Y54.124 E36.62146
G1 X131.036 Y57.024 E36.72997
G1 X99.536 Y57.024 E37.90863
G0 F1500 X88.083 Y78.328
G0 X85.845 Y82.357
G1 F1200 X86.297 Y82.103 E37.92803
G1 X86.699 Y81.778 E37.94737
G1 X87.041 Y81.39 E37.96672
G1 X87.313 Y80.95 E37.98608
G1 X87.506 Y80.469 E38.00547
G1 X87.616 Y79.962 E38.02488
G1 X87.638 Y79.444 E38.04428
G1 X87.57 Y78.93 E38.06368
G1 X87.419 Y78.437 E38.08298
G1 X87.187 Y77.974 E38.10235
G1 X86.878 Y77.556 E38.1218
G1 X86.503 Y77.199 E38.14118
G1 X86.075 Y76.908 E38.16054
G1 X85.604 Y76.696 E38.17987
G1 X85.105 Y76.564 E38.19918
G1 X84.586 Y76.52 E38.21867
G1 X84.069 Y76.564 E38.23809
G1 X83.569 Y76.695 E38.25743
G1 X83.096 Y76.908 E38.27684
G1 X82.667 Y77.199 E38.29623
G1 X82.292 Y77.557 E38.31563
G1 X81.984 Y77.976 E38.33509
G1 X81.753 Y78.437 E38.35439
G1 X81.602 Y78.93 E38.37368
G1 X81.534 Y79.444 E38.39308
G1 X81.556 Y79.961 E38.41244
G1 X81.665 Y80.468 E38.43184
G1 X81.859 Y80.95 E38.45129
G1 X82.131 Y81.39 E38.47064
G1 X82.473 Y81.778 E38.48999
G1 X82.875 Y82.103 E38.50934
G1 X83.327 Y82.357 E38.52874
G1 X83.818 Y82.529 E38.5482
G1 X84.327 Y82.617 E38.56753
G1 X84.844 Y82.617 E38.58688
G1 X85.353 Y82.529 E38.60621
G1 X85.845 Y82.357 E38.62571
G0 F1500 X87.075 Y89.469
G0 X86.968 Y90.304
G0 X86.754 Y90.728
G0 X85.845 Y92.357
G1 F1200 X86.297 Y92.103 E38.64511
G1 X86.699 Y91.778 E38.66445
G1 X87.041 Y91.39 E38.6838
G1 X87.313 Y90.95 E38.70316
G1 X87.506 Y90.469 E38.72255
G1 X87.616 Y89.962 E38.74196
G1 X87.638 Y89.444 E38.76136
G1 X87.57 Y88.93 E38.78076
G1 X87.419 Y88.437 E38.80006
G1 X87.187 Y87.974 E38.81943
G1 X86.878 Y87.556 E38.83888
G1 X86.503 Y87.199 E38.85826
G1 X86.075 Y86.908 E38.87762
G1 X85.604 Y86.696 E38.89695
G1 X85.105 Y86.564 E38.91626
G1 X84.586 Y86.52 E38.93575
G1 X84.069 Y86.564 E38.95517
G1 X83.569 Y86.695 E38.97451
G1 X83.096 Y86.908 E38.99392
G1 X82.667 Y87.199 E39.01332
G1 X82.292 Y87.557 E39.03271
G1 X81.984 Y87.976 E39.05217
G1 X81.753 Y88.437 E39.07147
G1 X81.602 Y88.93 E39.09076
G1 X81.534 Y89.444 E39.11016
G1 X81.556 Y89.961 E39.12952
G1 X81.665 Y90.468 E39.14893
G1 X81.859 Y90.95 E39.16837
G1 X82.131 Y91.39 E39.18772
G1 X82.473 Y91.778 E39.20708
G1 X82.875 Y92.103 E39.22642
G1 X83.327 Y92.357 E39.24582
G1 X83.818 Y92.529 E39.26529
G1 X84.327 Y92.617 E39.28461
G1 X84.844 Y92.617 E39.30396
G1 X85.353 Y92.529 E39.32329
G1 X85.845 Y92.357 E39.34279
G0 F1500 X87.075 Y99.469
G0 X86.968 Y100.304
G0 X86.754 Y100.728
G0 X85.845 Y102.357
G1 F1200 X86.297 Y102.103 E39.36219
G1 X86.699 Y101.778 E39.38153
G1 X87.041 Y101.39 E39.40088
G1 X87.313 Y100.95 E39.42024
G1 X87.506 Y100.469 E39.43963
G1 X87.616 Y99.962 E39.45905
G1 X87.638 Y99.444 E39.47844
G1 X87.57 Y98.93 E39.49785
G1 X87.419 Y98.437 E39.51714
G1 X87.187 Y97.974 E39.53652
G1 X86.878 Y97.556 E39.55597
G1 X86.503 Y97.199 E39.57534
G1 X86.075 Y96.908 E39.5947
G1 X85.604 Y96.696 E39.61403
G1 X85.105 Y96.564 E39.63335
G1 X84.586 Y96.52 E39.65283
G1 X84.069 Y96.564 E39.67225
G1 X83.569 Y96.695 E39.69159
G1 X83.096 Y96.908 E39.711
G1 X82.667 Y97.199 E39.7304
G1 X82.292 Y97.557 E39.7498
G1 X81.984 Y97.976 E39.76925
G1 X81.753 Y98.437 E39.78855
G1 X81.602 Y98.93 E39.80784
G1 X81.534 Y99.444 E39.82724
G1 X81.556 Y99.961 E39.8466
G1 X81.665 Y100.468 E39.86601
G1 X81.859 Y100.95 E39.88545
G1 X82.131 Y101.39 E39.9048
G1 X82.473 Y101.778 E39.92416
G1 X82.875 Y102.103 E39.9435
G1 X83.327 Y102.357 E39.9629
G1 X83.818 Y102.529 E39.98237
G1 X84.327 Y102.617 E40.0017
G1 X84.844 Y102.617 E40.02104
G1 X85.353 Y102.529 E40.04037
G1 X85.845 Y102.357 E40.05987
G0 F1500 X83.451 Y102.083
G1 F1200 X83.894 Y102.238 E40.07743
G1 X84.353 Y102.317 E40.09486
G1 X84.818 Y102.317 E40.11226
G1 X85.278 Y102.238 E40.12972
G1 X85.721 Y102.083 E40.14728
G1 X86.128 Y101.854 E40.16476
G1 X86.491 Y101.561 E40.18221
G1 X86.799 Y101.211 E40.19966
G1 X87.044 Y100.814 E40.21711
G1 X87.218 Y100.381 E40.23457
G1 X87.317 Y99.924 E40.25207
G1 X87.337 Y99.457 E40.26956
G1 X87.276 Y98.994 E40.28704
G1 X87.14 Y98.549 E40.30445
G1 X86.93 Y98.132 E40.32192
G1 X86.652 Y97.755 E40.33944
G1 X86.314 Y97.433 E40.35691
G1 X85.928 Y97.171 E40.37437
G1 X85.503 Y96.98 E40.3918
G1 X85.053 Y96.861 E40.40922
G1 X84.586 Y96.821 E40.42676
G1 X84.12 Y96.861 E40.44426
G1 X83.669 Y96.979 E40.4617
G1 X83.243 Y97.171 E40.47918
G1 X82.856 Y97.433 E40.49667
G1 X82.518 Y97.756 E40.51417
G1 X82.241 Y98.133 E40.53167
G1 X82.032 Y98.549 E40.54909
G1 X81.896 Y98.994 E40.5665
G1 X81.835 Y99.457 E40.58397
G1 X81.855 Y99.923 E40.60143
G1 X81.953 Y100.38 E40.61892
G1 X82.128 Y100.814 E40.63643
G1 X82.373 Y101.211 E40.65388
G1 X82.681 Y101.561 E40.67133
G1 X83.044 Y101.854 E40.68878
G1 X83.451 Y102.083 E40.70626
G0 F1500 X82.583 Y101.055
G0 X82.203 Y100.303
G0 X82.097 Y99.469
G0 X83.451 Y92.083
G1 F1200 X83.894 Y92.238 E40.72382
G1 X84.353 Y92.317 E40.74124
G1 X84.818 Y92.317 E40.75864
G1 X85.278 Y92.238 E40.77611
G1 X85.721 Y92.083 E40.79367
G1 X86.128 Y91.854 E40.81114
G1 X86.491 Y91.561 E40.8286
G1 X86.799 Y91.211 E40.84604
G1 X87.044 Y90.814 E40.8635
G1 X87.218 Y90.381 E40.88096
G1 X87.317 Y89.924 E40.89846
G1 X87.337 Y89.457 E40.91595
G1 X87.276 Y88.994 E40.93342
G1 X87.14 Y88.549 E40.95083
G1 X86.93 Y88.132 E40.9683
G1 X86.652 Y87.755 E40.98583
G1 X86.314 Y87.433 E41.0033
G1 X85.928 Y87.171 E41.02075
G1 X85.503 Y86.98 E41.03819
G1 X85.053 Y86.861 E41.0556
G1 X84.586 Y86.821 E41.07314
G1 X84.12 Y86.861 E41.09064
G1 X83.669 Y86.979 E41.10809
G1 X83.243 Y87.171 E41.12557
G1 X82.856 Y87.433 E41.14306
G1 X82.518 Y87.756 E41.16055
G1 X82.241 Y88.133 E41.17806
G1 X82.032 Y88.549 E41.19548
G1 X81.896 Y88.994 E41.21289
G1 X81.835 Y89.457 E41.23036
G1 X81.855 Y89.923 E41.24781
G1 X81.953 Y90.38 E41.2653
G1 X82.128 Y90.814 E41.28281
G1 X82.373 Y91.211 E41.30027
G1 X82.681 Y91.561 E41.31771
G1 X83.044 Y91.854 E41.33517
G1 X83.451 Y92.083 E41.35264
G0 F1500 X82.583 Y91.055
G0 X82.203 Y90.303
G0 X82.097 Y89.469
G0 X83.451 Y82.083
G1 F1200 X83.894 Y82.238 E41.3702
G1 X84.353 Y82.317 E41.38763
G1 X84.818 Y82.317 E41.40503
G1 X85.278 Y82.238 E41.42249
G1 X85.721 Y82.083 E41.44006
G1 X86.128 Y81.854 E41.45753
G1 X86.491 Y81.561 E41.47498
G1 X86.799 Y81.211 E41.49243
G1 X87.044 Y80.814 E41.50989
G1 X87.218 Y80.381 E41.52735
G1 X87.317 Y79.924 E41.54484
G1 X87.337 Y79.457 E41.56233
G1 X87.276 Y78.994 E41.57981
G1 X87.14 Y78.549 E41.59722
G1 X86.93 Y78.132 E41.61469
G1 X86.652 Y77.755 E41.63221
G1 X86.314 Y77.433 E41.64968
G1 X85.928 Y77.171 E41.66714
G1 X85.503 Y76.98 E41.68457
G1 X85.053 Y76.861 E41.70199
G1 X84.586 Y76.821 E41.71953
G1 X84.12 Y76.861 E41.73703
G1 X83.669 Y76.979 E41.75447
G1 X83.243 Y77.171 E41.77196
G1 X82.856 Y77.433 E41.78944
G1 X82.518 Y77.756 E41.80694
G1 X82.241 Y78.133 E41.82444
G1 X82.032 Y78.549 E41.84186
G1 X81.896 Y78.994 E41.85927
G1 X81.835 Y79.457 E41.87675
G1 X81.855 Y79.923 E41.8942
G1 X81.953 Y80.38 E41.91169
G1 X82.128 Y80.814 E41.9292
G1 X82.373 Y81.211 E41.94665
G1 X82.681 Y81.561 E41.9641
G1 X83.044 Y81.854 E41.98155
G1 X83.451 Y82.083 E41.99903
G0 F1500 X84.796 Y82.056
G0 X85.613 Y81.845
G0 X86.31 Y81.372
G0 X86.715 Y80.825
G0 X99.836 Y57.324
G1 F1200 X99.836 Y103.324 E43.72024
G1 X80.336 Y103.324 E44.44988
G1 X80.336 Y53.824 E46.30206
G1 X131.336 Y53.824 E48.21036
G1 X131.336 Y57.324 E48.34132
G1 X99.836 Y57.324 E49.51998
G0 F1500 X100.136 Y57.624
G1 F1200 X100.136 Y103.624 E51.24119
G1 X80.036 Y103.624 E51.99328
G1 X80.036 Y53.524 E53.86791
G1 X131.636 Y53.524 E55.79866
G1 X131.636 Y57.624 E55.95207
G1 X100.136 Y57.624 E57.13073
G0 F1500 X100.066 Y57.554
G0 X86.589 Y81.055
G0 X85.981 Y81.638
G0 X85.213 Y81.985
G0 X84.535 Y82.041
G0 X83.534 Y81.9
G0 X83.575 Y81.809
G1 F1200 X83.969 Y81.947 E57.14635
G1 X84.378 Y82.017 E57.16187
G1 X84.793 Y82.017 E57.1774
G1 X85.203 Y81.947 E57.19296
G1 X85.597 Y81.809 E57.20859
G1 X85.959 Y81.605 E57.22413
G1 X86.283 Y81.344 E57.2397
G1 X86.557 Y81.032 E57.25524
G1 X86.775 Y80.678 E57.27079
G1 X86.93 Y80.293 E57.28632
G1 X87.018 Y79.886 E57.3019
G1 X87.036 Y79.47 E57.31748
G1 X86.982 Y79.058 E57.33303
G1 X86.861 Y78.661 E57.34856
G1 X86.674 Y78.29 E57.36411
G1 X86.426 Y77.954 E57.37973
G1 X86.125 Y77.667 E57.3953
G1 X85.781 Y77.434 E57.41084
G1 X85.403 Y77.264 E57.42635
G1 X85.001 Y77.158 E57.44191
G1 X84.586 Y77.122 E57.45749
G1 X84.171 Y77.158 E57.47308
G1 X83.769 Y77.263 E57.48863
G1 X83.39 Y77.434 E57.50418
G1 X83.045 Y77.667 E57.51976
G1 X82.744 Y77.955 E57.53535
G1 X82.498 Y78.29 E57.5509
G1 X82.311 Y78.661 E57.56645
G1 X82.19 Y79.058 E57.58198
G1 X82.136 Y79.47 E57.59752
G1 X82.154 Y79.885 E57.61307
G1 X82.241 Y80.292 E57.62864
G1 X82.397 Y80.678 E57.64422
G1 X82.615 Y81.032 E57.65977
G1 X82.889 Y81.344 E57.67531
G1 X83.213 Y81.605 E57.69088
G1 X83.575 Y81.809 E57.70643
G0 F1500 X83.534 Y81.9
G0 X82.097 Y89.469
G0 X82.203 Y90.303
G0 X82.583 Y91.055
G0 X82.927 Y91.384
G0 X83.534 Y91.9
G0 X83.575 Y91.809
G1 F1200 X83.969 Y91.947 E57.72205
G1 X84.378 Y92.017 E57.73757
G1 X84.793 Y92.017 E57.7531
G1 X85.203 Y91.947 E57.76867
G1 X85.597 Y91.809 E57.78429
G1 X85.959 Y91.605 E57.79983
G1 X86.283 Y91.344 E57.8154
G1 X86.557 Y91.032 E57.83094
G1 X86.775 Y90.678 E57.84649
G1 X86.93 Y90.293 E57.86202
G1 X87.018 Y89.886 E57.8776
G1 X87.036 Y89.47 E57.89319
G1 X86.982 Y89.058 E57.90873
G1 X86.861 Y88.661 E57.92426
G1 X86.674 Y88.29 E57.93981
G1 X86.426 Y87.954 E57.95543
G1 X86.125 Y87.667 E57.971
G1 X85.781 Y87.434 E57.98654
G1 X85.403 Y87.264 E58.00205
G1 X85.001 Y87.158 E58.01761
G1 X84.586 Y87.122 E58.03319
G1 X84.171 Y87.158 E58.04878
G1 X83.769 Y87.263 E58.06433
G1 X83.39 Y87.434 E58.07988
G1 X83.045 Y87.667 E58.09546
G1 X82.744 Y87.955 E58.11105
G1 X82.498 Y88.29 E58.1266
G1 X82.311 Y88.661 E58.14215
G1 X82.19 Y89.058 E58.15768
G1 X82.136 Y89.47 E58.17322
G1 X82.154 Y89.885 E58.18877
G1 X82.241 Y90.292 E58.20434
G1 X82.397 Y90.678 E58.21992
G1 X82.615 Y91.032 E58.23547
G1 X82.889 Y91.344 E58.25101
G1 X83.213 Y91.605 E58.26658
G1 X83.575 Y91.809 E58.28213
G0 F1500 X83.534 Y91.9
G0 X82.097 Y99.469
G0 X82.203 Y100.303
G0 X82.583 Y101.055
G0 X82.927 Y101.384
G0 X83.534 Y101.9
G0 X83.575 Y101.809
G1 F1200 X83.969 Y101.947 E58.29775
G1 X84.378 Y102.017 E58.31327
G1 X84.793 Y102.017 E58.3288
G1 X85.203 Y101.947 E58.34437
G1 X85.597 Y101.809 E58.35999
