;FLAVOR:Marlin
;TIME:5246
;Filament used: 4.12478m
;Layer height: 0.2
;Generated with Cura_SteamEngine 3.6.0
M140 S55
M105
M190 S55
M104 S195
M105
M109 S195
M82 ;absolute extrusion mode
G21 ;metric values
G90 ;absolute positioning
M82 ;set extruder to absolute mode
M107 ;start with the fan off
G28 X0 Y0 ;move X/Y to min endstops
G28 Z0 ;move Z to min endstops
G1 Z15.0 F9000 ;move the platform down 15mm
G92 E0 ;zero the extruded length
G1 F200 E3 ;extrude 3mm of feed stock
G92 E0 ;zero the extruded length again
G1 F9000
;Put printing message on LCD screen
M117 Printing...
G92 E0
G1 F900 E-4
;LAYER_COUNT:14
;LAYER:0
M107
G0 F1800 X45.396 Y65.913 Z0.2
;TYPE:SKIRT
G1 F900 E0
G1 F2400 X45.869 Y65.639 E0.01364
G1 X46.378 Y65.436 E0.02731
G1 X46.91 Y65.309 E0.04095
G1 X47.509 Y65.261 E0.05594
G1 X102.993 Y65.26 E1.43999
G1 X103.109 Y65.262 E1.44289
G1 X106.608 Y65.37 E1.53021
G1 X113.231 Y65.252 E1.69545
G1 X113.299 Y65.251 E1.69715
G1 X162.992 Y65.26 E2.93674
G1 X163.538 Y65.3 E2.9504
G1 X164.072 Y65.419 E2.96405
G1 X164.583 Y65.615 E2.9777
G1 X165.06 Y65.883 E2.99135
G1 X165.494 Y66.217 E3.00501
G1 X165.873 Y66.611 E3.01865
G1 X166.192 Y67.056 E3.0323
G1 X166.442 Y67.543 E3.04596
G1 X166.619 Y68.061 E3.05961
G1 X166.73 Y68.729 E3.07651
G1 X166.897 Y70.944 E3.13192
G1 X167.526 Y76.426 E3.26956
G1 X168.445 Y81.758 E3.40453
G1 X169.676 Y87.079 E3.54077
G1 X170.395 Y89.681 E3.60811
G1 X172.078 Y94.893 E3.74473
G1 X173.498 Y98.674 E3.84548
G1 X173.652 Y99.2 E3.85915
G1 X173.729 Y99.742 E3.87281
G1 X173.725 Y100.289 E3.88646
G1 X173.642 Y100.83 E3.90011
G1 X173.425 Y101.49 E3.91744
G1 X159.941 Y132.467 E4.7602
G1 X159.687 Y132.951 E4.77383
G1 X159.365 Y133.394 E4.78749
G1 X158.981 Y133.784 E4.80115
G1 X158.545 Y134.115 E4.8148
G1 X158.066 Y134.379 E4.82845
G1 X157.553 Y134.57 E4.8421
G1 X157.017 Y134.685 E4.85578
G1 X156.504 Y134.72 E4.8686
G1 X53.509 Y134.74 E7.43782
G1 X52.963 Y134.7 E7.45148
G1 X52.429 Y134.581 E7.46513
G1 X51.917 Y134.386 E7.47879
G1 X51.44 Y134.118 E7.49244
G1 X51.006 Y133.784 E7.5061
G1 X50.626 Y133.39 E7.51976
G1 X50.308 Y132.945 E7.5334
G1 X50.07 Y132.487 E7.54628
G1 X36.574 Y101.494 E8.38952
G1 X36.393 Y100.978 E8.40316
G1 X36.288 Y100.44 E8.41683
G1 X36.263 Y99.894 E8.43047
G1 X36.318 Y99.349 E8.44413
G1 X36.533 Y98.598 E8.46362
G1 X37.641 Y95.844 E8.53767
G1 X39.453 Y90.696 E8.67381
G1 X40.98 Y85.425 E8.8107
G1 X41.618 Y82.808 E8.87789
G1 X42.682 Y77.484 E9.01333
G1 X43.449 Y72.064 E9.14988
G1 X43.776 Y68.653 E9.23536
G1 X43.868 Y68.114 E9.249
G1 X44.037 Y67.593 E9.26266
G1 X44.281 Y67.103 E9.27631
G1 X44.593 Y66.653 E9.28997
G1 X44.967 Y66.254 E9.30362
G1 X45.396 Y65.913 E9.31729
G0 F1800 X45.673 Y66.09
G1 F2400 X46.137 Y65.846 E9.33036
G1 X46.633 Y65.674 E9.34346
G1 X47.15 Y65.58 E9.35657
G1 X47.509 Y65.561 E9.36553
G1 X102.993 Y65.56 E10.74959
G1 X103.1 Y65.562 E10.75226
G1 X106.604 Y65.67 E10.83971
G1 X113.236 Y65.552 E11.00517
G1 X113.299 Y65.551 E11.00674
G1 X162.992 Y65.56 E12.24634
G1 X163.515 Y65.6 E12.25942
G1 X164.026 Y65.719 E12.27251
G1 X164.514 Y65.914 E12.28562
G1 X164.966 Y66.181 E12.29871
G1 X165.372 Y66.513 E12.3118
G1 X165.723 Y66.904 E12.3249
G1 X166.011 Y67.343 E12.338
G1 X166.229 Y67.82 E12.35108
G1 X166.372 Y68.325 E12.36418
G1 X166.431 Y68.751 E12.3749
G1 X166.6 Y71.001 E12.43119
G1 X167.225 Y76.441 E12.56778
G1 X168.156 Y81.842 E12.7045
G1 X169.384 Y87.154 E12.8405
G1 X170.104 Y89.758 E12.9079
G1 X171.794 Y94.99 E13.04505
G1 X173.217 Y98.78 E13.14604
G1 X173.363 Y99.284 E13.15912
G1 X173.432 Y99.805 E13.17223
G1 X173.421 Y100.329 E13.18531
G1 X173.33 Y100.846 E13.1984
G1 X173.15 Y101.37 E13.21222
G1 X159.666 Y132.347 E14.05498
G1 X159.421 Y132.811 E14.06807
G1 X159.108 Y133.232 E14.08116
G1 X158.734 Y133.601 E14.09426
G1 X158.309 Y133.909 E14.10736
G1 X157.842 Y134.149 E14.12045
G1 X157.344 Y134.316 E14.13356
G1 X156.827 Y134.405 E14.14664
G1 X156.504 Y134.42 E14.15471
G1 X53.509 Y134.44 E16.72393
G1 X52.985 Y134.4 E16.73704
G1 X52.474 Y134.281 E16.75013
G1 X51.986 Y134.086 E16.76324
G1 X51.534 Y133.82 E16.77632
G1 X51.128 Y133.487 E16.78942
G1 X50.776 Y133.097 E16.80252
G1 X50.488 Y132.659 E16.8156
G1 X50.345 Y132.367 E16.82371
G1 X36.849 Y101.374 E17.66695
G1 X36.677 Y100.879 E17.68002
G1 X36.581 Y100.362 E17.69314
G1 X36.566 Y99.837 E17.70624
G1 X36.63 Y99.316 E17.71934
G1 X36.811 Y98.71 E17.73511
G1 X37.922 Y95.947 E17.8094
G1 X39.739 Y90.784 E17.94593
G1 X41.267 Y85.512 E18.08286
G1 X41.911 Y82.87 E18.15069
G1 X42.978 Y77.529 E18.28656
G1 X43.748 Y72.09 E18.42359
G1 X44.075 Y68.682 E18.50899
G1 X44.164 Y68.164 E18.5221
G1 X44.332 Y67.667 E18.53519
G1 X44.572 Y67.2 E18.54828
G1 X44.881 Y66.776 E18.56137
G1 X45.251 Y66.403 E18.57448
G1 X45.673 Y66.09 E18.58758
G0 F1800 X45.947 Y66.275
G1 F2400 X46.401 Y66.062 E18.60009
G1 X46.883 Y65.924 E18.6126
G1 X47.509 Y65.861 E18.62829
G1 X102.993 Y65.86 E20.01235
G1 X103.09 Y65.862 E20.01477
G1 X106.6 Y65.971 E20.10237
G1 X113.242 Y65.852 E20.26808
G1 X113.299 Y65.851 E20.2695
G1 X162.992 Y65.86 E21.5091
G1 X163.492 Y65.9 E21.52161
G1 X163.979 Y66.019 E21.53412
G1 X164.441 Y66.214 E21.54663
G1 X164.867 Y66.479 E21.55914
G1 X165.245 Y66.809 E21.57166
G1 X165.565 Y67.195 E21.58417
G1 X165.821 Y67.626 E21.59667
G1 X166.005 Y68.093 E21.60919
G1 X166.132 Y68.774 E21.62647
G1 X166.302 Y71.033 E21.68298
G1 X166.928 Y76.489 E21.81998
G1 X167.859 Y81.888 E21.95664
G1 X169.095 Y87.234 E22.09352
G1 X169.814 Y89.835 E22.16083
G1 X171.514 Y95.099 E22.29882
G1 X172.936 Y98.885 E22.3997
G1 X173.074 Y99.368 E22.41224
G1 X173.134 Y99.866 E22.42475
G1 X173.115 Y100.367 E22.43725
G1 X173.016 Y100.859 E22.44977
G1 X172.875 Y101.25 E22.46014
G1 X159.391 Y132.227 E23.3029
G1 X159.155 Y132.67 E23.31542
G1 X158.852 Y133.069 E23.32792
G1 X158.489 Y133.415 E23.34043
G1 X158.075 Y133.7 E23.35297
G1 X157.622 Y133.914 E23.36546
G1 X157.141 Y134.055 E23.37797
G1 X156.504 Y134.12 E23.39394
G1 X53.509 Y134.14 E25.96316
G1 X53.009 Y134.1 E25.97567
G1 X52.521 Y133.981 E25.9882
G1 X52.059 Y133.787 E26.0007
G1 X51.633 Y133.521 E26.01323
G1 X51.255 Y133.192 E26.02573
G1 X50.934 Y132.806 E26.03825
G1 X50.62 Y132.248 E26.05423
G1 X37.124 Y101.255 E26.89747
G1 X36.961 Y100.78 E26.91
G1 X36.875 Y100.286 E26.9225
G1 X36.869 Y99.784 E26.93503
G1 X36.943 Y99.288 E26.94754
G1 X37.089 Y98.822 E26.95972
G1 X38.206 Y96.044 E27.03441
G1 X40.023 Y90.883 E27.1709
G1 X41.562 Y85.572 E27.30883
G1 X42.201 Y82.95 E27.37615
G1 X43.274 Y77.578 E27.5128
G1 X44.044 Y72.139 E27.64983
G1 X44.373 Y68.71 E27.73576
G1 X44.461 Y68.216 E27.74828
G1 X44.626 Y67.743 E27.76077
G1 X44.863 Y67.301 E27.77328
G1 X45.168 Y66.903 E27.78579
G1 X45.533 Y66.558 E27.79832
G1 X45.947 Y66.275 E27.81083
;MESH:IM_Logo_accents.stl
G0 F1800 X48.514 Y69.75
;TYPE:WALL-INNER
G1 F2400 X48.715 Y69.75 E27.81585
G1 X48.716 Y69.75 E27.81587
G1 X61.919 Y69.75 E28.14522
G1 X63.168 Y74.591 E28.26993
G1 X64.33 Y74.591 E28.29892
G1 X65.581 Y69.75 E28.42365
G1 X72.075 Y69.75 E28.58564
G1 X75.147 Y74.877 E28.73473
G1 X76.286 Y74.502 E28.76465
G1 X75.842 Y69.914 E28.87963
G1 X75.827 Y69.75 E28.88374
G1 X75.991 Y69.75 E28.88632
G1 X75.992 Y69.75 E28.88634
G1 X89.297 Y69.75 E29.21824
G1 X91.297 Y100.75 E29.99314
G1 X94.607 Y100.75 E30.07571
G1 X94.608 Y100.75 E30.07574
G1 X94.839 Y100.75 E30.0815
G1 X94.744 Y100.961 E30.08485
G1 X91.225 Y108.75 E30.29806
G1 X97.174 Y108.75 E30.44645
G1 X96.788 Y100.75 E30.64625
G1 X96.909 Y100.75 E30.64927
G1 X96.905 Y100.728
G1 X96.747 Y99.922 E30.66975
G1 X96.72 Y99.37 E30.68354
G1 X96.638 Y99.355 E30.68562
G1 X90.943 Y69.927 E31.43332
G1 X90.909 Y69.75 E31.43782
G1 X91.089 Y69.75 E31.44058
G1 X91.09 Y69.75 E31.44061
G1 X102.381 Y69.75 E31.72226
G1 X103.542 Y75.75 E31.87471
G1 X112.033 Y75.75 E32.08652
G1 X113.581 Y69.75 E32.24109
G1 X124.838 Y69.75 E32.5219
G1 X124.839 Y69.75 E32.52192
G1 X125.031 Y69.75 E32.52671
G1 X124.983 Y69.936 E32.52961
G1 X117.08 Y100.564 E33.31866
G1 X117.032 Y100.75 E33.32345
G1 X117.224 Y100.75 E33.32635
G1 X117.225 Y100.75 E33.32637
G1 X123.681 Y100.75 E33.48742
G1 X126.681 Y69.75 E34.26433
G1 X140.897 Y69.75 E34.61895
G1 X140.898 Y69.75 E34.61897
G1 X141.08 Y69.75 E34.62351
G1 X141.044 Y69.929 E34.6263
G1 X139.943 Y75.289 E34.7628
G1 X140.972 Y75.807 E34.79154
G1 X146.339 Y69.75 E34.99341
G1 X161.765 Y69.75 E35.37821
G1 X161.766 Y69.75 E35.37824
G1 X161.971 Y69.75 E35.38335
G1 X161.908 Y69.946 E35.38641
G1 X152.454 Y99.25 E36.1545
G1 X148.46 Y99.25 E36.25413
G1 X146.078 Y106.323 E36.44031
G1 X147.086 Y106.95 E36.46992
G1 X153.311 Y100.75 E36.68908
G1 X168.628 Y100.75 E37.07116
G1 X168.629 Y100.75 E37.07119
G1 X168.856 Y100.75 E37.07685
G1 X168.765 Y100.959 E37.08016
G1 X156.008 Y130.25 E37.87712
G1 X144.716 Y130.25 E38.1588
G1 X144.715 Y130.25 E38.15882
G1 X144.514 Y130.25 E38.16384
G1 X144.573 Y130.057 E38.16685
G1 X146.147 Y124.922 E38.30082
G1 X145.143 Y124.318 E38.33005
G1 X139.189 Y130.25 E38.53971
G1 X53.992 Y130.25 E40.66495
G1 X41.235 Y100.959 E41.46191
G1 X41.144 Y100.75 E41.4676
G1 X41.371 Y100.75 E41.47089
G1 X41.372 Y100.75 E41.47092
G1 X57.812 Y100.75 E41.88101
G1 X57.813 Y100.75 E41.88104
G1 X58.014 Y100.75 E41.88605
G1 X57.955 Y100.557 E41.88906
G1 X48.573 Y69.943 E42.68779
G1 X48.514 Y69.75 E42.6908
G0 F1800 X49.293 Y70.325
G1 F2400 X49.352 Y70.518 E42.69584
G1 X57.98 Y98.675 E43.43045
G1 X68.518 Y98.675 E43.69332
G1 X71.716 Y88.177 E43.96708
G1 X71.81 Y87.868 E43.97513
G1 X71.984 Y88.14 E43.97952
G1 X78.726 Y98.675 E44.29153
G1 X90.428 Y98.675 E44.58344
G1 X90.429 Y98.675 E44.58346
G1 X90.587 Y98.675 E44.5874
G1 X90.577 Y98.517 E44.58991
G1 X88.758 Y70.325 E45.29463
G1 X76.626 Y70.325 E45.59726
G1 X76.625 Y70.325 E45.59729
G1 X76.461 Y70.325 E45.60138
G1 X76.476 Y70.489 E45.60397
G1 X77.303 Y79.041 E45.8183
G1 X77.366 Y79.702 E45.83486
G1 X77.026 Y79.133 E45.84331
G1 X77.025 Y79.132 E45.84335
G1 X71.75 Y70.325 E46.09943
G1 X66.027 Y70.325 E46.24219
G1 X63.893 Y78.581 E46.45491
G1 X63.748 Y79.142 E46.46936
G1 X63.604 Y78.581 E46.47681
G1 X61.473 Y70.325 E46.68951
G1 X49.495 Y70.325 E46.9883
G1 X49.494 Y70.325 E46.98833
G1 X49.293 Y70.325 E46.99133
G1 F900 E42.99133
G0 F1800 X58.179 Y98.407
G0 X68.319 Y98.407
G0 X71.664 Y90.322
G1 F900 E46.99133
G1 F2400 X68.545 Y100.557 E47.25823
G1 X68.487 Y100.75 E47.26326
G1 X68.688 Y100.75 E47.26626
G1 X68.689 Y100.75 E47.26628
G1 X73.412 Y100.75 E47.3841
G1 X75.363 Y108.75 E47.58951
G1 X77.61 Y108.75 E47.64556
G1 X78.78 Y99.826 E47.87008
G1 X72.615 Y90.191 E48.15541
G1 X71.664 Y90.322 E48.17936
G1 F900 E44.17936
G0 F1800 X68.319 Y98.407
G0 X60.793 Y101.325
G1 F900 E48.17936
G1 F2400 X60.852 Y101.518 E48.18439
G1 X69.48 Y129.675 E48.91901
G1 X95.952 Y129.675 E49.57935
G1 X95.953 Y129.675 E49.57938
G1 X96.109 Y129.675 E49.58327
G1 X96.102 Y129.519 E49.58576
G1 X95.125 Y109.325 E50.09009
G1 X90.566 Y109.325 E50.20382
G1 X90.565 Y109.325 E50.20384
G1 X90.334 Y109.325 E50.2096
G1 X90.429 Y109.114 E50.21295
G1 X93.853 Y101.536 E50.42039
G1 X93.948 Y101.325 E50.42616
G1 X93.717 Y101.325 E50.4295
G1 X93.716 Y101.325 E50.42953
G1 X79.162 Y101.325 E50.79258
G1 X78.116 Y109.325 E50.99384
G1 X74.912 Y109.325 E51.07376
G1 X72.969 Y101.325 E51.27912
G1 X60.995 Y101.325 E51.57782
G1 X60.994 Y101.325 E51.57784
G1 X60.793 Y101.325 E51.58084
G1 F900 E47.58084
G0 F1800 X42.022 Y101.325
G1 F900 E51.58084
G1 F2400 X42.113 Y101.534 E51.58653
G1 X54.367 Y129.675 E52.35217
G1 X66.505 Y129.675 E52.65496
G1 X66.506 Y129.675 E52.65498
G1 X66.707 Y129.675 E52.66
G1 X66.648 Y129.482 E52.66301
G1 X58.02 Y101.325 E53.39762
G1 X42.25 Y101.325 E53.79101
G1 X42.249 Y101.325 E53.79103
G1 X42.022 Y101.325 E53.79432
G1 F900 E49.79432
G0 F1800 X73.82 Y101.325
G0 X75.575 Y108.481
G0 X77.373 Y108.48
G0 X78.32 Y101.325
G0 X94.868 Y101.325
G0 X91.658 Y108.471
G0 X96.886 Y108.477
G0 X97.391 Y101.325
G1 F900 E53.79432
G1 F2400 X97.398 Y101.481 E53.79822
G1 X98.763 Y129.675 E54.50235
G1 X125.425 Y129.675 E55.16743
G1 X131.331 Y101.505 E55.88541
G1 X131.368 Y101.325 E55.89
G1 X131.185 Y101.325 E55.89279
G1 X131.184 Y101.325 E55.89282
G1 X97.548 Y101.325 E56.73187
G1 X97.547 Y101.325 E56.73189
G1 X97.391 Y101.325 E56.73438
G1 F900 E52.73438
G0 F1800 X91.606 Y70.325
G1 F900 E56.73438
G1 F2400 X91.64 Y70.502 E56.73888
G1 X97.093 Y98.675 E57.4547
G1 X116.973 Y98.675 E57.95061
G1 X124.241 Y70.511 E58.67618
G1 X124.289 Y70.325 E58.68097
G1 X124.097 Y70.325 E58.68387
G1 X124.096 Y70.325 E58.6839
G1 X114.027 Y70.325 E58.93507
G1 X112.479 Y76.325 E59.08964
G1 X103.068 Y76.325 E59.3244
G1 X101.907 Y70.325 E59.47684
G1 X91.787 Y70.325 E59.72929
G1 X91.786 Y70.325 E59.72931
G1 X91.606 Y70.325 E59.73208
G1 F900 E55.73208
G0 F1800 X102.759 Y70.325
G0 X103.764 Y75.48
G0 X111.825 Y75.481
G0 X113.373 Y69.481
G0 X125.388 Y69.474
G0 X117.387 Y100.474
G0 X123.435 Y100.479
G0 X127.203 Y70.325
G1 F900 E59.73208
G1 F2400 X124.476 Y98.511 E60.43846
G1 X124.461 Y98.675 E60.44257
G1 X124.625 Y98.675 E60.44515
G1 X124.626 Y98.675 E60.44518
G1 X135.329 Y98.675 E60.71216
G1 X143 Y90.011 E61.00083
G1 X143.363 Y89.6 E61.01451
G1 X143.259 Y90.139 E61.02159
G1 X141.64 Y98.498 E61.23398
G1 X141.606 Y98.675 E61.23848
G1 X141.786 Y98.675 E61.24124
G1 X141.787 Y98.675 E61.24126
G1 X152.036 Y98.675 E61.49693
G1 X161.118 Y70.52 E62.23489
G1 X161.18 Y70.325 E62.24
G1 X160.976 Y70.325 E62.24303
G1 X160.975 Y70.325 E62.24306
G1 X146.596 Y70.325 E62.60174
G1 X138.872 Y79.044 E62.89231
G1 X138.87 Y79.046 E62.89238
G1 X138.5 Y79.463 E62.90629
G1 X138.611 Y78.916 E62.91349
G1 X138.612 Y78.914 E62.91355
G1 X140.341 Y70.504 E63.12772
G1 X140.377 Y70.325 E63.13228
G1 X140.195 Y70.325 E63.13506
G1 X140.194 Y70.325 E63.13508
G1 X127.203 Y70.325 E63.45915
G1 F900 E59.45915
G0 F1800 X124.762 Y98.401
G0 X135.044 Y99.865
G1 F900 E63.45915
G1 F2400 X135.441 Y100.75 E63.48334
G1 X140.619 Y100.75 E63.61251
G1 X141.985 Y93.689 E63.79191
G1 X140.957 Y93.183 E63.82049
G1 X135.044 Y99.865 E64.04307
G0 F1800 X134.075 Y101.325
G1 F2400 X128.169 Y129.495 E64.76105
G1 X128.132 Y129.675 E64.76563
G1 X128.315 Y129.675 E64.76843
G1 X128.316 Y129.675 E64.76845
G1 X138.953 Y129.675 E65.03379
G1 X147.654 Y121.007 E65.34016
G1 X148.078 Y120.585 E65.35508
G1 X147.903 Y121.157 E65.36277
G1 X145.352 Y129.482 E65.57997
G1 X145.293 Y129.675 E65.585
G1 X145.494 Y129.675 E65.588
G1 X145.495 Y129.675 E65.58803
G1 X155.633 Y129.675 E65.84092
G1 X167.887 Y101.534 E66.60657
G1 X167.978 Y101.325 E66.61225
G1 X167.751 Y101.325 E66.61555
G1 X167.75 Y101.325 E66.61557
G1 X153.547 Y101.325 E66.96987
G1 X144.375 Y110.464 E67.29285
G1 X143.924 Y110.913 E67.30873
G1 X144.127 Y110.31 E67.31688
G1 X147.089 Y101.522 E67.54821
G1 X147.155 Y101.325 E67.55339
G1 X146.948 Y101.325 E67.55646
G1 X146.947 Y101.325 E67.55649
G1 X134.075 Y101.325 E67.87758
G0 F1800 X134.319 Y101.625
G1 F2400 X128.538 Y129.195 E68.58027
G1 X128.501 Y129.375 E68.58486
G1 X128.684 Y129.375 E68.58765
G1 X128.685 Y129.375 E68.58767
G1 X138.829 Y129.375 E68.84072
G1 X148.293 Y119.946 E69.17397
G1 X148.717 Y119.524 E69.18889
G1 X148.542 Y120.096 E69.19658
G1 X145.758 Y129.182 E69.43363
G1 X145.699 Y129.375 E69.43866
G1 X145.9 Y129.375 E69.44166
G1 X145.901 Y129.375 E69.44169
G1 X155.436 Y129.375 E69.67954
G1 X167.429 Y101.834 E70.42886
G1 X167.52 Y101.625 E70.43455
G1 X167.293 Y101.625 E70.43784
G1 X167.292 Y101.625 E70.43787
G1 X153.671 Y101.625 E70.77765
G1 X143.683 Y111.577 E71.12936
G1 X143.232 Y112.026 E71.14524
G1 X143.435 Y111.423 E71.15339
G1 X146.671 Y101.822 E71.40612
G1 X146.737 Y101.625 E71.41131
G1 X146.53 Y101.625 E71.41437
G1 X146.529 Y101.625 E71.4144
G1 X134.319 Y101.625 E71.71898
G0 F1800 X135.635 Y100.45
G1 F2400 X140.371 Y100.45 E71.83712
G1 X141.647 Y93.857 E72.00463
G1 X141.03 Y93.553 E72.02179
G1 X135.397 Y99.919 E72.23383
G1 X135.635 Y100.45 E72.24835
G0 F1800 X135.194 Y98.375
G1 F2400 X143.504 Y88.989 E72.56106
G1 X143.867 Y88.578 E72.57474
G1 X143.763 Y89.117 E72.58183
G1 X142.004 Y98.198 E72.81256
G1 X141.97 Y98.375 E72.81706
G1 X142.15 Y98.375 E72.81982
G1 X142.151 Y98.375 E72.81985
G1 X151.818 Y98.375 E73.06099
G1 X160.706 Y70.82 E73.78323
G1 X160.768 Y70.625 E73.78833
G1 X160.564 Y70.625 E73.79137
G1 X160.563 Y70.625 E73.79139
