;FLAVOR:Marlin
;TIME:10272
;Filament used: 8.66733m
;Layer height: 0.2
;Generated with Cura_SteamEngine 3.6.0
M140 S55
M105
M190 S55
M104 S195
M105
M109 S195
M82 ;absolute extrusion mode
G21 ;metric values
G90 ;absolute positioning
M82 ;set extruder to absolute mode
M107 ;start with the fan off
G28 X0 Y0 ;move X/Y to min endstops
G28 Z0 ;move Z to min endstops
G1 Z15.0 F9000 ;move the platform down 15mm
G92 E0 ;zero the extruded length
G1 F200 E3 ;extrude 3mm of feed stock
G92 E0 ;zero the extruded length again
G1 F9000
;Put printing message on LCD screen
M117 Printing...
G92 E0
G1 F900 E-4
;LAYER_COUNT:16
;LAYER:0
M107
G0 F1800 X45.729 Y13.565 Z0.2
;TYPE:SKIRT
G1 F900 E0
G1 F2400 X46.483 Y6.379 E0.18024
G1 X46.58 Y5.84 E0.1939
G1 X46.754 Y5.321 E0.20756
G1 X47.002 Y4.833 E0.22121
G1 X47.318 Y4.386 E0.23487
G1 X47.696 Y3.99 E0.24852
G1 X48.127 Y3.653 E0.26217
G1 X48.603 Y3.383 E0.27582
G1 X49.114 Y3.185 E0.28949
G1 X49.647 Y3.063 E0.30313
G1 X50.215 Y3.02 E0.31734
G1 X101.861 Y3.041 E1.60566
G1 X102.006 Y3.044 E1.60927
G1 X106.594 Y3.224 E1.72381
G1 X112.119 Y3.145 E1.86164
G1 X114.778 Y3.014 E1.92805
G1 X114.971 Y3.009 E1.93287
G1 X144.56 Y3.077 E2.67097
G1 X147.479 Y3.01 E2.74381
G1 X147.568 Y3.009 E2.74603
G1 X160.247 Y3.018 E3.06231
G1 X160.793 Y3.058 E3.07596
G1 X161.327 Y3.178 E3.08962
G1 X161.838 Y3.374 E3.10327
G1 X162.315 Y3.642 E3.11692
G1 X162.748 Y3.977 E3.13057
G1 X163.128 Y4.371 E3.14423
G1 X163.446 Y4.816 E3.15787
G1 X163.696 Y5.303 E3.17153
G1 X163.872 Y5.821 E3.18517
G1 X163.985 Y6.507 E3.20252
G1 X164.203 Y9.629 E3.28058
G1 X164.825 Y15.063 E3.41702
G1 X165.756 Y20.472 E3.55393
G1 X166.311 Y23.041 E3.6195
G1 X166.969 Y25.716 E3.68821
G1 X168.501 Y30.973 E3.8248
G1 X170.461 Y36.61 E3.97368
G1 X170.603 Y37.138 E3.98732
G1 X170.666 Y37.682 E4.00098
G1 X170.649 Y38.229 E4.01463
G1 X170.575 Y38.677 E4.02596
G1 X169.377 Y43.913 E4.15994
G1 X168.46 Y49.292 E4.29606
G1 X167.852 Y54.684 E4.43142
G1 X167.549 Y60.122 E4.56728
G1 X167.553 Y65.566 E4.70308
G1 X167.866 Y71 E4.83885
G1 X168.486 Y76.413 E4.97477
G1 X169.417 Y81.82 E5.11163
G1 X169.972 Y84.389 E5.17719
G1 X170.63 Y87.064 E5.24591
G1 X172.166 Y92.331 E5.38277
G1 X173.535 Y96.314 E5.48783
G1 X173.675 Y96.844 E5.5015
G1 X173.736 Y97.387 E5.51513
G1 X173.717 Y97.935 E5.52881
G1 X173.569 Y98.65 E5.54703
G1 X172.242 Y102.905 E5.65821
G1 X170.869 Y108.219 E5.79512
G1 X170.297 Y110.89 E5.86326
G1 X169.825 Y113.461 E5.92846
G1 X169.057 Y118.928 E6.06618
G1 X168.605 Y124.339 E6.20163
G1 X168.461 Y129.797 E6.33782
G1 X168.624 Y135.223 E6.47324
G1 X169.094 Y140.646 E6.60902
G1 X169.873 Y146.05 E6.74522
G1 X170.955 Y151.387 E6.88106
G1 X171.594 Y153.976 E6.94758
G1 X173.582 Y160.638 E7.12101
G1 X173.7 Y161.172 E7.13465
G1 X173.739 Y161.718 E7.1483
G1 X173.698 Y162.264 E7.16196
G1 X173.578 Y162.798 E7.17561
G1 X173.427 Y163.207 E7.18649
G1 X159.932 Y194.199 E8.0297
G1 X159.678 Y194.684 E8.04336
G1 X159.355 Y195.126 E8.05701
G1 X158.972 Y195.517 E8.07067
G1 X158.536 Y195.847 E8.08431
G1 X158.056 Y196.111 E8.09797
G1 X157.543 Y196.302 E8.11163
G1 X157.008 Y196.417 E8.12528
G1 X156.494 Y196.452 E8.13813
G1 X53.509 Y196.452 E10.7071
G1 X52.963 Y196.412 E10.72076
G1 X52.429 Y196.293 E10.7344
G1 X51.918 Y196.098 E10.74805
G1 X51.44 Y195.83 E10.76172
G1 X51.007 Y195.495 E10.77537
G1 X50.627 Y195.101 E10.78903
G1 X50.308 Y194.656 E10.80269
G1 X50.071 Y194.2 E10.81551
G1 X36.573 Y163.211 E11.65868
G1 X36.392 Y162.694 E11.67234
G1 X36.287 Y162.157 E11.68599
G1 X36.262 Y161.61 E11.69965
G1 X36.317 Y161.065 E11.71331
G1 X36.417 Y160.643 E11.72413
G1 X38.444 Y153.834 E11.90135
G1 X39.675 Y148.491 E12.03812
G1 X40.151 Y145.915 E12.10347
G1 X40.925 Y140.481 E12.24039
G1 X41.386 Y135.054 E12.37625
G1 X41.539 Y129.596 E12.51246
G1 X41.385 Y124.17 E12.64787
G1 X40.923 Y118.746 E12.78366
G1 X40.157 Y113.371 E12.91909
G1 X39.076 Y107.983 E13.05617
G1 X38.449 Y105.431 E13.12173
G1 X36.417 Y98.598 E13.29955
G1 X36.299 Y98.064 E13.3132
G1 X36.261 Y97.518 E13.32685
G1 X36.303 Y96.972 E13.34051
G1 X36.465 Y96.309 E13.35754
G1 X37.882 Y92.19 E13.46619
G1 X39.407 Y86.933 E13.60274
G1 X40.051 Y84.305 E13.67023
G1 X40.612 Y81.688 E13.737
G1 X41.536 Y76.274 E13.874
G1 X42.147 Y70.877 E14.00949
G1 X42.451 Y65.443 E14.14525
G1 X42.449 Y59.998 E14.28108
G1 X42.138 Y54.565 E14.41683
G1 X41.52 Y49.151 E14.55276
G1 X40.591 Y43.749 E14.68949
G1 X40.034 Y41.167 E14.75538
G1 X39.419 Y38.65 E14.82001
G1 X39.328 Y38.11 E14.83367
G1 X39.317 Y37.563 E14.84732
G1 X39.386 Y37.02 E14.86098
G1 X39.555 Y36.433 E14.87621
G1 X41.214 Y32.049 E14.99314
G1 X42.882 Y26.847 E15.12941
G1 X44.253 Y21.556 E15.26576
G1 X44.816 Y18.924 E15.3329
G1 X45.729 Y13.565 E15.4685
G0 F1800 X46.028 Y13.602
G1 F2400 X46.782 Y6.41 E15.64889
G1 X46.876 Y5.894 E15.66198
G1 X47.048 Y5.398 E15.67507
G1 X47.293 Y4.933 E15.68818
G1 X47.605 Y4.511 E15.70128
G1 X47.978 Y4.142 E15.71436
G1 X48.403 Y3.833 E15.72747
G1 X48.869 Y3.592 E15.74056
G1 X49.367 Y3.425 E15.75366
G1 X49.884 Y3.336 E15.76675
G1 X50.214 Y3.32 E15.77499
G1 X101.86 Y3.341 E17.0633
G1 X101.994 Y3.344 E17.06665
G1 X106.587 Y3.524 E17.18131
G1 X112.11 Y3.445 E17.31909
G1 X114.793 Y3.313 E17.3861
G1 X114.97 Y3.309 E17.39052
G1 X144.567 Y3.377 E18.12882
G1 X147.486 Y3.31 E18.20165
G1 X147.567 Y3.309 E18.20367
G1 X160.246 Y3.318 E18.51995
G1 X160.77 Y3.358 E18.53306
G1 X161.281 Y3.478 E18.54616
G1 X161.768 Y3.673 E18.55924
G1 X162.22 Y3.94 E18.57234
G1 X162.626 Y4.273 E18.58544
G1 X162.977 Y4.663 E18.59853
G1 X163.265 Y5.102 E18.61162
G1 X163.483 Y5.58 E18.62473
G1 X163.626 Y6.085 E18.63782
G1 X163.686 Y6.528 E18.64897
G1 X163.905 Y9.661 E18.72732
G1 X164.528 Y15.11 E18.86413
G1 X165.46 Y20.523 E19.00114
G1 X166.023 Y23.129 E19.06765
G1 X166.676 Y25.783 E19.13583
G1 X168.213 Y31.055 E19.27281
G1 X170.178 Y36.708 E19.4221
G1 X170.312 Y37.216 E19.43521
G1 X170.367 Y37.738 E19.4483
G1 X170.343 Y38.262 E19.46139
G1 X170.282 Y38.61 E19.4702
G1 X169.084 Y43.848 E19.60424
G1 X168.163 Y49.245 E19.74081
G1 X167.554 Y54.651 E19.87652
G1 X167.249 Y60.123 E20.01323
G1 X167.253 Y65.583 E20.14943
G1 X167.566 Y71.016 E20.28518
G1 X168.19 Y76.46 E20.42187
G1 X169.121 Y81.871 E20.55883
G1 X169.684 Y84.477 E20.62534
G1 X170.337 Y87.13 E20.69349
G1 X171.877 Y92.411 E20.83072
G1 X173.252 Y96.412 E20.93625
G1 X173.384 Y96.92 E20.94934
G1 X173.438 Y97.442 E20.96243
G1 X173.412 Y97.966 E20.97552
G1 X173.282 Y98.56 E20.99069
G1 X171.954 Y102.818 E21.10195
G1 X170.581 Y108.131 E21.23884
G1 X170.002 Y110.839 E21.30792
G1 X169.521 Y113.456 E21.37429
G1 X168.76 Y118.879 E21.5109
G1 X168.306 Y124.324 E21.64719
G1 X168.16 Y129.793 E21.78367
G1 X168.324 Y135.24 E21.9196
G1 X168.796 Y140.68 E22.05581
G1 X169.577 Y146.101 E22.19244
G1 X170.665 Y151.469 E22.32907
G1 X171.296 Y154.026 E22.39476
G1 X173.295 Y160.723 E22.56911
G1 X173.406 Y161.236 E22.5822
G1 X173.439 Y161.76 E22.5953
G1 X173.391 Y162.283 E22.6084
G1 X173.265 Y162.793 E22.6215
G1 X173.152 Y163.087 E22.62936
G1 X159.657 Y194.079 E23.47257
G1 X159.412 Y194.543 E23.48566
G1 X159.098 Y194.965 E23.49878
G1 X158.725 Y195.334 E23.51187
G1 X158.3 Y195.642 E23.52496
G1 X157.833 Y195.882 E23.53806
G1 X157.335 Y196.048 E23.55115
G1 X156.818 Y196.137 E23.56424
G1 X156.494 Y196.152 E23.57233
G1 X53.509 Y196.152 E26.1413
G1 X52.986 Y196.112 E26.15439
G1 X52.474 Y195.993 E26.1675
G1 X51.987 Y195.798 E26.18058
G1 X51.535 Y195.531 E26.19368
G1 X51.128 Y195.199 E26.20678
G1 X50.777 Y194.809 E26.21987
G1 X50.489 Y194.37 E26.23297
G1 X50.346 Y194.08 E26.24103
G1 X36.848 Y163.091 E27.0842
G1 X36.676 Y162.595 E27.0973
G1 X36.58 Y162.079 E27.11039
G1 X36.565 Y161.554 E27.12349
G1 X36.629 Y161.033 E27.13659
G1 X36.704 Y160.729 E27.1444
G1 X38.735 Y153.907 E27.32196
G1 X39.969 Y148.55 E27.45909
G1 X40.448 Y145.962 E27.52474
G1 X41.223 Y140.512 E27.66206
G1 X41.686 Y135.071 E27.79828
G1 X41.839 Y129.612 E27.9345
G1 X41.684 Y124.155 E28.07068
G1 X41.219 Y118.696 E28.20735
G1 X40.453 Y113.322 E28.34276
G1 X39.37 Y107.925 E28.48008
G1 X38.74 Y105.356 E28.54606
G1 X36.704 Y98.513 E28.72415
G1 X36.593 Y98 E28.73725
G1 X36.561 Y97.476 E28.75034
G1 X36.609 Y96.953 E28.76344
G1 X36.749 Y96.407 E28.7775
G1 X38.166 Y92.29 E28.88611
G1 X39.694 Y87.021 E29.02297
G1 X40.345 Y84.366 E29.09116
G1 X40.909 Y81.733 E29.15833
G1 X41.833 Y76.321 E29.29528
G1 X42.445 Y70.91 E29.43112
G1 X42.751 Y65.442 E29.56774
G1 X42.749 Y59.981 E29.70396
G1 X42.438 Y54.549 E29.83968
G1 X41.816 Y49.101 E29.97647
G1 X40.888 Y43.702 E30.11312
G1 X40.327 Y41.105 E30.1794
G1 X39.71 Y38.578 E30.24429
G1 X39.625 Y38.06 E30.25738
G1 X39.619 Y37.536 E30.27045
G1 X39.693 Y37.016 E30.28356
G1 X39.835 Y36.539 E30.29597
G1 X41.504 Y32.129 E30.41359
G1 X43.166 Y26.945 E30.54939
G1 X44.546 Y21.622 E30.68656
G1 X45.114 Y18.965 E30.75434
G1 X46.028 Y13.602 E30.89005
G0 F1800 X46.324 Y13.652
G1 F2400 X47.08 Y6.441 E31.07092
G1 X47.172 Y5.948 E31.08343
G1 X47.341 Y5.476 E31.09593
G1 X47.583 Y5.037 E31.10844
G1 X47.891 Y4.641 E31.12095
G1 X48.259 Y4.3 E31.13347
G1 X48.676 Y4.021 E31.14598
G1 X49.132 Y3.811 E31.1585
G1 X49.615 Y3.677 E31.17101
G1 X50.214 Y3.62 E31.18602
G1 X101.86 Y3.641 E32.47433
G1 X101.982 Y3.643 E32.47738
G1 X106.598 Y3.824 E32.59261
G1 X112.128 Y3.745 E32.73057
G1 X114.807 Y3.613 E32.79748
G1 X114.969 Y3.609 E32.80152
G1 X144.573 Y3.677 E33.54
G1 X147.493 Y3.61 E33.61286
G1 X147.567 Y3.609 E33.6147
G1 X160.246 Y3.618 E33.93098
G1 X160.746 Y3.658 E33.9435
G1 X161.233 Y3.777 E33.956
G1 X161.696 Y3.972 E33.96853
G1 X162.121 Y4.238 E33.98104
G1 X162.499 Y4.568 E33.99356
G1 X162.819 Y4.954 E34.00606
G1 X163.075 Y5.386 E34.01859
G1 X163.258 Y5.853 E34.0311
G1 X163.386 Y6.549 E34.04876
G1 X163.604 Y9.67 E34.1268
G1 X164.232 Y15.16 E34.26464
G1 X165.163 Y20.565 E34.40145
G1 X165.732 Y23.2 E34.4687
G1 X166.387 Y25.866 E34.53718
G1 X167.931 Y31.161 E34.67477
G1 X169.894 Y36.807 E34.82388
G1 X170.021 Y37.292 E34.83638
G1 X170.069 Y37.791 E34.84889
G1 X170.037 Y38.292 E34.86141
G1 X169.99 Y38.544 E34.86781
G1 X168.787 Y43.804 E35.0024
G1 X167.867 Y49.197 E35.13888
G1 X167.254 Y54.638 E35.27546
G1 X166.949 Y60.106 E35.41207
G1 X166.953 Y65.583 E35.5487
G1 X167.268 Y71.049 E35.68527
G1 X167.893 Y76.51 E35.82239
G1 X168.824 Y81.913 E35.95915
G1 X169.393 Y84.548 E36.0264
G1 X170.048 Y87.213 E36.09486
G1 X171.592 Y92.504 E36.23235
G1 X172.968 Y96.509 E36.33798
G1 X173.093 Y96.995 E36.3505
G1 X173.139 Y97.495 E36.36303
G1 X173.105 Y97.995 E36.37553
G1 X172.996 Y98.471 E36.38771
G1 X171.666 Y102.736 E36.49915
G1 X170.283 Y108.088 E36.63704
G1 X169.712 Y110.754 E36.70506
G1 X169.225 Y113.41 E36.77241
G1 X168.461 Y118.847 E36.90937
G1 X168.006 Y124.308 E37.04607
G1 X167.861 Y129.782 E37.18267
G1 X168.025 Y135.266 E37.31953
G1 X168.498 Y140.714 E37.45594
G1 X169.282 Y146.151 E37.59297
G1 X170.371 Y151.528 E37.72982
G1 X171.011 Y154.121 E37.79645
G1 X173.007 Y160.809 E37.97055
G1 X173.112 Y161.3 E37.98308
G1 X173.138 Y161.801 E37.99559
G1 X173.083 Y162.299 E38.00809
G1 X172.877 Y162.968 E38.02555
G1 X159.382 Y193.96 E38.86876
G1 X159.146 Y194.402 E38.88126
G1 X158.842 Y194.801 E38.89377
G1 X158.479 Y195.148 E38.9063
G1 X158.066 Y195.432 E38.9188
G1 X157.613 Y195.647 E38.93131
G1 X157.131 Y195.787 E38.94383
G1 X156.494 Y195.852 E38.9598
G1 X53.509 Y195.852 E41.52877
G1 X53.009 Y195.812 E41.54129
G1 X52.522 Y195.693 E41.55379
G1 X52.059 Y195.499 E41.56631
G1 X51.634 Y195.233 E41.57882
G1 X51.256 Y194.903 E41.59134
G1 X50.935 Y194.518 E41.60384
G1 X50.621 Y193.96 E41.61981
G1 X37.123 Y162.971 E42.46299
G1 X36.96 Y162.497 E42.47549
G1 X36.874 Y162.002 E42.48802
G1 X36.868 Y161.501 E42.50052
G1 X36.992 Y160.814 E42.51794
G1 X39.022 Y153.995 E42.69541
G1 X40.265 Y148.6 E42.83352
G1 X40.743 Y146.013 E42.89914
G1 X41.522 Y140.544 E43.03694
G1 X41.986 Y135.087 E43.17356
G1 X42.139 Y129.612 E43.31019
G1 X41.984 Y124.138 E43.44679
G1 X41.517 Y118.663 E43.58386
G1 X40.747 Y113.258 E43.72005
G1 X39.664 Y107.862 E43.85734
G1 X39.031 Y105.281 E43.92363
G1 X36.992 Y98.427 E44.10201
G1 X36.887 Y97.937 E44.11451
G1 X36.862 Y97.436 E44.12703
G1 X36.917 Y96.937 E44.13955
G1 X37.032 Y96.504 E44.15072
G1 X38.455 Y92.369 E44.25981
G1 X39.989 Y87.08 E44.39718
G1 X40.637 Y84.435 E44.46511
G1 X41.203 Y81.793 E44.53251
G1 X42.129 Y76.37 E44.66975
G1 X42.745 Y70.926 E44.80642
G1 X43.051 Y65.459 E44.943
G1 X43.049 Y59.981 E45.07965
G1 X42.736 Y54.516 E45.2162
G1 X42.112 Y49.054 E45.35334
G1 X41.185 Y43.657 E45.48994
G1 X40.613 Y41.008 E45.55754
G1 X40.002 Y38.507 E45.62176
G1 X39.922 Y38.012 E45.63427
G1 X39.922 Y37.51 E45.64679
G1 X40.001 Y37.015 E45.6593
G1 X40.116 Y36.645 E45.66896
G1 X41.78 Y32.249 E45.78621
G1 X43.462 Y27.002 E45.92366
G1 X44.838 Y21.693 E46.06047
G1 X45.407 Y19.033 E46.12833
G1 X46.324 Y13.652 E46.26449
;MESH:IM_Logo_letters.stl
G0 F1800 X51.278 Y7.702
;TYPE:WALL-INNER
G1 F2400 X51.219 Y7.509 E46.26953
G1 X51.42 Y7.509 E46.27253
G1 X51.421 Y7.509 E46.27255
G1 X60.37 Y7.509 E46.49578
G1 X63.167 Y18.351 E46.77509
G1 X64.329 Y18.351 E46.80408
G1 X67.13 Y7.509 E47.08341
G1 X70.942 Y7.509 E47.1785
G1 X77.992 Y19.277 E47.52071
G1 X79.131 Y18.902 E47.55062
G1 X78.044 Y7.673 E47.83204
G1 X78.029 Y7.509 E47.83614
G1 X78.193 Y7.509 E47.83873
G1 X78.194 Y7.509 E47.83875
G1 X87.422 Y7.509 E48.06895
G1 X89.057 Y32.851 E48.70242
G1 X89.067 Y33.009 E48.70637
G1 X88.909 Y33.009 E48.70887
G1 X88.908 Y33.009 E48.7089
G1 X79.506 Y33.009 E48.94343
G1 X71.965 Y21.223 E49.29247
G1 X71.014 Y21.354 E49.31641
G1 X67.464 Y33.009 E49.62033
G1 X59.034 Y33.009 E49.83062
G1 X51.278 Y7.702 E50.49089
G0 F1800 X50.872 Y7.402
G1 F2400 X50.813 Y7.209 E50.49592
G1 X51.014 Y7.209 E50.49892
G1 X51.015 Y7.209 E50.49895
G1 X60.602 Y7.209 E50.7381
G1 X63.399 Y18.051 E51.01741
G1 X64.097 Y18.051 E51.03482
G1 X66.898 Y7.209 E51.31415
G1 X71.112 Y7.209 E51.41927
G1 X78.126 Y18.917 E51.75973
G1 X78.809 Y18.692 E51.77767
G1 X77.713 Y7.373 E52.06134
G1 X77.698 Y7.209 E52.06545
G1 X77.862 Y7.209 E52.06803
G1 X77.863 Y7.209 E52.06806
G1 X87.703 Y7.209 E52.31351
G1 X89.377 Y33.151 E52.96199
G1 X89.387 Y33.309 E52.96594
G1 X89.229 Y33.309 E52.96844
G1 X89.228 Y33.309 E52.96847
G1 X79.341 Y33.309 E53.2151
G1 X71.816 Y21.546 E53.56343
G1 X71.245 Y21.625 E53.57781
G1 X67.686 Y33.309 E53.88249
G1 X58.812 Y33.309 E54.10386
G1 X50.872 Y7.402 E54.77978
G0 F1800 X50.534 Y7.152
;TYPE:WALL-OUTER
G1 F2400 X50.475 Y6.959 E54.78481
G1 X50.676 Y6.959 E54.78781
G1 X50.677 Y6.959 E54.78784
G1 X60.796 Y6.959 E55.04026
G1 X63.593 Y17.801 E55.31957
G1 X63.903 Y17.801 E55.3273
G1 X66.704 Y6.959 E55.60663
G1 X71.253 Y6.959 E55.72011
G1 X78.238 Y18.617 E56.05912
G1 X78.541 Y18.517 E56.06708
G1 X77.438 Y7.123 E56.35264
G1 X77.423 Y6.959 E56.35674
G1 X77.587 Y6.959 E56.35933
G1 X77.588 Y6.959 E56.35935
G1 X87.937 Y6.959 E56.61751
G1 X89.643 Y33.401 E57.27848
G1 X89.653 Y33.559 E57.28243
G1 X89.495 Y33.559 E57.28493
G1 X89.494 Y33.559 E57.28496
G1 X79.204 Y33.559 E57.54164
G1 X71.717 Y21.855 E57.88823
G1 X71.692 Y21.816 E57.88938
G1 X71.438 Y21.851 E57.89578
G1 X71.425 Y21.895 E57.89692
G1 X67.871 Y33.559 E58.20109
G1 X58.627 Y33.559 E58.43168
G1 X50.534 Y7.152 E59.12065
G0 F1800 X50.476 Y6.96
G0 X51.61 Y7.799
;TYPE:SKIN
G1 F2400 X60.145 Y7.799 E59.33356
G1 X62.943 Y18.641 E59.61287
G1 X64.553 Y18.641 E59.65303
G1 X67.355 Y7.799 E59.93237
G1 X70.778 Y7.799 E60.01776
G1 X77.862 Y19.625 E60.36164
G1 X79.442 Y19.105 E60.40313
G1 X78.348 Y7.799 E60.68648
G1 X87.149 Y7.799 E60.90602
G1 X88.757 Y32.719 E61.52894
G1 X79.664 Y32.719 E61.75577
G1 X72.11 Y20.91 E62.10546
G1 X70.79 Y21.092 E62.1387
G1 X67.249 Y32.719 E62.44189
G1 X59.249 Y32.719 E62.64145
G1 X51.61 Y7.799 E63.29163
G1 F900 E59.29163
G0 F1800 X59.736 Y32.583
G1 F900 E63.29163
G1 F2400 X59.175 Y32.022 E63.31142
G1 X59.122 Y31.969
G0 F1800 X58.988 Y31.411
G1 F2400 X60.16 Y32.583 E63.35277
G0 F1800 X60.584 Y32.583
G1 F2400 X58.8 Y30.799 E63.4157
G1 X58.747 Y30.746
G0 F1800 X58.613 Y30.187
G1 F2400 X61.009 Y32.583 E63.50023
G0 F1800 X61.433 Y32.583
G1 F2400 X58.425 Y29.575 E63.60635
G1 X58.372 Y29.522
G0 F1800 X58.238 Y28.963
G1 F2400 X61.857 Y32.583 E63.73403
G0 F1800 X62.281 Y32.583
G1 F2400 X58.05 Y28.352 E63.88329
