;FLAVOR:Marlin
;TIME:4490
;Filament used: 2.73103m
;Layer height: 0.2
;Generated with Cura_SteamEngine 3.4.1
M190 S75
M104 S220
M109 S220
M82 ;absolute extrusion mode
G21 ;metric values
G90 ;absolute positioning
M82 ;set extruder to absolute mode
M107 ;start with the fan off
G28 X0 Y0 ;move X/Y to min endstops
G28 Z0 ;move Z to min endstops
G1 Z15.0 F9000 ;move the platform down 15mm
G92 E0 ;zero the extruded length
G1 F200 E3 ;extrude 3mm of feed stock
G92 E0 ;zero the extruded length again
G1 F9000
;Put printing message on LCD screen
M117 Printing...
G92 E0
G1 F1500 E-6.5
;LAYER_COUNT:233
;LAYER:0
M107
G0 F3000 X29.722 Y27.68 Z0.2
;TYPE:SKIRT
G1 F1500 E0
G1 F1200 X30.261 Y27.092 E0.0199
G1 X30.856 Y26.562 E0.03977
G1 X31.501 Y26.094 E0.05965
G1 X32.19 Y25.692 E0.07955
G1 X32.916 Y25.362 E0.09945
G1 X33.671 Y25.106 E0.11933
G1 X34.448 Y24.927 E0.13922
G1 X35.239 Y24.827 E0.15911
G1 X36.385 Y24.823 E0.1877
G1 X51.245 Y25.84 E0.55925
G1 X52.036 Y25.934 E0.57912
G1 X52.815 Y26.107 E0.59903
G1 X53.572 Y26.357 E0.61891
G1 X54.3 Y26.682 E0.6388
G1 X54.992 Y27.078 E0.65869
G1 X55.641 Y27.541 E0.67857
G1 X56.24 Y28.067 E0.69846
G1 X56.783 Y28.65 E0.71833
G1 X57.265 Y29.285 E0.73822
G1 X57.842 Y30.276 E0.76683
G1 X64.391 Y43.654 E1.13838
G1 X64.706 Y44.386 E1.15826
G1 X64.945 Y45.147 E1.17816
G1 X65.107 Y45.927 E1.19803
G1 X65.189 Y46.72 E1.21792
G1 X65.192 Y47.518 E1.23782
G1 X65.116 Y48.311 E1.2577
G1 X64.96 Y49.093 E1.27759
G1 X64.726 Y49.855 E1.29747
G1 X64.418 Y50.59 E1.31735
G1 X63.848 Y51.585 E1.34596
G1 X55.537 Y63.946 E1.71752
G1 X55.06 Y64.584 E1.73739
G1 X54.521 Y65.172 E1.75729
G1 X53.926 Y65.702 E1.77716
G1 X53.281 Y66.17 E1.79704
G1 X52.592 Y66.572 E1.81694
G1 X51.866 Y66.902 E1.83684
G1 X51.111 Y67.158 E1.85672
G1 X50.334 Y67.337 E1.87661
G1 X49.543 Y67.437 E1.8965
G1 X48.397 Y67.441 E1.92509
G1 X33.537 Y66.424 E2.29664
G1 X32.746 Y66.33 E2.31651
G1 X31.967 Y66.157 E2.33642
G1 X31.21 Y65.907 E2.3563
G1 X30.482 Y65.582 E2.37619
G1 X29.79 Y65.186 E2.39608
G1 X29.141 Y64.723 E2.41596
G1 X28.542 Y64.197 E2.43585
G1 X27.999 Y63.614 E2.45572
G1 X27.517 Y62.979 E2.47561
G1 X26.94 Y61.988 E2.50422
G1 X20.391 Y48.61 E2.87577
G1 X20.076 Y47.878 E2.89565
G1 X19.837 Y47.117 E2.91555
G1 X19.675 Y46.337 E2.93542
G1 X19.593 Y45.544 E2.95531
G1 X19.59 Y44.746 E2.97521
G1 X19.666 Y43.953 E2.99509
G1 X19.822 Y43.171 E3.01498
G1 X20.056 Y42.409 E3.03486
G1 X20.364 Y41.674 E3.05474
G1 X20.934 Y40.679 E3.08335
G1 X29.245 Y28.318 E3.45491
G1 X29.722 Y27.68 E3.47478
G0 F3000 X29.962 Y27.86
G1 F1200 X30.493 Y27.285 E3.4943
G1 X31.079 Y26.767 E3.51381
G1 X31.715 Y26.313 E3.53331
G1 X32.394 Y25.925 E3.55281
G1 X33.11 Y25.609 E3.57234
G1 X33.854 Y25.367 E3.59185
G1 X34.618 Y25.203 E3.61135
G1 X35.395 Y25.117 E3.63085
G1 X36.364 Y25.122 E3.65502
G1 X51.224 Y26.139 E4.02657
G1 X52.001 Y26.232 E4.04609
G1 X52.764 Y26.404 E4.0656
G1 X53.505 Y26.653 E4.0851
G1 X54.217 Y26.976 E4.1046
G1 X54.892 Y27.371 E4.12411
G1 X55.524 Y27.832 E4.14363
G1 X56.105 Y28.355 E4.16313
G1 X56.63 Y28.935 E4.18264
G1 X57.093 Y29.566 E4.20217
G1 X57.573 Y30.407 E4.22632
G1 X64.122 Y43.785 E4.59788
G1 X64.429 Y44.505 E4.6174
G1 X64.662 Y45.251 E4.6369
G1 X64.817 Y46.018 E4.65642
G1 X64.893 Y46.796 E4.67592
G1 X64.889 Y47.578 E4.69543
G1 X64.805 Y48.356 E4.71495
G1 X64.643 Y49.121 E4.73445
G1 X64.403 Y49.865 E4.75395
G1 X64.088 Y50.581 E4.77347
G1 X63.599 Y51.417 E4.79762
G1 X55.288 Y63.778 E5.16919
G1 X54.82 Y64.404 E5.18868
G1 X54.289 Y64.979 E5.20821
G1 X53.703 Y65.497 E5.22772
G1 X53.067 Y65.951 E5.24721
G1 X52.388 Y66.339 E5.26672
G1 X51.672 Y66.655 E5.28624
G1 X50.928 Y66.897 E5.30576
G1 X50.164 Y67.061 E5.32525
G1 X49.387 Y67.147 E5.34475
G1 X48.418 Y67.142 E5.36892
G1 X33.558 Y66.125 E5.74047
G1 X32.781 Y66.032 E5.76
G1 X32.018 Y65.86 E5.77951
G1 X31.277 Y65.611 E5.79901
G1 X30.565 Y65.288 E5.81851
G1 X29.89 Y64.893 E5.83802
G1 X29.258 Y64.432 E5.85753
G1 X28.677 Y63.909 E5.87703
G1 X28.152 Y63.329 E5.89655
G1 X27.689 Y62.698 E5.91607
G1 X27.209 Y61.857 E5.94023
G1 X20.66 Y48.479 E6.31178
G1 X20.353 Y47.759 E6.33131
G1 X20.12 Y47.013 E6.3508
G1 X19.965 Y46.246 E6.37032
G1 X19.889 Y45.468 E6.38982
G1 X19.893 Y44.686 E6.40933
G1 X19.977 Y43.908 E6.42885
G1 X20.139 Y43.143 E6.44836
G1 X20.379 Y42.399 E6.46786
G1 X20.694 Y41.683 E6.48737
G1 X21.183 Y40.847 E6.51153
G1 X29.494 Y28.486 E6.88309
G1 X29.962 Y27.86 E6.90259
G0 F3000 X30.203 Y28.04
G1 F1200 X30.724 Y27.478 E6.9217
G1 X31.302 Y26.974 E6.94083
G1 X31.928 Y26.533 E6.95994
G1 X32.598 Y26.159 E6.97908
G1 X33.302 Y25.857 E6.99819
G1 X34.034 Y25.63 E7.0173
G1 X34.786 Y25.48 E7.03643
G1 X35.55 Y25.41 E7.05557
G1 X36.344 Y25.421 E7.07538
G1 X51.204 Y26.438 E7.44693
G1 X51.965 Y26.53 E7.46605
G1 X52.712 Y26.701 E7.48517
G1 X53.437 Y26.949 E7.50428
G1 X54.133 Y27.271 E7.52341
G1 X54.791 Y27.664 E7.54253
G1 X55.405 Y28.123 E7.56165
G1 X55.968 Y28.643 E7.58077
G1 X56.473 Y29.22 E7.5999
G1 X56.916 Y29.846 E7.61903
G1 X57.303 Y30.539 E7.63883
G1 X63.852 Y43.917 E8.01038
G1 X64.153 Y44.622 E8.02951
G1 X64.379 Y45.355 E8.04864
G1 X64.527 Y46.107 E8.06776
G1 X64.596 Y46.871 E8.08689
G1 X64.585 Y47.637 E8.106
G1 X64.494 Y48.398 E8.12512
G1 X64.325 Y49.146 E8.14425
G1 X64.078 Y49.872 E8.16338
G1 X63.757 Y50.568 E8.1825
G1 X63.351 Y51.25 E8.2023
G1 X55.04 Y63.611 E8.57386
G1 X54.579 Y64.224 E8.593
G1 X54.058 Y64.786 E8.61211
G1 X53.48 Y65.29 E8.63124
G1 X52.854 Y65.731 E8.65034
G1 X52.184 Y66.105 E8.66948
G1 X51.48 Y66.407 E8.68859
G1 X50.748 Y66.634 E8.70771
G1 X49.996 Y66.784 E8.72684
G1 X49.232 Y66.854 E8.74598
G1 X48.438 Y66.843 E8.76579
G1 X33.578 Y65.826 E9.13734
G1 X32.817 Y65.734 E9.15646
G1 X32.07 Y65.563 E9.17557
G1 X31.345 Y65.315 E9.19469
G1 X30.649 Y64.993 E9.21382
G1 X29.991 Y64.6 E9.23294
G1 X29.377 Y64.141 E9.25206
G1 X28.814 Y63.621 E9.27118
G1 X28.309 Y63.044 E9.2903
G1 X27.866 Y62.418 E9.30944
G1 X27.479 Y61.725 E9.32923
G1 X20.93 Y48.347 E9.70079
G1 X20.629 Y47.642 E9.71991
G1 X20.403 Y46.909 E9.73905
G1 X20.255 Y46.157 E9.75817
G1 X20.186 Y45.393 E9.7773
G1 X20.197 Y44.627 E9.79641
G1 X20.288 Y43.866 E9.81553
G1 X20.457 Y43.118 E9.83466
G1 X20.704 Y42.392 E9.85379
G1 X21.025 Y41.696 E9.87291
G1 X21.431 Y41.014 E9.89271
G1 X29.742 Y28.653 E10.26427
G1 X30.203 Y28.04 E10.2834
G0 F3000 X30.443 Y28.221
G1 F1200 X30.956 Y27.672 E10.30215
G1 X31.524 Y27.181 E10.32087
G1 X32.141 Y26.754 E10.33959
G1 X32.8 Y26.394 E10.35832
G1 X33.493 Y26.107 E10.37703
G1 X34.213 Y25.895 E10.39576
G1 X34.952 Y25.76 E10.4145
G1 X35.701 Y25.705 E10.43323
G1 X36.323 Y25.72 E10.44875
G1 X51.183 Y26.737 E10.8203
G1 X51.929 Y26.829 E10.83905
G1 X52.66 Y26.998 E10.85777
G1 X53.369 Y27.245 E10.8765
G1 X54.048 Y27.565 E10.89522
G1 X54.689 Y27.956 E10.91395
G1 X55.284 Y28.413 E10.93267
G1 X55.828 Y28.931 E10.9514
G1 X56.314 Y29.504 E10.97015
G1 X56.736 Y30.124 E10.98886
G1 X57.034 Y30.671 E11.00439
G1 X63.583 Y44.049 E11.37595
G1 X63.877 Y44.74 E11.39468
G1 X64.095 Y45.458 E11.4134
G1 X64.236 Y46.196 E11.43214
G1 X64.298 Y46.944 E11.45087
G1 X64.28 Y47.694 E11.46958
G1 X64.182 Y48.439 E11.48833
G1 X64.006 Y49.168 E11.50703
G1 X63.753 Y49.875 E11.52576
G1 X63.426 Y50.551 E11.5445
G1 X63.102 Y51.083 E11.56003
G1 X54.791 Y63.444 E11.9316
G1 X54.339 Y64.043 E11.95032
G1 X53.826 Y64.592 E11.96906
G1 X53.258 Y65.083 E11.98779
G1 X52.641 Y65.51 E12.00651
G1 X51.982 Y65.87 E12.02524
G1 X51.289 Y66.157 E12.04395
G1 X50.569 Y66.369 E12.06267
G1 X49.83 Y66.504 E12.08141
G1 X49.081 Y66.559 E12.10014
G1 X48.459 Y66.544 E12.11566
G1 X33.599 Y65.527 E12.48722
G1 X32.853 Y65.435 E12.50597
G1 X32.122 Y65.266 E12.52468
G1 X31.413 Y65.019 E12.54341
G1 X30.734 Y64.699 E12.56213
G1 X30.093 Y64.308 E12.58086
G1 X29.498 Y63.851 E12.59958
G1 X28.954 Y63.333 E12.61832
G1 X28.468 Y62.76 E12.63706
G1 X28.046 Y62.14 E12.65577
G1 X27.748 Y61.593 E12.67131
G1 X21.199 Y48.215 E13.04286
G1 X20.905 Y47.524 E13.0616
G1 X20.687 Y46.806 E13.08031
G1 X20.546 Y46.068 E13.09906
G1 X20.484 Y45.32 E13.11778
G1 X20.502 Y44.57 E13.13649
G1 X20.6 Y43.825 E13.15524
G1 X20.776 Y43.096 E13.17395
G1 X21.029 Y42.389 E13.19268
G1 X21.356 Y41.713 E13.21141
G1 X21.68 Y41.181 E13.22695
G1 X29.991 Y28.82 E13.59851
G1 X30.443 Y28.221 E13.61723
G0 F3000 X30.683 Y28.401
G1 F1200 X31.186 Y27.867 E13.63553
G1 X31.745 Y27.39 E13.65386
G1 X32.352 Y26.976 E13.67219
G1 X33.001 Y26.631 E13.69052
G1 X33.683 Y26.359 E13.70884
G1 X34.391 Y26.162 E13.72717
G1 X35.116 Y26.043 E13.7455
G1 X35.849 Y26.004 E13.76381
G1 X36.303 Y26.02 E13.77514
G1 X51.163 Y27.037 E14.14669
G1 X51.892 Y27.127 E14.16501
G1 X52.607 Y27.295 E14.18334
G1 X53.299 Y27.541 E14.20166
G1 X53.961 Y27.86 E14.21999
G1 X54.584 Y28.249 E14.23831
G1 X55.161 Y28.703 E14.25662
G1 X55.685 Y29.218 E14.27495
G1 X56.151 Y29.786 E14.29328
G1 X56.551 Y30.402 E14.3116
G1 X56.765 Y30.803 E14.32294
G1 X63.314 Y44.181 E14.69449
G1 X63.6 Y44.858 E14.71283
G1 X63.812 Y45.561 E14.73114
G1 X63.945 Y46.283 E14.74946
G1 X64 Y47.016 E14.76779
G1 X63.974 Y47.75 E14.78611
G1 X63.869 Y48.477 E14.80444
G1 X63.686 Y49.188 E14.82275
G1 X63.426 Y49.875 E14.84107
G1 X63.093 Y50.53 E14.8594
G1 X62.853 Y50.915 E14.87072
G1 X54.542 Y63.276 E15.24228
G1 X54.099 Y63.863 E15.26063
G1 X53.596 Y64.397 E15.27893
G1 X53.037 Y64.874 E15.29726
G1 X52.43 Y65.288 E15.31559
G1 X51.781 Y65.633 E15.33392
G1 X51.099 Y65.905 E15.35224
G1 X50.391 Y66.102 E15.37057
G1 X49.666 Y66.221 E15.3889
G1 X48.933 Y66.26 E15.40721
G1 X48.479 Y66.244 E15.41854
G1 X33.619 Y65.227 E15.79009
G1 X32.89 Y65.137 E15.80841
G1 X32.175 Y64.969 E15.82674
G1 X31.483 Y64.723 E15.84506
G1 X30.821 Y64.404 E15.86339
G1 X30.198 Y64.015 E15.88171
G1 X29.621 Y63.561 E15.90002
G1 X29.097 Y63.046 E15.91835
G1 X28.631 Y62.478 E15.93668
G1 X28.231 Y61.862 E15.955
G1 X28.017 Y61.461 E15.96634
G1 X21.468 Y48.083 E16.33789
G1 X21.182 Y47.406 E16.35623
G1 X20.97 Y46.703 E16.37454
G1 X20.837 Y45.981 E16.39286
G1 X20.782 Y45.248 E16.41119
G1 X20.808 Y44.514 E16.42951
G1 X20.913 Y43.787 E16.44784
G1 X21.096 Y43.076 E16.46615
G1 X21.356 Y42.389 E16.48447
G1 X21.689 Y41.734 E16.5028
G1 X21.929 Y41.349 E16.51412
G1 X30.24 Y28.988 E16.88568
G1 X30.683 Y28.401 E16.90403
G0 F3000 X30.923 Y28.582
G1 F1200 X31.417 Y28.062 E16.92192
G1 X31.966 Y27.599 E16.93983
G1 X32.563 Y27.2 E16.95775
G1 X33.2 Y26.87 E16.97564
G1 X33.871 Y26.613 E16.99357
G1 X34.566 Y26.432 E17.01148
G1 X35.276 Y26.329 E17.02938
G1 X36.282 Y26.319 E17.05447
G1 X51.142 Y27.336 E17.42603
G1 X51.855 Y27.425 E17.44395
G1 X52.553 Y27.592 E17.46185
G1 X53.228 Y27.836 E17.47976
G1 X53.872 Y28.154 E17.49767
G1 X54.477 Y28.541 E17.51559
G1 X55.035 Y28.993 E17.5335
G1 X55.539 Y29.505 E17.55142
G1 X55.984 Y30.069 E17.56934
G1 X56.495 Y30.935 E17.59443
G1 X63.044 Y44.313 E17.96598
G1 X63.323 Y44.975 E17.9839
G1 X63.527 Y45.663 E18.0018
G1 X63.654 Y46.37 E18.01972
G1 X63.701 Y47.086 E18.03762
G1 X63.668 Y47.804 E18.05555
G1 X63.555 Y48.513 E18.07346
G1 X63.364 Y49.205 E18.09137
G1 X63.098 Y49.872 E18.10928
G1 X62.604 Y50.748 E18.13437
G1 X54.293 Y63.109 E18.50593
G1 X53.859 Y63.682 E18.52386
G1 X53.365 Y64.202 E18.54175
G1 X52.816 Y64.665 E18.55967
G1 X52.219 Y65.064 E18.57758
G1 X51.582 Y65.394 E18.59548
G1 X50.911 Y65.651 E18.6134
G1 X50.216 Y65.832 E18.63131
G1 X49.506 Y65.935 E18.64921
G1 X48.5 Y65.945 E18.67431
G1 X33.64 Y64.928 E19.04586
G1 X32.927 Y64.839 E19.06378
G1 X32.229 Y64.672 E19.08169
G1 X31.554 Y64.428 E19.09959
G1 X30.91 Y64.11 E19.11751
G1 X30.305 Y63.723 E19.13542
G1 X29.747 Y63.271 E19.15333
G1 X29.243 Y62.759 E19.17126
G1 X28.798 Y62.195 E19.18918
G1 X28.287 Y61.329 E19.21426
G1 X21.738 Y47.951 E19.58582
G1 X21.459 Y47.289 E19.60374
G1 X21.255 Y46.601 E19.62164
G1 X21.128 Y45.894 E19.63956
G1 X21.081 Y45.178 E19.65746
G1 X21.114 Y44.46 E19.67538
G1 X21.227 Y43.751 E19.69329
G1 X21.418 Y43.059 E19.7112
G1 X21.684 Y42.392 E19.72911
G1 X22.178 Y41.516 E19.7542
G1 X30.489 Y29.155 E20.12576
G1 X30.923 Y28.582 E20.14369
G0 F3000 X31.162 Y28.764
G1 F1200 X31.647 Y28.257 E20.1612
G1 X32.186 Y27.809 E20.17868
G1 X32.772 Y27.425 E20.19616
G1 X33.399 Y27.11 E20.21366
G1 X34.057 Y26.869 E20.23114
G1 X34.739 Y26.704 E20.24864
G1 X35.434 Y26.618 E20.26611
G1 X36.262 Y26.618 E20.28677
G1 X51.122 Y27.635 E20.65832
G1 X51.818 Y27.723 E20.67582
G1 X52.499 Y27.889 E20.6933
G1 X53.156 Y28.132 E20.71078
G1 X53.782 Y28.448 E20.72827
G1 X54.368 Y28.833 E20.74576
G1 X54.906 Y29.283 E20.76326
G1 X55.39 Y29.79 E20.78074
G1 X55.813 Y30.35 E20.79825
G1 X56.226 Y31.067 E20.81889
G1 X62.775 Y44.445 E21.19044
G1 X63.047 Y45.091 E21.20793
G1 X63.243 Y45.764 E21.22542
G1 X63.362 Y46.455 E21.24291
G1 X63.401 Y47.155 E21.26039
G1 X63.36 Y47.855 E21.27789
G1 X63.24 Y48.546 E21.29538
G1 X63.042 Y49.219 E21.31288
G1 X62.769 Y49.864 E21.33035
G1 X62.355 Y50.58 E21.35098
G1 X54.044 Y62.941 E21.72255
G1 X53.62 Y63.5 E21.74005
G1 X53.135 Y64.007 E21.75755
G1 X52.596 Y64.455 E21.77503
G1 X52.01 Y64.839 E21.79251
G1 X51.383 Y65.154 E21.81001
G1 X50.725 Y65.395 E21.82749
G1 X50.043 Y65.56 E21.845
G1 X49.348 Y65.646 E21.86247
G1 X48.52 Y65.646 E21.88312
G1 X33.66 Y64.629 E22.25467
G1 X32.964 Y64.541 E22.27217
G1 X32.283 Y64.375 E22.28966
G1 X31.626 Y64.132 E22.30713
G1 X31 Y63.816 E22.32462
G1 X30.414 Y63.431 E22.34211
G1 X29.876 Y62.981 E22.35961
G1 X29.392 Y62.474 E22.37709
G1 X28.969 Y61.914 E22.3946
G1 X28.556 Y61.197 E22.41524
G1 X22.007 Y47.819 E22.7868
G1 X21.735 Y47.173 E22.80428
G1 X21.539 Y46.5 E22.82177
G1 X21.42 Y45.809 E22.83926
G1 X21.381 Y45.109 E22.85675
G1 X21.422 Y44.409 E22.87424
G1 X21.542 Y43.718 E22.89173
G1 X21.74 Y43.045 E22.90923
G1 X22.013 Y42.4 E22.92671
G1 X22.427 Y41.684 E22.94734
G1 X30.738 Y29.323 E23.3189
G1 X31.162 Y28.764 E23.3364
G0 F3000 X31.401 Y28.946
G1 F1200 X31.876 Y28.454 E23.35346
G1 X32.405 Y28.02 E23.37053
G1 X32.981 Y27.651 E23.38759
G1 X33.596 Y27.352 E23.40465
G1 X34.242 Y27.127 E23.42172
G1 X34.909 Y26.979 E23.43876
G1 X35.589 Y26.909 E23.45581
G1 X36.241 Y26.918 E23.47208
G1 X51.101 Y27.935 E23.84363
G1 X51.78 Y28.021 E23.8607
G1 X52.443 Y28.186 E23.87774
G1 X53.083 Y28.428 E23.89481
G1 X53.69 Y28.742 E23.91186
G1 X54.257 Y29.125 E23.92893
G1 X54.775 Y29.572 E23.946
G1 X55.237 Y30.075 E23.96303
G1 X55.637 Y30.63 E23.9801
G1 X55.956 Y31.199 E23.99637
G1 X62.505 Y44.577 E24.36793
G1 X62.769 Y45.208 E24.38499
G1 X62.958 Y45.865 E24.40204
G1 X63.069 Y46.54 E24.41911
G1 X63.101 Y47.223 E24.43616
G1 X63.052 Y47.905 E24.45322
G1 X62.924 Y48.576 E24.47026
G1 X62.719 Y49.229 E24.48733
G1 X62.439 Y49.853 E24.50439
G1 X62.106 Y50.413 E24.52065
G1 X53.795 Y62.774 E24.89221
G1 X53.381 Y63.318 E24.90926
G1 X52.906 Y63.81 E24.92632
G1 X52.377 Y64.244 E24.94339
G1 X51.801 Y64.613 E24.96045
G1 X51.186 Y64.912 E24.97751
G1 X50.54 Y65.137 E24.99458
G1 X49.873 Y65.285 E25.01162
G1 X49.193 Y65.355 E25.02867
G1 X48.541 Y65.346 E25.04494
G1 X33.681 Y64.329 E25.41649
G1 X33.002 Y64.243 E25.43356
G1 X32.339 Y64.078 E25.4506
G1 X31.699 Y63.836 E25.46767
G1 X31.092 Y63.522 E25.48472
G1 X30.525 Y63.139 E25.50179
G1 X30.007 Y62.692 E25.51886
G1 X29.545 Y62.189 E25.53589
G1 X29.145 Y61.634 E25.55296
G1 X28.826 Y61.065 E25.56923
G1 X22.277 Y47.687 E25.94079
G1 X22.013 Y47.056 E25.95785
G1 X21.824 Y46.399 E25.9749
G1 X21.713 Y45.724 E25.99197
G1 X21.681 Y45.041 E26.00902
G1 X21.73 Y44.359 E26.02608
G1 X21.858 Y43.688 E26.04312
G1 X22.063 Y43.035 E26.06019
G1 X22.343 Y42.411 E26.07725
G1 X22.676 Y41.851 E26.09351
G1 X30.987 Y29.49 E26.46507
G1 X31.401 Y28.946 E26.48212
G0 F3000 X31.64 Y29.128
G1 F1200 X32.105 Y28.651 E26.49874
G1 X32.623 Y28.233 E26.51534
G1 X33.188 Y27.88 E26.53196
G1 X33.791 Y27.597 E26.54858
G1 X34.424 Y27.388 E26.56521
G1 X35.077 Y27.257 E26.58182
G1 X35.741 Y27.205 E26.59843
G1 X36.221 Y27.217 E26.61041
G1 X51.081 Y28.234 E26.98196
G1 X51.742 Y28.319 E26.99859
G1 X52.387 Y28.483 E27.01519
G1 X53.008 Y28.723 E27.0318
G1 X53.596 Y29.036 E27.04841
G1 X54.143 Y29.416 E27.06503
G1 X54.64 Y29.86 E27.08165
G1 X55.08 Y30.36 E27.09827
G1 X55.457 Y30.909 E27.11488
G1 X55.687 Y31.331 E27.12687
G1 X62.236 Y44.709 E27.49842
G1 X62.492 Y45.323 E27.51502
G1 X62.673 Y45.964 E27.53163
G1 X62.776 Y46.623 E27.54827
G1 X62.799 Y47.288 E27.56487
