;FLAVOR:Marlin
;TIME:8437
;Filament used: 4.33607m
;Layer height: 0.2
;Generated with Cura_SteamEngine 3.6.0
M140 S60
M105
M190 S60
M104 S195
M105
M109 S195
M82 ;absolute extrusion mode
G21 ;metric values
G90 ;absolute positioning
M82 ;set extruder to absolute mode
M107 ;start with the fan off
G28 X0 Y0 ;move X/Y to min endstops
G28 Z0 ;move Z to min endstops
G1 Z15.0 F9000 ;move the platform down 15mm
G92 E0 ;zero the extruded length
G1 F200 E3 ;extrude 3mm of feed stock
G92 E0 ;zero the extruded length again
G1 F9000
;Put printing message on LCD screen
M117 Printing...
G92 E0
G1 F1500 E-6.5
;LAYER_COUNT:330
;LAYER:0
M107
G0 F6000 X70.291 Y72.292 Z0.2
;TYPE:SKIRT
G1 F1500 E0
G1 F2400 X74.905 Y68.125 E0.18094
G1 X75.558 Y67.649 E0.20445
G1 X80.919 Y64.539 E0.38482
G1 X81.659 Y64.208 E0.40842
G1 X87.567 Y62.276 E0.58931
G1 X88.359 Y62.106 E0.61289
G1 X94.532 Y61.446 E0.79356
G1 X95.341 Y61.444 E0.81711
G1 X101.519 Y62.081 E0.99786
G1 X102.312 Y62.248 E1.02144
G1 X108.2 Y64.148 E1.2015
G1 X108.94 Y64.476 E1.22505
G1 X114.343 Y67.579 E1.40638
G1 X114.999 Y68.054 E1.42995
G1 X119.621 Y72.197 E1.61059
G1 X120.166 Y72.799 E1.63423
G1 X123.827 Y77.819 E1.81505
G1 X124.233 Y78.519 E1.8386
G1 X126.768 Y84.184 E2.01922
G1 X127.02 Y84.955 E2.04282
G1 X128.323 Y91.032 E2.2237
G1 X128.409 Y91.837 E2.24726
G1 X128.42 Y98.037 E2.4277
G1 X128.337 Y98.844 E2.45131
G1 X127.053 Y104.932 E2.63238
G1 X126.804 Y105.7 E2.65588
G1 X124.296 Y111.367 E2.83623
G1 X123.891 Y112.072 E2.85989
G1 X120.246 Y117.105 E3.04074
G1 X119.706 Y117.707 E3.06428
G1 X115.096 Y121.873 E3.24511
G1 X114.443 Y122.35 E3.26864
G1 X109.08 Y125.462 E3.44909
G1 X108.339 Y125.793 E3.47271
G1 X102.433 Y127.724 E3.65355
G1 X101.641 Y127.894 E3.67712
G1 X95.465 Y128.554 E3.85788
G1 X94.655 Y128.556 E3.88146
G1 X88.481 Y127.919 E4.06209
G1 X87.688 Y127.751 E4.08568
G1 X81.778 Y125.842 E4.26643
G1 X81.037 Y125.514 E4.29001
G1 X75.654 Y122.418 E4.47073
G1 X74.999 Y121.944 E4.49426
G1 X70.375 Y117.798 E4.675
G1 X69.831 Y117.196 E4.69862
G1 X66.174 Y112.182 E4.87923
G1 X65.767 Y111.48 E4.90284
G1 X63.229 Y105.802 E5.08384
G1 X62.978 Y105.034 E5.10736
G1 X61.678 Y98.976 E5.28768
G1 X61.592 Y98.17 E5.31127
G1 X61.58 Y91.964 E5.49188
G1 X61.663 Y91.158 E5.51546
G1 X62.945 Y85.072 E5.69646
G1 X63.194 Y84.302 E5.72001
G1 X65.707 Y78.625 E5.90069
G1 X66.111 Y77.922 E5.92429
G1 X69.749 Y72.896 E6.10486
G1 X70.291 Y72.292 E6.12847
G0 F6000 X70.525 Y72.552
G1 F2400 X75.139 Y68.385 E6.30941
G1 X75.733 Y67.952 E6.3308
G1 X81.094 Y64.842 E6.51117
G1 X81.767 Y64.541 E6.53263
G1 X87.675 Y62.609 E6.71353
G1 X88.396 Y62.454 E6.73499
G1 X94.569 Y61.794 E6.91566
G1 X95.306 Y61.793 E6.93711
G1 X101.484 Y62.43 E7.11786
G1 X102.205 Y62.581 E7.1393
G1 X108.093 Y64.481 E7.31936
G1 X108.766 Y64.779 E7.34078
G1 X114.169 Y67.882 E7.52211
G1 X114.766 Y68.314 E7.54355
G1 X119.388 Y72.457 E7.72419
G1 X119.883 Y73.005 E7.74568
G1 X123.544 Y78.025 E7.9265
G1 X123.914 Y78.662 E7.94794
G1 X126.449 Y84.327 E8.12856
G1 X126.678 Y85.028 E8.15002
G1 X127.981 Y91.105 E8.3309
G1 X128.059 Y91.838 E8.35235
G1 X128.07 Y98.038 E8.53279
G1 X127.994 Y98.771 E8.55424
G1 X126.71 Y104.859 E8.73531
G1 X126.484 Y105.559 E8.75672
G1 X123.976 Y111.226 E8.93707
G1 X123.608 Y111.867 E8.95858
G1 X119.963 Y116.9 E9.13943
G1 X119.471 Y117.447 E9.16085
G1 X114.861 Y121.613 E9.34167
G1 X114.267 Y122.047 E9.36308
G1 X108.904 Y125.159 E9.54353
G1 X108.23 Y125.46 E9.56502
G1 X102.324 Y127.391 E9.74585
G1 X101.604 Y127.546 E9.76729
G1 X95.428 Y128.206 E9.94805
G1 X94.691 Y128.207 E9.96949
G1 X88.517 Y127.57 E10.15013
G1 X87.796 Y127.418 E10.17157
G1 X81.886 Y125.509 E10.35232
G1 X81.212 Y125.211 E10.37377
G1 X75.829 Y122.115 E10.55449
G1 X75.233 Y121.684 E10.57589
G1 X70.609 Y117.538 E10.75664
G1 X70.114 Y116.99 E10.77813
G1 X66.457 Y111.976 E10.95874
G1 X66.087 Y111.337 E10.98023
G1 X63.549 Y105.659 E11.16123
G1 X63.32 Y104.961 E11.18261
G1 X62.02 Y98.903 E11.36292
G1 X61.942 Y98.17 E11.38438
G1 X61.93 Y91.964 E11.56499
G1 X62.006 Y91.23 E11.58646
G1 X63.288 Y85.144 E11.76747
G1 X63.514 Y84.444 E11.78888
G1 X66.027 Y78.767 E11.96955
G1 X66.395 Y78.127 E11.99104
G1 X70.033 Y73.101 E12.17161
G1 X70.525 Y72.552 E12.19306
G0 F6000 X70.76 Y72.812
G1 F2400 X75.374 Y68.645 E12.374
G1 X75.909 Y68.255 E12.39326
G1 X81.27 Y65.145 E12.57364
G1 X81.876 Y64.873 E12.59297
G1 X87.784 Y62.941 E12.77386
G1 X88.433 Y62.802 E12.79318
G1 X94.606 Y62.142 E12.97386
G1 X95.27 Y62.141 E12.99318
G1 X101.448 Y62.778 E13.17393
G1 X102.097 Y62.914 E13.19323
G1 X107.985 Y64.814 E13.37328
G1 X108.591 Y65.083 E13.39258
G1 X113.994 Y68.186 E13.57391
G1 X114.532 Y68.575 E13.59323
G1 X119.154 Y72.718 E13.77387
G1 X119.6 Y73.211 E13.79322
G1 X123.261 Y78.231 E13.97404
G1 X123.594 Y78.805 E13.99335
G1 X126.129 Y84.47 E14.17397
G1 X126.335 Y85.101 E14.19329
G1 X127.638 Y91.178 E14.37416
G1 X127.709 Y91.838 E14.39348
G1 X127.72 Y98.038 E14.57392
G1 X127.652 Y98.699 E14.59326
G1 X126.368 Y104.787 E14.77433
G1 X126.164 Y105.417 E14.7936
G1 X123.656 Y111.084 E14.97396
G1 X123.324 Y111.661 E14.99333
G1 X119.679 Y116.694 E15.17418
G1 X119.237 Y117.188 E15.19347
G1 X114.627 Y121.354 E15.3743
G1 X114.092 Y121.744 E15.39357
G1 X108.729 Y124.856 E15.57402
G1 X108.122 Y125.128 E15.59338
G1 X102.216 Y127.059 E15.77421
G1 X101.566 Y127.198 E15.79356
G1 X95.39 Y127.858 E15.97432
G1 X94.727 Y127.859 E15.99361
G1 X88.553 Y127.222 E16.17425
G1 X87.903 Y127.085 E16.19358
G1 X81.993 Y125.176 E16.37433
G1 X81.386 Y124.907 E16.39365
G1 X76.003 Y121.811 E16.57437
G1 X75.466 Y121.423 E16.59365
G1 X70.842 Y117.277 E16.77439
G1 X70.397 Y116.784 E16.79372
G1 X66.74 Y111.77 E16.97433
G1 X66.406 Y111.195 E16.99368
G1 X63.868 Y105.517 E17.17468
G1 X63.663 Y104.887 E17.19397
G1 X62.363 Y98.829 E17.37428
G1 X62.292 Y98.169 E17.3936
G1 X62.28 Y91.963 E17.57421
G1 X62.348 Y91.303 E17.59352
G1 X63.63 Y85.217 E17.77453
G1 X63.834 Y84.586 E17.79383
G1 X66.347 Y78.909 E17.97451
G1 X66.678 Y78.332 E17.99386
G1 X70.316 Y73.306 E18.17443
G1 X70.76 Y72.812 E18.19376
G1 F1500 E11.69376
;MESH:lobato-base.stl
G0 F6000 X72.535 Y74.604
G0 X73.325 Y75.48
G0 X100.996 Y66.793
;TYPE:WALL-INNER
G1 F1500 E18.19376
G1 F2400 X106.711 Y68.65 E18.36864
G1 X111.953 Y71.672 E18.54473
G1 X116.427 Y75.702 E18.71997
G1 X119.974 Y80.584 E18.89559
G1 X122.425 Y86.089 E19.07097
G1 X123.679 Y91.987 E19.24645
G1 X123.679 Y98.013 E19.42182
G1 X122.424 Y103.91 E19.59728
G1 X119.974 Y109.416 E19.77267
G1 X116.426 Y114.297 E19.94828
G1 X111.95 Y118.328 E20.12359
G1 X106.73 Y121.344 E20.29903
G1 X100.996 Y123.207 E20.4745
G1 X95 Y123.836 E20.64995
G1 X89.004 Y123.207 E20.82541
G1 X83.27 Y121.342 E21.00089
G1 X78.055 Y118.332 E21.17613
G1 X73.571 Y114.295 E21.35172
G1 X70.026 Y109.417 E21.52721
G1 X67.576 Y103.91 E21.70262
G1 X66.321 Y98.013 E21.87808
G1 X66.321 Y91.987 E22.05346
G1 X67.575 Y86.089 E22.22894
G1 X70.026 Y80.584 E22.40431
G1 X73.573 Y75.702 E22.57993
G1 X78.05 Y71.669 E22.75529
G1 X83.268 Y68.657 E22.93063
G1 X89.004 Y66.793 E23.10616
G1 X95 Y66.163 E23.28162
G1 X100.996 Y66.793 E23.45708
G0 F6000 X101.07 Y66.449
G1 F2400 X106.853 Y68.328 E23.63404
G1 X112.159 Y71.387 E23.81228
G1 X116.689 Y75.467 E23.98971
G1 X120.279 Y80.408 E24.16745
G1 X122.759 Y85.979 E24.34492
G1 X124.029 Y91.952 E24.52264
G1 X124.029 Y98.048 E24.70005
G1 X122.758 Y104.02 E24.87774
G1 X120.279 Y109.592 E25.05523
G1 X116.688 Y114.532 E25.23296
G1 X112.156 Y118.613 E25.41045
G1 X106.872 Y121.666 E25.58805
G1 X101.07 Y123.551 E25.76559
G1 X95 Y124.188 E25.94322
G1 X88.93 Y123.551 E26.12084
G1 X83.128 Y121.664 E26.2984
G1 X77.849 Y118.617 E26.47579
G1 X73.309 Y114.53 E26.65356
G1 X69.721 Y109.593 E26.83118
G1 X67.242 Y104.02 E27.00869
G1 X65.971 Y98.048 E27.18638
G1 X65.971 Y91.952 E27.36379
G1 X67.241 Y85.979 E27.54151
G1 X69.721 Y80.408 E27.71898
G1 X73.311 Y75.467 E27.89672
G1 X77.844 Y71.384 E28.07427
G1 X83.126 Y68.335 E28.25176
G1 X88.93 Y66.449 E28.42937
G1 X95 Y65.811 E28.60699
G1 X101.07 Y66.449 E28.78462
G0 F6000 X101.138 Y66.13
;TYPE:WALL-OUTER
G1 F2400 X106.988 Y68.03 E28.96362
G1 X112.347 Y71.12 E29.14365
G1 X116.934 Y75.251 E29.3233
G1 X120.562 Y80.244 E29.50292
G1 X123.07 Y85.879 E29.68243
G1 X124.354 Y91.917 E29.86208
G1 X124.354 Y98.083 E30.04152
G1 X123.069 Y104.12 E30.22115
G1 X120.562 Y109.756 E30.40067
G1 X116.933 Y114.748 E30.58028
G1 X112.346 Y118.879 E30.75993
G1 X107.005 Y121.964 E30.93943
G1 X101.138 Y123.87 E31.11896
G1 X95 Y124.515 E31.29858
G1 X88.862 Y123.87 E31.47819
G1 X82.997 Y121.963 E31.65768
G1 X77.654 Y118.879 E31.83722
G1 X73.066 Y114.749 E32.01687
G1 X69.438 Y109.756 E32.19649
G1 X66.931 Y104.12 E32.376
G1 X65.646 Y98.083 E32.55563
G1 X65.646 Y91.917 E32.73508
G1 X66.93 Y85.879 E32.91473
G1 X69.438 Y80.244 E33.09423
G1 X73.066 Y75.251 E33.27385
G1 X77.653 Y71.12 E33.4535
G1 X82.995 Y68.036 E33.63302
G1 X88.862 Y66.13 E33.81255
G1 X95 Y65.484 E33.99216
G1 X101.138 Y66.13 E34.17178
G0 F6000 X101.328 Y66.191
G0 X101.196 Y66.594
G0 X100.926 Y67.127
;TYPE:SKIN
G1 F2400 X106.571 Y68.962 E34.34453
G1 X111.753 Y71.949 E34.5186
G1 X116.172 Y75.93 E34.69169
G1 X119.677 Y80.754 E34.86523
G1 X122.101 Y86.199 E35.03869
G1 X123.339 Y92.019 E35.21185
G1 X123.339 Y97.981 E35.38536
G1 X122.1 Y103.8 E35.55851
G1 X119.677 Y109.245 E35.73195
G1 X116.171 Y114.069 E35.90551
G1 X111.753 Y118.048 E36.07854
G1 X106.585 Y121.034 E36.25224
G1 X100.926 Y122.873 E36.42541
G1 X95 Y123.494 E36.59882
G1 X89.074 Y122.873 E36.77223
G1 X83.41 Y121.031 E36.94556
G1 X78.256 Y118.055 E37.11876
G1 X73.826 Y114.067 E37.29223
G1 X70.323 Y109.247 E37.46564
G1 X67.9 Y103.8 E37.63914
G1 X66.661 Y97.981 E37.81228
G1 X66.661 Y92.019 E37.98579
G1 X67.899 Y86.199 E38.15896
G1 X70.323 Y80.754 E38.33242
G1 X73.828 Y75.93 E38.50595
G1 X78.249 Y71.947 E38.67913
G1 X83.411 Y68.967 E38.8526
G1 X89.074 Y67.127 E39.02588
G1 X95 Y66.505 E39.19929
G1 X100.926 Y67.127 E39.3727
G0 F6000 X117.165 Y77.567
G1 F2400 X111.804 Y72.206 E39.59335
G1 X111.742 Y72.144
G0 F6000 X110.526 Y71.423
G1 F2400 X118.483 Y79.38 E39.92084
G1 X118.545 Y79.442
G0 F6000 X119.619 Y81.011
G1 F2400 X109.358 Y70.75 E40.34315
G1 X109.296 Y70.688
G0 F6000 X108.19 Y70.077
G1 F2400 X120.016 Y81.903 E40.82988
G1 X120.078 Y81.965
G0 F6000 X120.413 Y82.795
G1 F2400 X107.021 Y69.403 E41.38106
G1 X106.959 Y69.341
G0 F6000 X106.095 Y68.972
G1 F2400 X120.81 Y83.687 E41.98669
G1 X120.872 Y83.749
G0 F6000 X121.208 Y84.579
G1 F2400 X105.361 Y68.733 E42.63889
G1 X105.299 Y68.671
G0 F6000 X104.628 Y68.495
G1 F2400 X121.604 Y85.471 E43.33757
G1 X121.666 Y85.533
G0 F6000 X121.968 Y86.329
G1 F2400 X103.895 Y68.257 E44.08139
G1 X103.833 Y68.195
G0 F6000 X103.161 Y68.018
G1 F2400 X122.101 Y86.958 E44.86091
G0 F6000 X122.235 Y87.587
G1 F2400 X102.428 Y67.78 E45.67611
G1 X102.366 Y67.718
G0 F6000 X101.695 Y67.542
G1 F2400 X122.369 Y88.215 E46.52698
G0 F6000 X122.502 Y88.844
G1 F2400 X100.961 Y67.303 E47.41355
G0 F6000 X100.392 Y67.228
G1 F2400 X122.636 Y89.473 E48.32907
G0 F6000 X122.77 Y90.101
G1 F2400 X99.839 Y67.17 E49.27285
G0 F6000 X99.286 Y67.112
G1 F2400 X122.903 Y90.73 E50.24488
G0 F6000 X123.037 Y91.358
G1 F2400 X98.733 Y67.054 E51.24517
G0 F6000 X98.18 Y66.996
G1 F2400 X123.17 Y91.987 E52.27371
G0 F6000 X123.181 Y92.493
G1 F2400 X97.627 Y66.938 E53.32547
G0 F6000 X97.074 Y66.88
G1 F2400 X123.181 Y92.988 E54.39998
G0 F6000 X123.181 Y93.483
G1 F2400 X96.521 Y66.823 E55.49723
G0 F6000 X95.968 Y66.765
G1 F2400 X123.181 Y93.978 E56.61725
G0 F6000 X123.181 Y94.473
G1 F2400 X95.415 Y66.707 E57.76002
G0 F6000 X94.888 Y66.675
G1 F2400 X123.181 Y94.967 E58.92447
G0 F6000 X123.181 Y95.462
G1 F2400 X94.44 Y66.721 E60.10737
G0 F6000 X93.992 Y66.769
G1 F2400 X123.181 Y95.957 E61.30869
G0 F6000 X123.181 Y96.452
G1 F2400 X93.544 Y66.815 E62.52847
G0 F6000 X93.096 Y66.863
G1 F2400 X123.181 Y96.947 E63.76667
G0 F6000 X123.181 Y97.442
G1 F2400 X92.648 Y66.909 E65.02332
G0 F6000 X92.2 Y66.956
G1 F2400 X123.181 Y97.937 E66.29842
G0 F6000 X123.1 Y98.351
G1 F2400 X91.752 Y67.004 E67.5886
G0 F6000 X91.304 Y67.05
G1 F2400 X123.013 Y98.759 E68.89365
G0 F6000 X122.926 Y99.167
G1 F2400 X90.856 Y67.098 E70.21355
G0 F6000 X90.408 Y67.144
G1 F2400 X122.839 Y99.575 E71.54832
G0 F6000 X122.752 Y99.983
G1 F2400 X89.96 Y67.192 E72.89793
G0 F6000 X89.512 Y67.238
G1 F2400 X122.665 Y100.391 E74.26242
G0 F6000 X122.578 Y100.799
G1 F2400 X89.071 Y67.292 E75.64148
G0 F6000 X88.697 Y67.413
G1 F2400 X122.491 Y101.207 E77.03235
G0 F6000 X122.404 Y101.615
G1 F2400 X88.324 Y67.535 E78.43499
G0 F6000 X87.95 Y67.656
G1 F2400 X122.318 Y102.024 E79.84948
G0 F6000 X122.231 Y102.432
G1 F2400 X87.576 Y67.777 E81.27579
G0 F6000 X87.203 Y67.899
G1 F2400 X122.144 Y102.84 E82.71387
G0 F6000 X122.057 Y103.248
G1 F2400 X86.829 Y68.02 E84.16376
G0 F6000 X86.455 Y68.141
G1 F2400 X121.97 Y103.656 E85.62546
G0 F6000 X121.833 Y104.013
G1 F2400 X86.082 Y68.263 E87.09686
G0 F6000 X85.709 Y68.385
G1 F2400 X121.68 Y104.356 E88.57733
G0 F6000 X121.528 Y104.699
G1 F2400 X85.335 Y68.505 E90.06695
G0 F6000 X84.961 Y68.627
G1 F2400 X121.375 Y105.041 E91.56566
G0 F6000 X121.222 Y105.383
G1 F2400 X84.587 Y68.748 E93.07345
G0 F6000 X84.214 Y68.87
G1 F2400 X121.07 Y105.726 E94.59035
G0 F6000 X120.918 Y106.068
G1 F2400 X83.84 Y68.991 E96.11636
G0 F6000 X83.469 Y69.114
G1 F2400 X120.765 Y106.411 E97.65138
G0 F6000 X120.613 Y106.754
G1 F2400 X83.155 Y69.295 E99.19307
G0 F6000 X82.841 Y69.476
G1 F2400 X120.46 Y107.096 E100.74139
G0 F6000 X120.308 Y107.439
G1 F2400 X82.527 Y69.658 E102.29636
G0 F6000 X82.213 Y69.839
G1 F2400 X120.155 Y107.781 E103.85795
G0 F6000 X120.003 Y108.123
G1 F2400 X81.899 Y70.02 E105.42618
G0 F6000 X81.585 Y70.201
G1 F2400 X119.851 Y108.466 E107.00109
G0 F6000 X119.698 Y108.808
G1 F2400 X81.272 Y70.382 E108.5826
G0 F6000 X80.958 Y70.564
G1 F2400 X119.546 Y109.151 E110.17076
G0 F6000 X119.339 Y109.44
G1 F2400 X80.644 Y70.745 E111.76334
G0 F6000 X80.33 Y70.926
G1 F2400 X119.131 Y109.726 E113.36027
G0 F6000 X118.922 Y110.013
G1 F2400 X80.016 Y71.107 E114.96153
G0 F6000 X79.703 Y71.289
G1 F2400 X118.714 Y110.3 E116.56712
G0 F6000 X118.506 Y110.586
G1 F2400 X79.389 Y71.47 E118.17705
G0 F6000 X79.075 Y71.651
G1 F2400 X118.298 Y110.873 E119.79134
G0 F6000 X118.089 Y111.16
G1 F2400 X78.761 Y71.832 E121.40998
G0 F6000 X78.448 Y72.013
G1 F2400 X117.881 Y111.446 E123.03294
G0 F6000 X117.673 Y111.733
G1 F2400 X78.169 Y72.23 E124.65879
G0 F6000 X77.909 Y72.464
G1 F2400 X117.464 Y112.019 E126.28677
G0 F6000 X117.255 Y112.306
G1 F2400 X77.648 Y72.699 E127.91689
G0 F6000 X77.388 Y72.933
G1 F2400 X117.048 Y112.593 E129.54919
G0 F6000 X116.839 Y112.879
G1 F2400 X77.128 Y73.168 E131.18359
G0 F6000 X76.868 Y73.403
G1 F2400 X116.63 Y113.166 E132.8201
G0 F6000 X116.423 Y113.453
G1 F2400 X76.607 Y73.637 E134.45882
G0 F6000 X76.347 Y73.872
G1 F2400 X116.214 Y113.739 E136.09964
G0 F6000 X115.994 Y114.014
G1 F2400 X76.086 Y74.106 E137.74215
G0 F6000 X75.826 Y74.341
G1 F2400 X115.733 Y114.248 E139.38461
G0 F6000 X115.473 Y114.483
G1 F2400 X75.566 Y74.576 E141.02708
G0 F6000 X75.305 Y74.81
G1 F2400 X115.213 Y114.718 E142.66959
G0 F6000 X114.952 Y114.952
G1 F2400 X75.045 Y75.045 E144.31205
G0 F6000 X74.785 Y75.28
G1 F2400 X114.692 Y115.186 E145.95449
G0 F6000 X114.431 Y115.421
G1 F2400 X74.524 Y75.514 E147.59696
G0 F6000 X74.264 Y75.749
G1 F2400 X114.171 Y115.656 E149.23942
G0 F6000 X113.911 Y115.891
G1 F2400 X74.003 Y75.983 E150.88193
G0 F6000 X73.783 Y76.258
G1 F2400 X113.651 Y116.126 E152.52279
G0 F6000 X113.39 Y116.36
G1 F2400 X73.575 Y76.545 E154.16147
G0 F6000 X73.367 Y76.832
G1 F2400 X113.13 Y116.594 E155.79799
G0 F6000 X112.869 Y116.829
G1 F2400 X73.158 Y77.118 E157.43239
G0 F6000 X72.95 Y77.405
G1 F2400 X112.609 Y117.064 E159.06464
G0 F6000 X112.348 Y117.298
G1 F2400 X72.742 Y77.691 E160.69474
G0 F6000 X72.534 Y77.979
G1 F2400 X112.088 Y117.533 E162.32268
G0 F6000 X111.828 Y117.767
G1 F2400 X72.325 Y78.265 E163.94849
G0 F6000 X72.117 Y78.551
G1 F2400 X111.548 Y117.982 E165.57137
G0 F6000 X111.234 Y118.164
G1 F2400 X71.909 Y78.838 E167.1899
G0 F6000 X71.7 Y79.125
G1 F2400 X110.921 Y118.345 E168.80411
G0 F6000 X110.607 Y118.526
G1 F2400 X71.492 Y79.412 E170.41396
