;FLAVOR:Marlin
;TIME:828
;Filament used: 0.691869m
;Layer height: 0.15
;Generated with Cura_SteamEngine 3.6.0
M140 S55
M105
M190 S55
M104 S210
M105
M109 S210
M82 ;absolute extrusion mode
G21 ;metric values
G90 ;absolute positioning
M82 ;set extruder to absolute mode
M107 ;start with the fan off
G28 X0 Y0 ;move X/Y to min endstops
G28 Z0 ;move Z to min endstops
G1 Z15.0 F9000 ;move the platform down 15mm
G92 E0 ;zero the extruded length
G1 F200 E3 ;extrude 3mm of feed stock
G92 E0 ;zero the extruded length again
G1 F9000
;Put printing message on LCD screen
M117 Printing...
G92 E0
G1 F900 E-4
;LAYER_COUNT:14
;LAYER:0
M107
G0 F4320 X67.915 Y77.133 Z0.2
;TYPE:SKIRT
G1 F900 E0
G1 F2400 X68.163 Y76.957 E0.00885
G1 X68.456 Y76.765 E0.01905
G1 X68.963 Y76.481 E0.03596
G1 X69.504 Y76.269 E0.05287
G1 X70.331 Y76.097 E0.07745
G1 X72.744 Y75.844 E0.14806
G1 X73.182 Y75.821 E0.16082
G1 X114.837 Y75.794 E1.37309
G1 X115.138 Y75.805 E1.38186
G1 X116.55 Y75.905 E1.42306
G1 X116.565 Y75.906 E1.42349
G1 X122.004 Y76.311 E1.58222
G1 X127.449 Y76.468 E1.74075
G1 X132.884 Y76.317 E1.89898
G1 X136.969 Y76.024 E2.01817
G1 X137.57 Y76.024 E2.03566
G1 X139.641 Y76.171 E2.09609
G1 X140.218 Y76.252 E2.11304
G1 X141.61 Y76.547 E2.15445
G1 X142.077 Y76.674 E2.16854
G1 X143.371 Y77.108 E2.20826
G1 X143.803 Y77.28 E2.22179
G1 X145.043 Y77.854 E2.26156
G1 X145.552 Y78.134 E2.27846
G1 X147.312 Y79.265 E2.33935
G1 X147.914 Y79.734 E2.36156
G1 X149.463 Y81.183 E2.42329
G1 X149.92 Y81.685 E2.44304
G1 X151.175 Y83.309 E2.50277
G1 X151.516 Y83.823 E2.52073
G1 X152.199 Y85.039 E2.56132
G1 X152.412 Y85.476 E2.57546
G1 X152.961 Y86.787 E2.61683
G1 X153.12 Y87.236 E2.63069
G1 X153.501 Y88.542 E2.67028
G1 X153.608 Y89.004 E2.68408
G1 X153.847 Y90.383 E2.72481
G1 X153.902 Y90.862 E2.73885
G1 X153.981 Y92.239 E2.77899
G1 X153.972 Y92.844 E2.79659
G1 X153.798 Y94.864 E2.8556
G1 X153.71 Y95.432 E2.87233
G1 X153.397 Y96.817 E2.91365
G1 X153.23 Y97.376 E2.93063
G1 X152.501 Y99.311 E2.99081
G1 X152.245 Y99.865 E3.00857
G1 X151.57 Y101.086 E3.04917
G1 X151.317 Y101.488 E3.06299
G1 X150.539 Y102.584 E3.10211
G1 X150.151 Y103.055 E3.11987
G1 X148.715 Y104.56 E3.18041
G1 X148.286 Y104.951 E3.1973
G1 X147.212 Y105.804 E3.23722
G1 X146.747 Y106.125 E3.25366
G1 X144.975 Y107.181 E3.31369
G1 X144.208 Y107.54 E3.33834
G1 X141.634 Y108.441 E3.4177
G1 X140.943 Y108.619 E3.43847
G1 X139.583 Y108.849 E3.47861
G1 X139.011 Y108.906 E3.49534
G1 X137.042 Y108.968 E3.55267
G1 X136.476 Y108.948 E3.56916
G1 X134.416 Y108.736 E3.62942
G1 X133.979 Y108.667 E3.6423
G1 X126.121 Y107.013 E3.876
G1 X120.784 Y106.171 E4.03324
G1 X115.388 Y105.63 E4.19107
G1 X109.984 Y105.395 E4.34848
G1 X104.559 Y105.467 E4.50638
G1 X99.146 Y105.846 E4.6643
G1 X93.803 Y106.525 E4.82104
G1 X86.925 Y107.857 E5.02493
G1 X83.437 Y108.554 E5.12845
G1 X83.151 Y108.601 E5.13688
G1 X81.698 Y108.789 E5.17952
G1 X81.427 Y108.815 E5.18744
G1 X79.469 Y108.941 E5.24455
G1 X78.968 Y108.944 E5.25913
G1 X77.009 Y108.837 E5.31622
G1 X76.449 Y108.769 E5.33264
G1 X75.056 Y108.504 E5.37391
G1 X74.596 Y108.389 E5.38771
G1 X73.947 Y108.188 E5.40748
G1 X73.448 Y107.998 E5.42302
G1 X72.333 Y107.491 E5.45867
G1 X71.695 Y107.131 E5.47998
G1 X70.82 Y106.532 E5.51084
G1 X70.218 Y106.032 E5.53362
G1 X69.361 Y105.174 E5.56891
G1 X68.83 Y104.525 E5.59332
G1 X68.135 Y103.478 E5.62989
G1 X67.853 Y102.985 E5.64642
G1 X67.499 Y102.255 E5.67003
G1 X67.264 Y101.658 E5.6887
G1 X66.662 Y99.709 E5.74807
G1 X66.527 Y99.13 E5.76537
G1 X66.249 Y97.395 E5.8165
G1 X66.208 Y97.045 E5.82676
G1 X66.058 Y95.06 E5.88469
G1 X66.046 Y94.744 E5.8939
G1 X66.038 Y80.883 E6.29729
G1 X66.078 Y80.304 E6.31418
G1 X66.196 Y79.735 E6.33109
G1 X66.392 Y79.188 E6.348
G1 X66.567 Y78.834 E6.35949
G1 X66.783 Y78.444 E6.37247
G1 X67.099 Y77.956 E6.38939
G1 X67.479 Y77.516 E6.40631
G1 X67.915 Y77.133 E6.4232
G0 F4320 X68.355 Y77.25
G1 F2400 X68.648 Y77.058 E6.43339
G1 X69.134 Y76.787 E6.44958
G1 X69.654 Y76.589 E6.46578
G1 X70.368 Y76.445 E6.48698
G1 X72.781 Y76.192 E6.55759
G1 X73.182 Y76.171 E6.56927
G1 X114.837 Y76.144 E7.78154
G1 X115.114 Y76.154 E7.78961
G1 X116.526 Y76.254 E7.8308
G1 X116.539 Y76.255 E7.83118
G1 X121.99 Y76.661 E7.99026
G1 X127.43 Y76.817 E8.14864
G1 X132.919 Y76.665 E8.30845
G1 X136.994 Y76.373 E8.42735
G1 X137.545 Y76.373 E8.44338
G1 X139.616 Y76.52 E8.50381
G1 X140.145 Y76.594 E8.51935
G1 X141.537 Y76.889 E8.56076
G1 X141.966 Y77.006 E8.5737
G1 X143.26 Y77.44 E8.61342
G1 X143.656 Y77.597 E8.62582
G1 X144.896 Y78.171 E8.66559
G1 X145.363 Y78.428 E8.6811
G1 X147.123 Y79.559 E8.74198
G1 X147.675 Y79.989 E8.76235
G1 X149.224 Y81.438 E8.82408
G1 X149.643 Y81.899 E8.84221
G1 X150.898 Y83.523 E8.90194
G1 X151.211 Y83.994 E8.9184
G1 X151.894 Y85.21 E8.95898
G1 X152.089 Y85.611 E8.97196
G1 X152.638 Y86.922 E9.01333
G1 X152.784 Y87.334 E9.02605
G1 X153.165 Y88.64 E9.06564
G1 X153.263 Y89.063 E9.07827
G1 X153.502 Y90.442 E9.11901
G1 X153.553 Y90.882 E9.1319
G1 X153.632 Y92.259 E9.17204
G1 X153.624 Y92.814 E9.18819
G1 X153.45 Y94.834 E9.2472
G1 X153.369 Y95.355 E9.26254
G1 X153.056 Y96.74 E9.30386
G1 X152.902 Y97.252 E9.31942
G1 X152.173 Y99.187 E9.3796
G1 X151.938 Y99.696 E9.39592
G1 X151.263 Y100.917 E9.43652
G1 X151.032 Y101.285 E9.44916
G1 X150.254 Y102.381 E9.48828
G1 X149.898 Y102.813 E9.50457
G1 X148.462 Y104.318 E9.56511
G1 X148.068 Y104.677 E9.58062
G1 X146.994 Y105.53 E9.62054
G1 X146.568 Y105.825 E9.63562
G1 X144.796 Y106.881 E9.69565
G1 X144.092 Y107.209 E9.71825
G1 X141.518 Y108.11 E9.79762
G1 X140.884 Y108.274 E9.81668
G1 X139.524 Y108.504 E9.85682
G1 X139 Y108.556 E9.87214
G1 X137.031 Y108.618 E9.92948
G1 X136.512 Y108.6 E9.94459
G1 X134.452 Y108.388 E10.00486
G1 X134.051 Y108.325 E10.01667
G1 X126.187 Y106.67 E10.25055
G1 X120.822 Y105.823 E10.40862
G1 X115.403 Y105.28 E10.56711
G1 X109.994 Y105.045 E10.72468
G1 X104.548 Y105.118 E10.88318
G1 X99.111 Y105.498 E11.0418
G1 X93.742 Y106.18 E11.19931
G1 X86.881 Y107.509 E11.40269
G1 X83.368 Y108.211 E11.50695
G1 X83.106 Y108.254 E11.51468
G1 X81.653 Y108.442 E11.55732
G1 X81.405 Y108.466 E11.56457
G1 X79.447 Y108.592 E11.62167
G1 X78.987 Y108.594 E11.63506
G1 X77.028 Y108.487 E11.69215
G1 X76.515 Y108.425 E11.70719
G1 X75.122 Y108.16 E11.74846
G1 X74.7 Y108.055 E11.76112
G1 X74.051 Y107.854 E11.78089
G1 X73.593 Y107.679 E11.79516
G1 X72.478 Y107.172 E11.8308
G1 X71.893 Y106.843 E11.85034
G1 X71.018 Y106.244 E11.8812
G1 X70.465 Y105.784 E11.90213
G1 X69.608 Y104.926 E11.93742
G1 X69.122 Y104.331 E11.95978
G1 X68.427 Y103.284 E11.99635
G1 X68.168 Y102.832 E12.01151
G1 X67.814 Y102.102 E12.03513
G1 X67.599 Y101.555 E12.05223
G1 X66.997 Y99.606 E12.1116
G1 X66.873 Y99.075 E12.12746
G1 X66.595 Y97.34 E12.1786
G1 X66.557 Y97.019 E12.18801
G1 X66.407 Y95.034 E12.24594
G1 X66.396 Y94.744 E12.25439
G1 X66.388 Y80.883 E12.65778
G1 X66.428 Y80.328 E12.67397
G1 X66.546 Y79.785 E12.69014
G1 X66.742 Y79.264 E12.70634
G1 X66.873 Y79.004 E12.71482
G1 X67.089 Y78.614 E12.72779
G1 X67.393 Y78.147 E12.74401
G1 X67.76 Y77.73 E12.76018
G1 X68.355 Y77.25 E12.78242
G0 F4320 X68.547 Y77.543
G1 F2400 X68.84 Y77.351 E12.79262
G1 X69.304 Y77.094 E12.80806
G1 X69.802 Y76.91 E12.82351
G1 X70.404 Y76.793 E12.84135
G1 X72.817 Y76.54 E12.91196
G1 X73.183 Y76.521 E12.92263
G1 X114.838 Y76.494 E14.1349
G1 X115.089 Y76.503 E14.14221
G1 X116.501 Y76.603 E14.1834
G1 X116.514 Y76.604 E14.18378
G1 X121.956 Y77.009 E14.3426
G1 X127.448 Y77.167 E14.5025
G1 X132.931 Y77.015 E14.66213
G1 X137.019 Y76.722 E14.7814
G1 X137.521 Y76.722 E14.79601
G1 X139.592 Y76.869 E14.85644
G1 X140.073 Y76.937 E14.87057
G1 X141.465 Y77.232 E14.91198
G1 X141.855 Y77.338 E14.92375
G1 X143.149 Y77.772 E14.96347
G1 X143.509 Y77.915 E14.97474
G1 X144.749 Y78.489 E15.01451
G1 X145.174 Y78.723 E15.02863
G1 X146.934 Y79.854 E15.08951
G1 X147.436 Y80.245 E15.10803
G1 X148.985 Y81.694 E15.16976
G1 X149.366 Y82.113 E15.18624
G1 X150.621 Y83.737 E15.24597
G1 X150.905 Y84.166 E15.26094
G1 X151.588 Y85.382 E15.30153
G1 X151.766 Y85.746 E15.31332
G1 X152.315 Y87.057 E15.35469
G1 X152.448 Y87.432 E15.36627
G1 X152.829 Y88.738 E15.40586
G1 X152.918 Y89.123 E15.41736
G1 X153.157 Y90.502 E15.45809
G1 X153.203 Y90.902 E15.46981
G1 X153.282 Y92.279 E15.50995
G1 X153.275 Y92.784 E15.52465
G1 X153.101 Y94.804 E15.58365
G1 X153.027 Y95.278 E15.59761
G1 X152.714 Y96.663 E15.63894
G1 X152.575 Y97.129 E15.65309
G1 X151.846 Y99.064 E15.71327
G1 X151.632 Y99.526 E15.72808
G1 X150.957 Y100.747 E15.76869
G1 X150.746 Y101.082 E15.78021
G1 X149.968 Y102.178 E15.81932
G1 X149.644 Y102.571 E15.83415
G1 X148.208 Y104.076 E15.89469
G1 X147.85 Y104.403 E15.9088
G1 X146.776 Y105.256 E15.94871
G1 X146.389 Y105.524 E15.96241
G1 X144.617 Y106.58 E16.02244
G1 X143.977 Y106.879 E16.043
G1 X141.403 Y107.78 E16.12237
G1 X140.826 Y107.929 E16.13971
G1 X139.466 Y108.159 E16.17985
G1 X138.989 Y108.206 E16.1938
G1 X137.02 Y108.268 E16.25113
G1 X136.548 Y108.251 E16.26488
G1 X134.488 Y108.039 E16.32515
G1 X134.123 Y107.982 E16.3359
G1 X126.253 Y106.325 E16.56996
G1 X120.86 Y105.474 E16.72885
G1 X115.453 Y104.932 E16.887
G1 X109.987 Y104.695 E17.04622
G1 X104.518 Y104.768 E17.2054
G1 X99.096 Y105.147 E17.36358
G1 X93.692 Y105.834 E17.52211
G1 X86.813 Y107.166 E17.72603
G1 X83.3 Y107.868 E17.83029
G1 X83.061 Y107.907 E17.83734
G1 X81.608 Y108.095 E17.87997
G1 X81.382 Y108.117 E17.88658
G1 X79.424 Y108.243 E17.94368
G1 X79.006 Y108.245 E17.95585
G1 X77.047 Y108.138 E18.01294
G1 X76.58 Y108.081 E18.02664
G1 X75.187 Y107.816 E18.0679
G1 X74.803 Y107.72 E18.07942
G1 X74.154 Y107.519 E18.0992
G1 X73.738 Y107.361 E18.11215
G1 X72.623 Y106.854 E18.14779
G1 X72.091 Y106.554 E18.16557
G1 X71.216 Y105.955 E18.19643
G1 X70.713 Y105.537 E18.21546
G1 X69.856 Y104.679 E18.25075
G1 X69.413 Y104.137 E18.27113
G1 X68.718 Y103.09 E18.3077
G1 X68.483 Y102.679 E18.32148
G1 X68.129 Y101.949 E18.34509
G1 X67.933 Y101.451 E18.36066
G1 X67.331 Y99.502 E18.42003
G1 X67.218 Y99.02 E18.43444
G1 X66.94 Y97.285 E18.48557
G1 X66.906 Y96.993 E18.49413
G1 X66.756 Y95.008 E18.55206
G1 X66.746 Y94.744 E18.55975
G1 X66.738 Y80.883 E18.96314
G1 X66.778 Y80.354 E18.97858
G1 X66.896 Y79.837 E18.99401
G1 X67.179 Y79.173 E19.01502
G1 X67.395 Y78.783 E19.02799
G1 X67.687 Y78.34 E19.04344
G1 X68.041 Y77.945 E19.05887
G1 X68.547 Y77.543 E19.07768
G0 F4320 X68.739 Y77.835
G1 F2400 X69.032 Y77.643 E19.08787
G1 X69.474 Y77.402 E19.10253
G1 X69.948 Y77.233 E19.11717
G1 X70.441 Y77.141 E19.13177
G1 X72.854 Y76.888 E19.20238
G1 X73.183 Y76.871 E19.21196
G1 X114.838 Y76.844 E20.42423
G1 X115.064 Y76.852 E20.43081
G1 X116.476 Y76.952 E20.47201
G1 X116.488 Y76.953 E20.47236
G1 X121.942 Y77.359 E20.63153
G1 X127.447 Y77.517 E20.7918
G1 X132.943 Y77.365 E20.95181
G1 X137.044 Y77.071 E21.07147
G1 X137.496 Y77.071 E21.08462
G1 X139.567 Y77.218 E21.14504
G1 X140 Y77.279 E21.15777
G1 X141.392 Y77.574 E21.19918
G1 X141.744 Y77.67 E21.2098
G1 X143.038 Y78.104 E21.24952
G1 X143.362 Y78.233 E21.25967
G1 X144.602 Y78.807 E21.29943
G1 X144.984 Y79.017 E21.31212
G1 X146.744 Y80.148 E21.37301
G1 X147.197 Y80.5 E21.3897
G1 X148.746 Y81.949 E21.45143
G1 X149.089 Y82.327 E21.46629
G1 X150.344 Y83.951 E21.52602
G1 X150.6 Y84.337 E21.5395
G1 X151.283 Y85.553 E21.58008
G1 X151.444 Y85.882 E21.59074
G1 X151.993 Y87.193 E21.63211
G1 X152.112 Y87.53 E21.64251
G1 X152.493 Y88.836 E21.6821
G1 X152.573 Y89.183 E21.69246
G1 X152.812 Y90.562 E21.7332
G1 X152.854 Y90.922 E21.74374
G1 X152.933 Y92.299 E21.78388
G1 X152.926 Y92.753 E21.7971
G1 X152.752 Y94.773 E21.8561
G1 X152.686 Y95.201 E21.86871
G1 X152.373 Y96.586 E21.91003
G1 X152.247 Y97.005 E21.92276
G1 X151.518 Y98.94 E21.98294
G1 X151.326 Y99.357 E21.9963
G1 X150.651 Y100.578 E22.0369
G1 X150.461 Y100.88 E22.04729
G1 X149.683 Y101.976 E22.0864
G1 X149.391 Y102.33 E22.09976
G1 X147.955 Y103.835 E22.1603
G1 X147.633 Y104.129 E22.17299
G1 X146.559 Y104.982 E22.2129
G1 X146.209 Y105.223 E22.22527
G1 X144.437 Y106.279 E22.2853
G1 X143.861 Y106.549 E22.30381
G1 X141.287 Y107.45 E22.38318
G1 X140.767 Y107.584 E22.39881
G1 X139.407 Y107.814 E22.43895
G1 X138.978 Y107.856 E22.4515
G1 X137.009 Y107.918 E22.50883
G1 X136.584 Y107.903 E22.5212
G1 X134.524 Y107.691 E22.58147
G1 X134.195 Y107.64 E22.59116
G1 X126.303 Y105.979 E22.82587
G1 X120.914 Y105.128 E22.98465
G1 X115.466 Y104.582 E23.14399
G1 X109.997 Y104.345 E23.3033
G1 X104.507 Y104.418 E23.46309
G1 X99.062 Y104.799 E23.62194
G1 X93.626 Y105.49 E23.78142
G1 X86.725 Y106.826 E23.98598
G1 X83.231 Y107.524 E24.08968
G1 X83.016 Y107.56 E24.09602
G1 X81.563 Y107.748 E24.13866
G1 X81.36 Y107.767 E24.14459
G1 X79.402 Y107.893 E24.20169
G1 X79.025 Y107.895 E24.21267
G1 X77.066 Y107.788 E24.26976
G1 X76.646 Y107.737 E24.28208
G1 X75.253 Y107.472 E24.32334
G1 X74.907 Y107.386 E24.33372
G1 X74.258 Y107.185 E24.35349
G1 X73.883 Y107.042 E24.36517
G1 X72.768 Y106.535 E24.40082
G1 X72.288 Y106.265 E24.41685
G1 X71.413 Y105.666 E24.44771
G1 X70.961 Y105.29 E24.46482
G1 X70.104 Y104.432 E24.50011
G1 X69.705 Y103.944 E24.51845
G1 X69.01 Y102.897 E24.55503
G1 X68.798 Y102.526 E24.56746
G1 X68.444 Y101.796 E24.59107
G1 X68.267 Y101.348 E24.60509
G1 X67.665 Y99.399 E24.66446
G1 X67.564 Y98.964 E24.67745
G1 X67.286 Y97.229 E24.72859
G1 X67.255 Y96.966 E24.7363
G1 X67.105 Y94.981 E24.79423
G1 X67.096 Y94.744 E24.80113
G1 X67.088 Y80.883 E25.20453
G1 X67.128 Y80.381 E25.21918
G1 X67.246 Y79.891 E25.23385
G1 X67.486 Y79.343 E25.25126
G1 X67.702 Y78.953 E25.26423
G1 X67.98 Y78.533 E25.27889
G1 X68.321 Y78.162 E25.29356
G1 X68.739 Y77.835 E25.309
G1 F900 E21.309
G1 F300 Z0.4
;MESH:Mustache_Comb.STL
G0 F4320 X72.723 Y94.132 Z0.4
;TYPE:WALL-INNER
G1 F300 Z0.2
G1 F900 E25.309
G1 F2400 X72.998 Y93.999 E25.31789
G1 X73.239 Y93.831 E25.32644
G1 X73.362 Y93.708 E25.3315
G1 X73.45 Y93.619 E25.33515
G1 X73.484 Y93.571 E25.33686
G1 X73.501 Y93.547 E25.33771
G1 X73.518 Y93.571
G1 X73.549 Y93.616 E25.3382
G1 X73.637 Y93.705 E25.34184
G1 X73.765 Y93.833 E25.34711
G1 X74.015 Y94.005 E25.35594
G1 X74.284 Y94.132 E25.3646
G1 X74.584 Y94.211 E25.37362
G1 X74.881 Y94.235 E25.3823
G1 X75.179 Y94.209 E25.391
G1 X75.472 Y94.131 E25.39982
G1 X75.747 Y93.999 E25.4087
G1 X75.985 Y93.833 E25.41715
G1 X76.201 Y93.62 E25.42598
G1 X76.234 Y93.572 E25.42767
G1 X76.251 Y93.547 E25.42855
G1 X76.268 Y93.572
G1 X76.299 Y93.616 E25.42901
G1 X76.516 Y93.834 E25.43797
G1 X76.768 Y94.007 E25.44686
G1 X77.039 Y94.134 E25.45557
G1 X77.331 Y94.209 E25.46434
G1 X77.623 Y94.235 E25.47288
G1 X77.928 Y94.209 E25.48178
G1 X78.223 Y94.131 E25.49067
G1 X78.498 Y93.998 E25.49956
G1 X78.739 Y93.83 E25.50811
G1 X78.862 Y93.706 E25.51319
G1 X78.95 Y93.618 E25.51681
G1 X78.984 Y93.57 E25.51852
G1 X79.001 Y93.546 E25.51938
G1 X79.017 Y93.569
G1 X79.051 Y93.617 E25.51994
G1 X79.139 Y93.705 E25.52357
G1 X79.263 Y93.831 E25.52871
G1 X79.517 Y94.007 E25.5377
G1 X79.789 Y94.134 E25.54644
G1 X80.081 Y94.209 E25.55521
G1 X80.373 Y94.235 E25.56375
G1 X80.678 Y94.209 E25.57265
G1 X80.973 Y94.131 E25.58153
G1 X81.248 Y93.998 E25.59042
G1 X81.489 Y93.83 E25.59897
G1 X81.612 Y93.707 E25.60404
G1 X81.7 Y93.618 E25.60768
G1 X81.734 Y93.57 E25.60939
G1 X81.751 Y93.546 E25.61025
G1 X81.768 Y93.57
G1 X81.799 Y93.615 E25.61073
G1 X81.887 Y93.704 E25.61437
G1 X82.015 Y93.832 E25.61964
G1 X82.265 Y94.004 E25.62847
G1 X82.534 Y94.131 E25.63713
G1 X82.834 Y94.21 E25.64616
G1 X83.131 Y94.234 E25.65483
G1 X83.429 Y94.208 E25.66353
G1 X83.722 Y94.13 E25.67236
G1 X83.997 Y93.998 E25.68123
G1 X84.235 Y93.832 E25.68968
G1 X84.451 Y93.619 E25.69851
G1 X84.484 Y93.571 E25.7002
G1 X84.501 Y93.546 E25.70108
G1 X84.518 Y93.571
G1 X84.549 Y93.615 E25.70155
G1 X84.766 Y93.833 E25.7105
G1 X85.018 Y94.006 E25.71939
G1 X85.289 Y94.133 E25.7281
G1 X85.581 Y94.208 E25.73688
G1 X85.873 Y94.234 E25.74541
G1 X86.178 Y94.208 E25.75432
G1 X86.473 Y94.13 E25.7632
G1 X86.748 Y93.997 E25.77209
G1 X86.989 Y93.829 E25.78064
G1 X87.112 Y93.705 E25.78572
G1 X87.2 Y93.617 E25.78934
G1 X87.234 Y93.569 E25.79105
G1 X87.251 Y93.545 E25.79191
G1 X87.267 Y93.568
G1 X87.301 Y93.616 E25.79248
G1 X87.389 Y93.704 E25.7961
G1 X87.513 Y93.83 E25.80124
G1 X87.767 Y94.006 E25.81024
