;FLAVOR:Marlin
;TIME:9227
;Filament used: 6.31757m
;Layer height: 0.2
;Generated with Cura_SteamEngine 3.4.1
M190 S60
M104 S205
M109 S205
M82 ;absolute extrusion mode
G21 ;metric values
G90 ;absolute positioning
M82 ;set extruder to absolute mode
M107 ;start with the fan off
G28 X0 Y0 ;move X/Y to min endstops
G28 Z0 ;move Z to min endstops
G1 Z15.0 F9000 ;move the platform down 15mm
G92 E0 ;zero the extruded length
G1 F200 E3 ;extrude 3mm of feed stock
G92 E0 ;zero the extruded length again
G1 F9000
;Put printing message on LCD screen
M117 Printing...
G92 E0
G1 F1500 E-6.5
;LAYER_COUNT:76
;LAYER:0
M107
G0 F3000 X21.152 Y18.677 Z0.2
;TYPE:SKIRT
G1 F1500 E0
G1 F1200 X21.345 Y18.478 E0.00692
G1 X22.582 Y17.323 E0.04913
G1 X22.798 Y17.14 E0.05619
G1 X24.148 Y16.11 E0.09855
G1 X24.381 Y15.95 E0.1056
G1 X25.81 Y15.069 E0.14748
G1 X26.061 Y14.931 E0.15462
G1 X27.569 Y14.199 E0.19644
G1 X27.832 Y14.088 E0.20356
G1 X29.406 Y13.51 E0.24539
G1 X29.676 Y13.425 E0.25245
G1 X31.292 Y13.008 E0.29408
G1 X31.576 Y12.95 E0.30131
G1 X33.229 Y12.699 E0.34302
G1 X33.514 Y12.671 E0.35016
G1 X35.168 Y12.588 E0.39147
G1 X35.311 Y12.584 E0.39504
G1 X107.311 Y12.584 E2.19109
G1 X107.455 Y12.588 E2.19468
G1 X109.12 Y12.672 E2.23627
G1 X109.406 Y12.701 E2.24344
G1 X111.059 Y12.953 E2.28515
G1 X111.343 Y13.011 E2.29238
G1 X112.959 Y13.429 E2.33402
G1 X113.229 Y13.513 E2.34107
G1 X114.802 Y14.092 E2.38288
G1 X115.064 Y14.204 E2.38999
G1 X116.57 Y14.936 E2.43176
G1 X116.822 Y15.075 E2.43894
G1 X118.254 Y15.96 E2.48093
G1 X118.485 Y16.118 E2.48792
G1 X119.824 Y17.14 E2.52993
G1 X120.04 Y17.323 E2.537
G1 X121.277 Y18.478 E2.57921
G1 X121.47 Y18.677 E2.58613
G1 X122.59 Y19.948 E2.62839
G1 X122.764 Y20.165 E2.63533
G1 X123.758 Y21.544 E2.67773
G1 X123.909 Y21.777 E2.68466
G1 X124.767 Y23.25 E2.72718
G1 X124.894 Y23.495 E2.73406
G1 X125.607 Y25.048 E2.77669
G1 X125.709 Y25.302 E2.78352
G1 X126.271 Y26.92 E2.82624
G1 X126.348 Y27.181 E2.83303
G1 X126.753 Y28.845 E2.87575
G1 X126.805 Y29.112 E2.88254
G1 X127.05 Y30.811 E2.92536
G1 X127.076 Y31.082 E2.93215
G1 X127.158 Y32.797 E2.97498
G1 X127.158 Y33.069 E2.98176
G1 X127.076 Y34.784 E3.02459
G1 X127.05 Y35.054 E3.03136
G1 X126.805 Y36.755 E3.07423
G1 X126.753 Y37.023 E3.08104
G1 X126.348 Y38.687 E3.12376
G1 X126.271 Y38.948 E3.13055
G1 X125.709 Y40.566 E3.17328
G1 X125.607 Y40.82 E3.1801
G1 X124.895 Y42.371 E3.22267
G1 X124.768 Y42.616 E3.22956
G1 X123.91 Y44.089 E3.27208
G1 X123.76 Y44.321 E3.27897
G1 X122.766 Y45.701 E3.3214
G1 X122.591 Y45.919 E3.32837
G1 X121.47 Y47.191 E3.37066
G1 X121.277 Y47.39 E3.37758
G1 X120.04 Y48.545 E3.4198
G1 X119.824 Y48.728 E3.42686
G1 X118.485 Y49.75 E3.46888
G1 X118.255 Y49.908 E3.47584
G1 X116.825 Y50.792 E3.51778
G1 X116.572 Y50.931 E3.52498
G1 X115.064 Y51.664 E3.5668
G1 X114.802 Y51.776 E3.57391
G1 X113.229 Y52.355 E3.61572
G1 X112.959 Y52.439 E3.62278
G1 X111.343 Y52.857 E3.66441
G1 X111.059 Y52.915 E3.67164
G1 X109.406 Y53.167 E3.71336
G1 X109.12 Y53.196 E3.72053
G1 X107.455 Y53.28 E3.76211
G1 X107.311 Y53.284 E3.76571
G1 X35.3 Y53.283 E5.56203
G1 X35.157 Y53.279 E5.5656
G1 X33.503 Y53.196 E5.60691
G1 X33.216 Y53.167 E5.6141
G1 X31.563 Y52.915 E5.65581
G1 X31.279 Y52.857 E5.66304
G1 X29.663 Y52.439 E5.70468
G1 X29.393 Y52.355 E5.71174
G1 X27.82 Y51.776 E5.75355
G1 X27.558 Y51.664 E5.76066
G1 X26.05 Y50.931 E5.80248
G1 X25.797 Y50.792 E5.80968
G1 X24.367 Y49.908 E5.85162
G1 X24.137 Y49.75 E5.85858
G1 X22.798 Y48.728 E5.9006
G1 X22.582 Y48.545 E5.90766
G1 X21.345 Y47.39 E5.94988
G1 X21.152 Y47.191 E5.95679
G1 X20.031 Y45.919 E5.99909
G1 X19.856 Y45.701 E6.00606
G1 X18.862 Y44.321 E6.04849
G1 X18.712 Y44.089 E6.05538
G1 X17.854 Y42.616 E6.0979
G1 X17.727 Y42.371 E6.10478
G1 X17.015 Y40.82 E6.14736
G1 X16.913 Y40.566 E6.15418
G1 X16.351 Y38.948 E6.19691
G1 X16.274 Y38.687 E6.2037
G1 X15.869 Y37.023 E6.24642
G1 X15.817 Y36.755 E6.25323
G1 X15.572 Y35.054 E6.2961
G1 X15.546 Y34.784 E6.30286
G1 X15.464 Y33.071 E6.34564
G1 X15.464 Y32.799 E6.35243
G1 X15.546 Y31.084 E6.39526
G1 X15.572 Y30.814 E6.40203
G1 X15.817 Y29.113 E6.4449
G1 X15.869 Y28.845 E6.45171
G1 X16.274 Y27.181 E6.49443
G1 X16.351 Y26.92 E6.50121
G1 X16.913 Y25.302 E6.54394
G1 X17.015 Y25.048 E6.55077
G1 X17.727 Y23.497 E6.59334
G1 X17.854 Y23.252 E6.60022
G1 X18.712 Y21.779 E6.64275
G1 X18.862 Y21.547 E6.64964
G1 X19.856 Y20.167 E6.69206
G1 X20.031 Y19.949 E6.69904
G1 X21.152 Y18.677 E6.74133
G0 F3000 X21.377 Y18.875
G1 F1200 X21.55 Y18.697 E6.74752
G1 X22.787 Y17.542 E6.78974
G1 X22.98 Y17.379 E6.79604
G1 X24.33 Y16.349 E6.8384
G1 X24.539 Y16.205 E6.84473
G1 X25.968 Y15.324 E6.88661
G1 X26.192 Y15.201 E6.89298
G1 X27.7 Y14.469 E6.9348
G1 X27.935 Y14.369 E6.94117
G1 X29.509 Y13.791 E6.98299
G1 X29.751 Y13.716 E6.98931
G1 X31.367 Y13.299 E7.03095
G1 X31.621 Y13.247 E7.03741
G1 X33.274 Y12.996 E7.07912
G1 X33.529 Y12.97 E7.08551
G1 X35.183 Y12.887 E7.12683
G1 X35.311 Y12.884 E7.13002
G1 X107.311 Y12.884 E8.92607
G1 X107.439 Y12.887 E8.92926
G1 X109.104 Y12.971 E8.97085
G1 X109.36 Y12.997 E8.97727
G1 X111.013 Y13.249 E9.01898
G1 X111.268 Y13.301 E9.02547
G1 X112.884 Y13.719 E9.06711
G1 X113.126 Y13.795 E9.07343
G1 X114.699 Y14.374 E9.11525
G1 X114.933 Y14.474 E9.12159
G1 X116.439 Y15.206 E9.16336
G1 X116.665 Y15.33 E9.16979
G1 X118.097 Y16.215 E9.21179
G1 X118.303 Y16.357 E9.21803
G1 X119.642 Y17.379 E9.26005
G1 X119.835 Y17.542 E9.26635
G1 X121.072 Y18.697 E9.30857
G1 X121.245 Y18.875 E9.31476
G1 X122.365 Y20.146 E9.35702
G1 X122.521 Y20.341 E9.36325
G1 X123.515 Y21.72 E9.40565
G1 X123.649 Y21.928 E9.41182
G1 X124.507 Y23.401 E9.45434
G1 X124.621 Y23.62 E9.4605
G1 X125.334 Y25.173 E9.50313
G1 X125.426 Y25.4 E9.50924
G1 X125.988 Y27.018 E9.55197
G1 X126.057 Y27.252 E9.55805
G1 X126.462 Y28.916 E9.60077
G1 X126.508 Y29.155 E9.60684
G1 X126.753 Y30.854 E9.64966
G1 X126.776 Y31.096 E9.65573
G1 X126.858 Y32.811 E9.69856
G1 X126.858 Y33.055 E9.70465
G1 X126.776 Y34.77 E9.74747
G1 X126.753 Y35.012 E9.75354
G1 X126.508 Y36.713 E9.79641
G1 X126.462 Y36.952 E9.80248
G1 X126.057 Y38.616 E9.8452
G1 X125.988 Y38.85 E9.85129
G1 X125.426 Y40.468 E9.89401
G1 X125.334 Y40.695 E9.90012
G1 X124.622 Y42.246 E9.94269
G1 X124.508 Y42.465 E9.94885
G1 X123.65 Y43.938 E9.99138
G1 X123.516 Y44.145 E9.99753
G1 X122.522 Y45.525 E10.03995
G1 X122.366 Y45.721 E10.0462
G1 X121.245 Y46.993 E10.08849
G1 X121.072 Y47.171 E10.09469
G1 X119.835 Y48.326 E10.1369
G1 X119.642 Y48.489 E10.1432
G1 X118.303 Y49.511 E10.18522
G1 X118.097 Y49.653 E10.19146
G1 X116.667 Y50.537 E10.2334
G1 X116.441 Y50.661 E10.23983
G1 X114.933 Y51.394 E10.28166
G1 X114.699 Y51.494 E10.28801
G1 X113.126 Y52.073 E10.32982
G1 X112.884 Y52.149 E10.33615
G1 X111.268 Y52.567 E10.37778
G1 X111.013 Y52.619 E10.38428
G1 X109.36 Y52.871 E10.42599
G1 X109.104 Y52.897 E10.43241
G1 X107.439 Y52.981 E10.47399
G1 X107.311 Y52.984 E10.47719
G1 X35.3 Y52.983 E12.27351
G1 X35.172 Y52.98 E12.2767
G1 X33.518 Y52.897 E12.31801
G1 X33.262 Y52.871 E12.32443
G1 X31.609 Y52.619 E12.36614
G1 X31.354 Y52.567 E12.37263
G1 X29.738 Y52.149 E12.41427
G1 X29.496 Y52.073 E12.4206
G1 X27.923 Y51.494 E12.46241
G1 X27.689 Y51.394 E12.46876
G1 X26.181 Y50.661 E12.51058
G1 X25.955 Y50.537 E12.51702
G1 X24.525 Y49.653 E12.55895
G1 X24.319 Y49.511 E12.56519
G1 X22.98 Y48.489 E12.60721
G1 X22.787 Y48.326 E12.61351
G1 X21.55 Y47.171 E12.65573
G1 X21.377 Y46.993 E12.66192
G1 X20.256 Y45.721 E12.70422
G1 X20.1 Y45.525 E12.71047
G1 X19.106 Y44.145 E12.75289
G1 X18.972 Y43.938 E12.75904
G1 X18.114 Y42.465 E12.80156
G1 X18 Y42.246 E12.80772
G1 X17.288 Y40.695 E12.85029
G1 X17.196 Y40.468 E12.8564
G1 X16.634 Y38.85 E12.89913
G1 X16.565 Y38.616 E12.90522
G1 X16.16 Y36.952 E12.94794
G1 X16.114 Y36.713 E12.95401
G1 X15.869 Y35.012 E12.99688
G1 X15.846 Y34.77 E13.00294
G1 X15.764 Y33.057 E13.04572
G1 X15.764 Y32.813 E13.05181
G1 X15.846 Y31.098 E13.09464
G1 X15.869 Y30.856 E13.1007
G1 X16.114 Y29.155 E13.14357
G1 X16.16 Y28.916 E13.14964
G1 X16.565 Y27.252 E13.19236
G1 X16.634 Y27.018 E13.19845
G1 X17.196 Y25.4 E13.24118
G1 X17.288 Y25.173 E13.24729
G1 X18 Y23.622 E13.28986
G1 X18.114 Y23.403 E13.29602
G1 X18.972 Y21.93 E13.33854
G1 X19.106 Y21.723 E13.34469
G1 X20.1 Y20.343 E13.38711
G1 X20.256 Y20.147 E13.39336
G1 X21.377 Y18.875 E13.43566
G0 F3000 X21.602 Y19.073
G1 F1200 X21.754 Y18.916 E13.44111
G1 X22.991 Y17.761 E13.48333
G1 X23.162 Y17.617 E13.4889
G1 X24.512 Y16.587 E13.53126
G1 X24.696 Y16.461 E13.53682
G1 X26.125 Y15.58 E13.5787
G1 X26.323 Y15.471 E13.58434
G1 X27.831 Y14.739 E13.62615
G1 X28.038 Y14.651 E13.63176
G1 X29.612 Y14.073 E13.67359
G1 X29.826 Y14.006 E13.67918
G1 X31.442 Y13.589 E13.72082
G1 X31.666 Y13.543 E13.72652
G1 X33.319 Y13.292 E13.76823
G1 X33.544 Y13.27 E13.77387
G1 X35.198 Y13.187 E13.81518
G1 X35.311 Y13.184 E13.818
G1 X107.311 Y13.184 E15.61405
G1 X107.424 Y13.187 E15.61686
G1 X109.089 Y13.271 E15.65845
G1 X109.315 Y13.294 E15.66412
G1 X110.968 Y13.546 E15.70583
G1 X111.192 Y13.592 E15.71153
G1 X112.808 Y14.01 E15.75317
G1 X113.022 Y14.076 E15.75876
G1 X114.595 Y14.655 E15.80057
G1 X114.802 Y14.743 E15.80618
G1 X116.308 Y15.475 E15.84795
G1 X116.507 Y15.585 E15.85362
G1 X117.939 Y16.47 E15.89562
G1 X118.121 Y16.595 E15.90112
G1 X119.46 Y17.617 E15.94314
G1 X119.631 Y17.761 E15.94872
G1 X120.868 Y18.916 E15.99094
G1 X121.02 Y19.073 E15.99639
G1 X122.14 Y20.344 E16.03865
G1 X122.277 Y20.516 E16.04413
G1 X123.271 Y21.895 E16.08653
G1 X123.39 Y22.079 E16.092
G1 X124.248 Y23.552 E16.13452
G1 X124.349 Y23.745 E16.13996
G1 X125.062 Y25.298 E16.18259
G1 X125.142 Y25.499 E16.18798
G1 X125.704 Y27.117 E16.23071
G1 X125.765 Y27.323 E16.23607
G1 X126.17 Y28.987 E16.27879
G1 X126.211 Y29.198 E16.28415
G1 X126.456 Y30.897 E16.32697
G1 X126.476 Y31.111 E16.33233
G1 X126.558 Y32.826 E16.37516
G1 X126.558 Y33.04 E16.3805
G1 X126.476 Y34.755 E16.42333
G1 X126.456 Y34.969 E16.42869
G1 X126.211 Y36.67 E16.47156
G1 X126.17 Y36.881 E16.47692
G1 X125.765 Y38.545 E16.51964
G1 X125.704 Y38.751 E16.525
G1 X125.142 Y40.369 E16.56773
G1 X125.062 Y40.57 E16.57312
G1 X124.35 Y42.121 E16.6157
G1 X124.249 Y42.314 E16.62113
G1 X123.391 Y43.787 E16.66365
G1 X123.273 Y43.97 E16.66909
G1 X122.279 Y45.35 E16.71151
G1 X122.141 Y45.523 E16.71703
G1 X121.02 Y46.795 E16.75932
G1 X120.868 Y46.952 E16.76477
G1 X119.631 Y48.107 E16.80699
G1 X119.46 Y48.251 E16.81257
G1 X118.121 Y49.273 E16.85459
G1 X117.939 Y49.398 E16.8601
G1 X116.509 Y50.282 E16.90203
G1 X116.31 Y50.392 E16.9077
G1 X114.802 Y51.125 E16.94953
G1 X114.595 Y51.213 E16.95514
G1 X113.022 Y51.792 E16.99695
G1 X112.808 Y51.858 E17.00254
G1 X111.192 Y52.276 E17.04418
G1 X110.968 Y52.322 E17.04988
G1 X109.315 Y52.574 E17.09159
G1 X109.089 Y52.597 E17.09726
G1 X107.424 Y52.681 E17.13885
G1 X107.311 Y52.684 E17.14167
G1 X35.3 Y52.683 E18.93799
G1 X35.187 Y52.68 E18.94081
G1 X33.533 Y52.597 E18.98212
G1 X33.307 Y52.574 E18.98778
G1 X31.654 Y52.322 E19.0295
G1 X31.43 Y52.276 E19.0352
G1 X29.814 Y51.858 E19.07684
G1 X29.6 Y51.792 E19.08242
G1 X28.027 Y51.213 E19.12424
G1 X27.82 Y51.125 E19.12985
G1 X26.312 Y50.392 E19.17167
G1 X26.113 Y50.282 E19.17735
G1 X24.683 Y49.398 E19.21928
G1 X24.501 Y49.273 E19.22479
G1 X23.162 Y48.251 E19.26681
G1 X22.991 Y48.107 E19.27239
G1 X21.754 Y46.952 E19.3146
G1 X21.602 Y46.795 E19.32005
G1 X20.481 Y45.523 E19.36235
G1 X20.343 Y45.35 E19.36787
G1 X19.349 Y43.97 E19.41029
G1 X19.231 Y43.787 E19.41572
G1 X18.373 Y42.314 E19.45825
G1 X18.272 Y42.121 E19.46368
G1 X17.56 Y40.57 E19.50625
G1 X17.48 Y40.369 E19.51165
G1 X16.918 Y38.751 E19.55438
G1 X16.857 Y38.545 E19.55973
G1 X16.452 Y36.881 E19.60246
G1 X16.411 Y36.67 E19.60782
G1 X16.166 Y34.969 E19.65069
G1 X16.146 Y34.756 E19.65602
G1 X16.064 Y33.043 E19.6988
G1 X16.064 Y32.828 E19.70417
G1 X16.146 Y31.113 E19.747
G1 X16.166 Y30.899 E19.75236
G1 X16.411 Y29.198 E19.79523
G1 X16.452 Y28.987 E19.80059
G1 X16.857 Y27.323 E19.84331
G1 X16.918 Y27.117 E19.84867
G1 X17.48 Y25.499 E19.8914
G1 X17.56 Y25.298 E19.89679
G1 X18.272 Y23.747 E19.93936
G1 X18.373 Y23.554 E19.9448
G1 X19.231 Y22.081 E19.98732
G1 X19.349 Y21.898 E19.99275
G1 X20.343 Y20.518 E20.03518
G1 X20.481 Y20.345 E20.0407
G1 X21.602 Y19.073 E20.08299
G0 F3000 X21.827 Y19.272
G1 F1200 X21.959 Y19.136 E20.08772
G1 X23.196 Y17.981 E20.12994
G1 X23.344 Y17.856 E20.13477
G1 X24.694 Y16.826 E20.17713
G1 X24.854 Y16.716 E20.18197
G1 X26.283 Y15.835 E20.22385
G1 X26.454 Y15.741 E20.22871
G1 X27.962 Y15.009 E20.27053
G1 X28.142 Y14.933 E20.2754
G1 X29.716 Y14.355 E20.31723
G1 X29.901 Y14.297 E20.32207
G1 X31.517 Y13.88 E20.3637
G1 X31.711 Y13.84 E20.36864
G1 X33.364 Y13.589 E20.41035
G1 X33.559 Y13.569 E20.41524
G1 X35.213 Y13.486 E20.45655
G1 X35.311 Y13.484 E20.45899
G1 X107.311 Y13.484 E22.25504
G1 X107.409 Y13.486 E22.25748
G1 X109.074 Y13.57 E22.29907
G1 X109.27 Y13.59 E22.30399
G1 X110.923 Y13.842 E22.3457
G1 X111.117 Y13.882 E22.35064
G1 X112.733 Y14.3 E22.39227
G1 X112.919 Y14.358 E22.39714
G1 X114.492 Y14.937 E22.43895
G1 X114.67 Y15.013 E22.44378
G1 X116.176 Y15.745 E22.48555
G1 X116.349 Y15.84 E22.49047
G1 X117.781 Y16.725 E22.53246
G1 X117.939 Y16.834 E22.53725
G1 X119.278 Y17.856 E22.57927
G1 X119.426 Y17.981 E22.5841
G1 X120.663 Y19.136 E22.62632
G1 X120.795 Y19.272 E22.63105
G1 X121.915 Y20.543 E22.6733
G1 X122.034 Y20.692 E22.67806
G1 X123.028 Y22.071 E22.72047
G1 X123.131 Y22.23 E22.72519
G1 X123.989 Y23.703 E22.76771
G1 X124.076 Y23.87 E22.77241
G1 X124.789 Y25.423 E22.81504
G1 X124.859 Y25.597 E22.81972
G1 X125.421 Y27.215 E22.86244
G1 X125.474 Y27.394 E22.8671
G1 X125.879 Y29.058 E22.90982
G1 X125.914 Y29.241 E22.91447
G1 X126.159 Y30.94 E22.95729
G1 X126.177 Y31.125 E22.96193
G1 X126.259 Y32.84 E23.00476
G1 X126.259 Y33.026 E23.0094
G1 X126.177 Y34.741 E23.05222
G1 X126.159 Y34.926 E23.05686
G1 X125.914 Y36.627 E23.09973
G1 X125.879 Y36.81 E23.10438
G1 X125.474 Y38.474 E23.1471
G1 X125.421 Y38.653 E23.15176
G1 X124.859 Y40.271 E23.19448
G1 X124.789 Y40.445 E23.19916
G1 X124.077 Y41.996 E23.24173
G1 X123.99 Y42.163 E23.24643
G1 X123.132 Y43.636 E23.28895
G1 X123.029 Y43.795 E23.29368
G1 X122.035 Y45.175 E23.3361
G1 X121.916 Y45.324 E23.34086
G1 X120.795 Y46.596 E23.38315
G1 X120.663 Y46.732 E23.38788
G1 X119.426 Y47.887 E23.4301
G1 X119.278 Y48.012 E23.43493
G1 X117.939 Y49.034 E23.47695
G1 X117.781 Y49.143 E23.48174
G1 X116.351 Y50.027 E23.52368
G1 X116.178 Y50.122 E23.5286
G1 X114.67 Y50.855 E23.57042
G1 X114.492 Y50.931 E23.57525
G1 X112.919 Y51.51 E23.61706
G1 X112.733 Y51.568 E23.62193
G1 X111.117 Y51.986 E23.66356
G1 X110.923 Y52.026 E23.6685
G1 X109.27 Y52.278 E23.71021
G1 X109.074 Y52.298 E23.71513
G1 X107.409 Y52.382 E23.75672
G1 X107.311 Y52.384 E23.75916
G1 X35.3 Y52.383 E25.55548
G1 X35.202 Y52.381 E25.55793
G1 X33.548 Y52.298 E25.59924
G1 X33.352 Y52.278 E25.60415
G1 X31.699 Y52.026 E25.64586
G1 X31.505 Y51.986 E25.65081
G1 X29.889 Y51.568 E25.69244
G1 X29.703 Y51.51 E25.6973
G1 X28.13 Y50.931 E25.73912
G1 X27.952 Y50.855 E25.74394
G1 X26.444 Y50.122 E25.78577
G1 X26.271 Y50.027 E25.79069
G1 X24.841 Y49.143 E25.83263
G1 X24.683 Y49.034 E25.83742
G1 X23.344 Y48.012 E25.87944
G1 X23.196 Y47.887 E25.88427
G1 X21.959 Y46.732 E25.92649
G1 X21.827 Y46.596 E25.93121
G1 X20.706 Y45.324 E25.97351
G1 X20.587 Y45.175 E25.97826
G1 X19.593 Y43.795 E26.02069
G1 X19.49 Y43.636 E26.02542
G1 X18.632 Y42.163 E26.06794
G1 X18.545 Y41.996 E26.07264
G1 X17.833 Y40.445 E26.11521
G1 X17.763 Y40.271 E26.11989
G1 X17.201 Y38.653 E26.16261
G1 X17.148 Y38.474 E26.16727
G1 X16.743 Y36.81 E26.20999
G1 X16.708 Y36.627 E26.21464
G1 X16.463 Y34.926 E26.25751
G1 X16.445 Y34.741 E26.26214
G1 X16.363 Y33.028 E26.30492
G1 X16.363 Y32.842 E26.30956
G1 X16.445 Y31.127 E26.35239
G1 X16.463 Y30.942 E26.35703
G1 X16.708 Y29.241 E26.3999
G1 X16.743 Y29.058 E26.40455
G1 X17.148 Y27.394 E26.44727
G1 X17.201 Y27.215 E26.45192
G1 X17.763 Y25.597 E26.49465
G1 X17.833 Y25.423 E26.49933
G1 X18.545 Y23.872 E26.5419
G1 X18.632 Y23.705 E26.5466
G1 X19.49 Y22.232 E26.58912
G1 X19.593 Y22.073 E26.59385
G1 X20.587 Y20.693 E26.63627
G1 X20.706 Y20.544 E26.64103
G1 X21.827 Y19.272 E26.68332
G0 F3000 X22.052 Y19.47
