;FLAVOR:Marlin
;TIME:4262
;Filament used: 5.71118m
;Layer height: 0.2
;Generated with Cura_SteamEngine 3.6.0
M140 S55
M105
M190 S55
M104 S210
M105
M109 S210
M82 ;absolute extrusion mode
G21 ;metric values
G90 ;absolute positioning
M82 ;set extruder to absolute mode
M107 ;start with the fan off
G28 X0 Y0 ;move X/Y to min endstops
G28 Z0 ;move Z to min endstops
G1 Z15.0 F9000 ;move the platform down 15mm
G92 E0 ;zero the extruded length
G1 F200 E3 ;extrude 3mm of feed stock
G92 E0 ;zero the extruded length again
G1 F9000
;Put printing message on LCD screen
M117 Printing...
G92 E0
G1 F900 E-4
;LAYER_COUNT:8
;LAYER:0
M107
G0 F5400 X41.571 Y11.398 Z0.2
;TYPE:SKIRT
G1 F900 E0
G1 F3000 X41.643 Y10.657 E0.02167
G1 X41.794 Y9.928 E0.04333
G1 X42.022 Y9.22 E0.06498
G1 X42.325 Y8.541 E0.08662
G1 X42.699 Y7.897 E0.10829
G1 X43.14 Y7.298 E0.12994
G1 X43.643 Y6.749 E0.15161
G1 X44.201 Y6.258 E0.17324
G1 X44.809 Y5.829 E0.1949
G1 X45.46 Y5.468 E0.21656
G1 X46.145 Y5.179 E0.2382
G1 X46.858 Y4.965 E0.25986
G1 X47.59 Y4.829 E0.28153
G1 X48.49 Y4.77 E0.30778
G1 X57.845 Y4.77 E0.58003
G1 X58.841 Y4.842 E0.60909
G1 X62.081 Y5.313 E0.70438
G1 X67.361 Y5.839 E0.8588
G1 X72.634 Y6.065 E1.0124
G1 X77.879 Y5.992 E1.16506
G1 X83.144 Y5.621 E1.31866
G1 X88.432 Y4.947 E1.4738
G1 X92.118 Y4.369 E1.58238
G1 X92.775 Y4.298 E1.60162
G1 X95.855 Y4.113 E1.69141
G1 X96.539 Y4.106 E1.71132
G1 X98.135 Y4.168 E1.7578
G1 X98.498 Y4.192 E1.76839
G1 X105.845 Y4.866 E1.98311
G1 X111.097 Y5.039 E2.13604
G1 X116.404 Y4.915 E2.29053
G1 X118.957 Y4.745 E2.36499
G1 X123.081 Y4.327 E2.48562
G1 X123.354 Y4.305 E2.49359
G1 X126.419 Y4.116 E2.58296
G1 X127.169 Y4.111 E2.60479
G1 X130.626 Y4.273 E2.70551
G1 X131.303 Y4.338 E2.7253
G1 X132.973 Y4.582 E2.77442
G1 X133.619 Y4.708 E2.79357
G1 X136.597 Y5.437 E2.8828
G1 X137.533 Y5.738 E2.91141
G1 X139.752 Y6.63 E2.98102
G1 X140.57 Y7.023 E3.00743
G1 X142.819 Y8.291 E3.08256
G1 X143.575 Y8.784 E3.10883
G1 X145.162 Y9.975 E3.16658
G1 X145.771 Y10.49 E3.18979
G1 X146.865 Y11.528 E3.23368
G1 X147.358 Y12.046 E3.25449
G1 X149.13 Y14.114 E3.33374
G1 X149.681 Y14.852 E3.36055
G1 X150.5 Y16.115 E3.40436
G1 X150.811 Y16.645 E3.42224
G1 X152.168 Y19.21 E3.50669
G1 X152.488 Y19.905 E3.52896
G1 X155.479 Y27.482 E3.76603
G1 X157.686 Y32.287 E3.91991
G1 X160.14 Y36.92 E4.07249
G1 X162.877 Y41.445 E4.22639
G1 X165.841 Y45.774 E4.37908
G1 X169.063 Y49.953 E4.53265
G1 X172.505 Y53.928 E4.68568
G1 X176.159 Y57.697 E4.83845
G1 X180.056 Y61.285 E4.99261
G1 X184.055 Y64.574 E5.1433
G1 X184.581 Y65.054 E5.16402
G1 X186.396 Y66.89 E5.23916
G1 X186.89 Y67.446 E5.2608
G1 X187.125 Y67.76 E5.27222
G1 X188.214 Y69.3 E5.32711
G1 X188.559 Y69.839 E5.34573
G1 X189.38 Y71.263 E5.39357
G1 X189.608 Y71.693 E5.40773
G1 X190.307 Y73.13 E5.45424
G1 X190.627 Y73.903 E5.47859
G1 X191.66 Y76.901 E5.57087
G1 X191.868 Y77.633 E5.59302
G1 X192.497 Y80.422 E5.67622
G1 X192.588 Y80.903 E5.69047
G1 X193.05 Y83.934 E5.7797
G1 X193.107 Y84.431 E5.79426
G1 X193.463 Y88.934 E5.92572
G1 X193.483 Y89.324 E5.93708
G1 X193.552 Y92.383 E6.02613
G1 X193.549 Y92.81 E6.03856
G1 X193.369 Y97.408 E6.17247
G1 X193.337 Y97.851 E6.1854
G1 X193.013 Y100.975 E6.2768
G1 X192.951 Y101.43 E6.29017
G1 X192.47 Y104.239 E6.37311
G1 X192.339 Y104.84 E6.39101
G1 X191.466 Y108.143 E6.49043
G1 X191.273 Y108.757 E6.50916
G1 X190.624 Y110.527 E6.56403
G1 X190.363 Y111.144 E6.58353
G1 X188.906 Y114.174 E6.68137
G1 X188.548 Y114.826 E6.70302
G1 X188.235 Y115.287 E6.71924
G1 X186.551 Y117.567 E6.80173
G1 X185.859 Y118.369 E6.83255
G1 X184.299 Y119.917 E6.89651
G1 X183.715 Y120.434 E6.91921
G1 X181.025 Y122.56 E7.019
G1 X177.026 Y126.026 E7.17301
G1 X173.245 Y129.699 E7.32642
G1 X169.693 Y133.562 E7.47914
G1 X166.347 Y137.642 E7.6327
G1 X163.239 Y141.901 E7.78615
G1 X160.394 Y146.304 E7.93871
G1 X157.779 Y150.899 E8.09257
G1 X155.445 Y155.604 E8.24542
G1 X153.353 Y160.497 E8.40029
G1 X152.428 Y162.939 E8.47629
G1 X151.451 Y165.746 E8.56278
G1 X151.087 Y166.602 E8.58986
G1 X150.298 Y168.158 E8.64063
G1 X149.75 Y169.061 E8.67137
G1 X148.722 Y170.495 E8.72272
G1 X148.257 Y171.075 E8.74435
G1 X147.998 Y171.35 E8.75535
G1 X146.609 Y172.743 E8.8126
G1 X146.056 Y173.241 E8.83425
G1 X145.65 Y173.545 E8.84901
G1 X143.601 Y174.965 E8.92157
G1 X142.796 Y175.445 E8.94884
G1 X141.522 Y176.093 E8.99044
G1 X140.881 Y176.379 E9.01087
G1 X139.426 Y176.942 E9.05627
G1 X138.752 Y177.164 E9.07692
G1 X136.812 Y177.694 E9.13545
G1 X136.014 Y177.862 E9.15918
G1 X133.759 Y178.2 E9.22554
G1 X133.045 Y178.27 E9.24642
G1 X130.68 Y178.377 E9.31532
G1 X130.157 Y178.381 E9.33054
G1 X128.874 Y178.342 E9.3679
G1 X128.263 Y178.296 E9.38573
G1 X122.785 Y177.642 E9.54628
G1 X117.433 Y177.182 E9.70262
G1 X112.173 Y177.029 E9.85576
G1 X106.929 Y177.172 E10.00843
G1 X101.617 Y177.619 E10.16357
G1 X96.575 Y178.259 E10.31148
G1 X96.009 Y178.307 E10.32802
G1 X94.493 Y178.374 E10.37218
G1 X93.819 Y178.371 E10.39179
G1 X91.717 Y178.259 E10.45305
G1 X91.212 Y178.214 E10.46781
G1 X86.149 Y177.571 E10.61634
G1 X80.874 Y177.165 E10.77031
G1 X75.594 Y177.058 E10.924
G1 X70.331 Y177.249 E11.07727
G1 X65.135 Y177.698 E11.22905
G1 X64.515 Y177.724 E11.24711
G1 X58.085 Y177.703 E11.43424
G1 X57.343 Y177.661 E11.45587
G1 X56.609 Y177.539 E11.47752
G1 X55.892 Y177.339 E11.49919
G1 X55.201 Y177.063 E11.52084
G1 X54.543 Y176.715 E11.54251
G1 X53.836 Y176.228 E11.56749
G1 X40.025 Y165.403 E12.07818
G1 X39.465 Y164.914 E12.09981
G1 X38.961 Y164.366 E12.12148
G1 X38.518 Y163.768 E12.14314
G1 X38.142 Y163.126 E12.16479
G1 X37.837 Y162.448 E12.18643
G1 X37.607 Y161.74 E12.20809
G1 X37.453 Y161.012 E12.22975
G1 X37.379 Y160.272 E12.25139
G1 X37.385 Y159.528 E12.27304
G1 X37.471 Y158.789 E12.2947
G1 X37.635 Y158.063 E12.31636
G1 X37.774 Y157.628 E12.32965
G1 X39.07 Y153.993 E12.44196
G1 X40.611 Y148.936 E12.59581
G1 X41.875 Y143.758 E12.75093
G1 X42.386 Y141.201 E12.82682
G1 X42.811 Y138.689 E12.90096
G1 X43.481 Y133.405 E13.05597
G1 X43.847 Y128.159 E13.20901
G1 X43.914 Y122.897 E13.36216
G1 X43.686 Y117.641 E13.51527
G1 X43.158 Y112.4 E13.66857
G1 X42.332 Y107.167 E13.82275
G1 X41.832 Y104.682 E13.89652
G1 X40.555 Y99.502 E14.05178
G1 X39.012 Y94.481 E14.20465
G1 X37.183 Y89.543 E14.3579
G1 X35.535 Y85.682 E14.48008
G1 X35.28 Y84.983 E14.50173
G1 X35.102 Y84.261 E14.52337
G1 X35.002 Y83.523 E14.54504
G1 X34.979 Y82.926 E14.56243
G1 X35.018 Y75.678 E14.77337
G1 X35.073 Y74.846 E14.79764
G1 X35.674 Y70.096 E14.93698
G1 X36.051 Y64.786 E15.0919
G1 X36.136 Y60.795 E15.20807
G1 X36.146 Y53.61 E15.41718
G1 X36.187 Y52.868 E15.4388
G1 X36.307 Y52.133 E15.46048
G1 X36.489 Y51.468 E15.48054
G1 X37.904 Y47.14 E15.61306
G1 X39.307 Y41.993 E15.76832
G1 X39.888 Y39.445 E15.84437
G1 X40.384 Y36.933 E15.91889
G1 X41.192 Y31.691 E16.07325
G1 X41.7 Y26.451 E16.22646
G1 X41.91 Y21.176 E16.3801
G1 X41.822 Y15.901 E16.53364
G1 X41.579 Y12.142 E16.64326
G1 X41.571 Y11.398 E16.66492
G0 F5400 X41.922 Y11.394
G1 F3000 X41.995 Y10.673 E16.68601
G1 X42.147 Y9.964 E16.70711
G1 X42.376 Y9.276 E16.72821
G1 X42.68 Y8.618 E16.74931
G1 X43.054 Y7.997 E16.7704
G1 X43.494 Y7.421 E16.7915
G1 X43.995 Y6.897 E16.8126
G1 X44.551 Y6.431 E16.83371
G1 X45.154 Y6.029 E16.8548
G1 X45.798 Y5.696 E16.8759
G1 X46.475 Y5.436 E16.897
G1 X47.176 Y5.253 E16.91809
G1 X47.893 Y5.147 E16.93918
G1 X48.49 Y5.12 E16.95657
G1 X57.845 Y5.12 E17.22883
G1 X58.791 Y5.188 E17.25643
G1 X62.042 Y5.661 E17.35204
G1 X67.346 Y6.189 E17.50716
G1 X72.624 Y6.415 E17.66091
G1 X77.89 Y6.342 E17.81418
G1 X83.18 Y5.97 E17.96851
G1 X88.491 Y5.292 E18.12433
G1 X92.172 Y4.715 E18.23276
G1 X92.796 Y4.648 E18.25103
G1 X95.876 Y4.463 E18.34082
G1 X96.525 Y4.456 E18.35971
G1 X98.121 Y4.518 E18.4062
G1 X98.466 Y4.54 E18.41626
G1 X105.836 Y5.216 E18.63164
G1 X111.093 Y5.39 E18.78472
G1 X116.412 Y5.265 E18.93956
G1 X119.015 Y5.092 E19.01548
G1 X123.116 Y4.676 E19.13544
G1 X123.375 Y4.654 E19.14301
G1 X126.44 Y4.465 E19.23238
G1 X127.153 Y4.46 E19.25313
G1 X130.61 Y4.622 E19.35385
G1 X131.253 Y4.684 E19.37265
G1 X132.923 Y4.928 E19.42176
G1 X133.535 Y5.048 E19.43991
G1 X136.513 Y5.777 E19.52914
G1 X137.402 Y6.062 E19.55631
G1 X139.621 Y6.954 E19.62591
G1 X140.398 Y7.328 E19.65101
G1 X142.647 Y8.596 E19.72614
G1 X143.365 Y9.064 E19.75109
G1 X144.952 Y10.255 E19.80883
G1 X145.531 Y10.744 E19.83089
G1 X146.625 Y11.782 E19.87478
G1 X147.092 Y12.274 E19.89452
G1 X148.864 Y14.342 E19.97377
G1 X149.388 Y15.043 E19.99925
G1 X150.207 Y16.306 E20.04305
G1 X150.502 Y16.808 E20.06
G1 X151.859 Y19.373 E20.14445
G1 X152.163 Y20.034 E20.16562
G1 X155.161 Y27.63 E20.40328
G1 X157.368 Y32.434 E20.55714
G1 X159.845 Y37.109 E20.71111
G1 X162.577 Y41.626 E20.86474
G1 X165.554 Y45.976 E21.01815
G1 X168.786 Y50.167 E21.17217
G1 X172.254 Y54.172 E21.32635
G1 X175.927 Y57.96 E21.47991
G1 X179.807 Y61.532 E21.63339
G1 X183.833 Y64.844 E21.78511
G1 X184.332 Y65.3 E21.80478
G1 X186.147 Y67.136 E21.87992
G1 X186.839 Y67.962 E21.91128
G1 X187.928 Y69.502 E21.96617
G1 X188.256 Y70.014 E21.98386
G1 X189.077 Y71.438 E22.0317
G1 X189.294 Y71.846 E22.04515
G1 X189.993 Y73.283 E22.09166
G1 X190.296 Y74.017 E22.11476
G1 X191.329 Y77.015 E22.20705
G1 X191.527 Y77.71 E22.22808
G1 X192.156 Y80.499 E22.31129
G1 X192.242 Y80.955 E22.32479
G1 X192.704 Y83.986 E22.41402
G1 X192.759 Y84.459 E22.42788
G1 X193.115 Y88.962 E22.55934
G1 X193.133 Y89.332 E22.57012
G1 X193.202 Y92.391 E22.65916
G1 X193.199 Y92.796 E22.67095
G1 X193.019 Y97.394 E22.80487
G1 X192.989 Y97.815 E22.81715
G1 X192.665 Y100.939 E22.90855
G1 X192.606 Y101.371 E22.92124
G1 X192.125 Y104.18 E23.00418
G1 X192.001 Y104.75 E23.02116
G1 X191.128 Y108.053 E23.12059
G1 X190.944 Y108.636 E23.13838
G1 X190.295 Y110.406 E23.19324
G1 X190.048 Y110.992 E23.21175
G1 X188.591 Y114.022 E23.3096
G1 X188.241 Y114.657 E23.3307
G1 X187.954 Y115.079 E23.34555
G1 X186.27 Y117.359 E23.42804
G1 X185.612 Y118.12 E23.45732
G1 X184.052 Y119.668 E23.52128
G1 X183.498 Y120.159 E23.54282
G1 X180.816 Y122.279 E23.64231
G1 X176.782 Y125.775 E23.79767
G1 X173 Y129.449 E23.95112
G1 X169.42 Y133.342 E24.10504
G1 X166.073 Y137.424 E24.25866
G1 X162.951 Y141.703 E24.41281
G1 X160.093 Y146.125 E24.56605
G1 X157.475 Y150.726 E24.72011
G1 X155.126 Y155.461 E24.87393
G1 X153.03 Y160.361 E25.02903
G1 X152.103 Y162.811 E25.10527
G1 X151.121 Y165.631 E25.19217
G1 X150.775 Y166.444 E25.21788
G1 X149.986 Y168 E25.26866
G1 X149.466 Y168.857 E25.29783
G1 X148.438 Y170.291 E25.34918
G1 X147.75 Y171.103 E25.38015
G1 X146.361 Y172.496 E25.4374
G1 X145.821 Y172.98 E25.45851
G1 X145.45 Y173.257 E25.47198
G1 X143.401 Y174.677 E25.54453
G1 X142.637 Y175.133 E25.57043
G1 X141.363 Y175.781 E25.61202
G1 X140.755 Y176.053 E25.63141
G1 X139.3 Y176.616 E25.67681
G1 X138.66 Y176.827 E25.69642
G1 X136.72 Y177.357 E25.75495
G1 X135.962 Y177.516 E25.77749
G1 X133.707 Y177.854 E25.84385
G1 X133.029 Y177.92 E25.86368
G1 X130.664 Y178.027 E25.93257
G1 X130.167 Y178.031 E25.94704
G1 X128.884 Y177.992 E25.98439
G1 X128.304 Y177.949 E26.00132
G1 X122.794 Y177.291 E26.16281
G1 X117.455 Y176.832 E26.31877
G1 X112.191 Y176.679 E26.47203
G1 X106.891 Y176.824 E26.62633
G1 X101.59 Y177.27 E26.78115
G1 X96.531 Y177.912 E26.92956
G1 X95.993 Y177.958 E26.94527
G1 X94.477 Y178.025 E26.98943
G1 X93.837 Y178.022 E27.00806
G1 X91.735 Y177.91 E27.06932
G1 X91.257 Y177.867 E27.08329
G1 X86.184 Y177.223 E27.23211
G1 X80.89 Y176.815 E27.38664
G1 X75.606 Y176.708 E27.54045
G1 X70.308 Y176.9 E27.69473
G1 X65.105 Y177.35 E27.84672
G1 X64.517 Y177.374 E27.86385
G1 X58.087 Y177.353 E28.05098
G1 X57.363 Y177.311 E28.07208
G1 X56.648 Y177.189 E28.09319
G1 X55.951 Y176.989 E28.1143
G1 X55.28 Y176.714 E28.1354
G1 X54.644 Y176.367 E28.15648
G1 X54.052 Y175.953 E28.17751
G1 X40.241 Y165.128 E28.68819
G1 X39.696 Y164.65 E28.70929
G1 X39.207 Y164.115 E28.73039
G1 X38.78 Y163.529 E28.75149
G1 X38.419 Y162.9 E28.77259
G1 X38.131 Y162.235 E28.79368
G1 X37.917 Y161.542 E28.81479
G1 X37.781 Y160.83 E28.83589
G1 X37.724 Y160.107 E28.85699
G1 X37.747 Y159.383 E28.87807
G1 X37.849 Y158.665 E28.89918
G1 X38.104 Y157.746 E28.92694
G1 X39.4 Y154.108 E29.03933
G1 X40.948 Y149.032 E29.19377
G1 X42.22 Y143.818 E29.34996
G1 X42.725 Y141.292 E29.42493
G1 X43.157 Y138.742 E29.5002
G1 X43.829 Y133.438 E29.65579
G1 X44.196 Y128.17 E29.80948
G1 X44.264 Y122.904 E29.96274
G1 X44.034 Y117.609 E30.11699
G1 X43.506 Y112.362 E30.27046
G1 X42.674 Y107.089 E30.42582
G1 X42.173 Y104.602 E30.49965
G1 X40.896 Y99.42 E30.65497
G1 X39.341 Y94.362 E30.80897
G1 X37.506 Y89.406 E30.96277
G1 X35.857 Y85.544 E31.08498
G1 X35.61 Y84.863 E31.10607
G1 X35.439 Y84.158 E31.12718
G1 X35.346 Y83.439 E31.14828
G1 X35.329 Y82.928 E31.16316
G1 X35.368 Y75.68 E31.3741
G1 X35.42 Y74.89 E31.39714
G1 X36.024 Y70.11 E31.53735
G1 X36.399 Y64.838 E31.69117
G1 X36.486 Y60.753 E31.81008
G1 X36.496 Y53.611 E32.01793
G1 X36.537 Y52.887 E32.03904
G1 X36.657 Y52.172 E32.06014
G1 X36.821 Y51.577 E32.0781
G1 X38.244 Y47.224 E32.21138
G1 X39.644 Y42.089 E32.36627
G1 X40.229 Y39.522 E32.4429
G1 X40.73 Y36.985 E32.51816
G1 X41.541 Y31.726 E32.67302
G1 X42.049 Y26.479 E32.82643
G1 X42.26 Y21.184 E32.98065
G1 X42.172 Y15.872 E33.13527
G1 X41.929 Y12.119 E33.24472
G1 X41.922 Y11.394 E33.26582
G0 F5400 X42.272 Y11.391
G1 F3000 X42.347 Y10.69 E33.28633
G1 X42.5 Y10.001 E33.30687
G1 X42.73 Y9.334 E33.32741
G1 X43.034 Y8.698 E33.34792
G1 X43.408 Y8.1 E33.36845
G1 X43.848 Y7.548 E33.38899
G1 X44.347 Y7.049 E33.40953
G1 X44.899 Y6.61 E33.43006
G1 X45.497 Y6.237 E33.45057
G1 X46.134 Y5.933 E33.47111
G1 X46.801 Y5.704 E33.49163
G1 X47.49 Y5.551 E33.51217
G1 X48.49 Y5.47 E33.54137
G1 X57.845 Y5.47 E33.81363
G1 X58.741 Y5.535 E33.83977
G1 X62.004 Y6.009 E33.93573
G1 X67.314 Y6.539 E34.09103
G1 X72.614 Y6.766 E34.24542
G1 X77.903 Y6.692 E34.39936
G1 X83.212 Y6.318 E34.55424
G1 X88.554 Y5.636 E34.71097
G1 X92.226 Y5.061 E34.81914
G1 X92.817 Y4.997 E34.83644
G1 X95.897 Y4.812 E34.92624
G1 X96.512 Y4.806 E34.94414
G1 X98.108 Y4.868 E34.99062
G1 X98.434 Y4.889 E35.00013
G1 X105.792 Y5.564 E35.21516
G1 X111.108 Y5.74 E35.36996
G1 X116.442 Y5.614 E35.52523
G1 X119.019 Y5.443 E35.6004
G1 X123.152 Y5.024 E35.72129
G1 X123.397 Y5.004 E35.72845
G1 X126.462 Y4.815 E35.81782
G1 X127.136 Y4.81 E35.83743
G1 X130.593 Y4.972 E35.93815
G1 X131.202 Y5.03 E35.95595
G1 X132.872 Y5.274 E36.00507
G1 X133.452 Y5.388 E36.02227
G1 X136.43 Y6.117 E36.1115
G1 X137.272 Y6.387 E36.13723
G1 X139.491 Y7.279 E36.20683
G1 X140.226 Y7.632 E36.23056
G1 X142.475 Y8.9 E36.3057
G1 X143.155 Y9.344 E36.32934
G1 X144.742 Y10.535 E36.38708
G1 X145.29 Y10.998 E36.40796
G1 X146.384 Y12.036 E36.45185
G1 X146.826 Y12.502 E36.47054
G1 X148.598 Y14.57 E36.5498
G1 X149.094 Y15.233 E36.57389
G1 X149.913 Y16.496 E36.6177
G1 X150.192 Y16.972 E36.63376
G1 X151.549 Y19.537 E36.71821
G1 X151.837 Y20.162 E36.73824
G1 X154.837 Y27.762 E36.97603
G1 X157.054 Y32.588 E37.13059
G1 X159.538 Y37.276 E37.28499
G1 X162.282 Y41.815 E37.43935
G1 X165.285 Y46.201 E37.59404
G1 X168.508 Y50.381 E37.74766
G1 X171.985 Y54.397 E37.90225
G1 X175.686 Y58.213 E38.05696
G1 X179.587 Y61.805 E38.21128
G1 X183.611 Y65.115 E38.36292
G1 X184.083 Y65.546 E38.38152
G1 X185.898 Y67.382 E38.45666
G1 X186.554 Y68.164 E38.48636
G1 X187.643 Y69.704 E38.54125
G1 X187.953 Y70.189 E38.55801
G1 X188.774 Y71.613 E38.60584
G1 X188.979 Y71.999 E38.61856
G1 X189.678 Y73.436 E38.66507
G1 X189.965 Y74.131 E38.68695
G1 X190.998 Y77.129 E38.77924
G1 X191.185 Y77.787 E38.79914
G1 X191.814 Y80.576 E38.88235
G1 X191.896 Y81.008 E38.89515
G1 X192.358 Y84.039 E38.98437
G1 X192.41 Y84.486 E38.99747
G1 X192.766 Y88.989 E39.12893
G1 X192.783 Y89.34 E39.13916
G1 X192.852 Y92.399 E39.2282
G1 X192.849 Y92.783 E39.23938
G1 X192.669 Y97.381 E39.3733
G1 X192.641 Y97.779 E39.38491
G1 X192.317 Y100.903 E39.47631
G1 X192.261 Y101.312 E39.48833
G1 X191.78 Y104.121 E39.57126
G1 X191.662 Y104.661 E39.58735
G1 X190.789 Y107.964 E39.68678
G1 X190.616 Y108.516 E39.70361
G1 X189.967 Y110.286 E39.75848
G1 X189.732 Y110.841 E39.77602
G1 X188.275 Y113.871 E39.87386
G1 X187.934 Y114.488 E39.89438
G1 X187.672 Y114.871 E39.90789
G1 X185.988 Y117.151 E39.99038
G1 X185.366 Y117.872 E40.01809
