;FLAVOR:Marlin
;TIME:2765
;Filament used: 2.7629m
;Layer height: 0.2
;Generated with Cura_SteamEngine 3.4.1
M190 S60
M104 S200
M109 S200
M82 ;absolute extrusion mode
G21 ;metric values
G90 ;absolute positioning
M82 ;set extruder to absolute mode
M107 ;start with the fan off
G28 X0 Y0 ;move X/Y to min endstops
G28 Z0 ;move Z to min endstops
G1 Z15.0 F9000 ;move the platform down 15mm
G92 E0 ;zero the extruded length
G1 F200 E3 ;extrude 3mm of feed stock
G92 E0 ;zero the extruded length again
G1 F9000
;Put printing message on LCD screen
M117 Printing...
G92 E0
G1 F1500 E-6.5
;LAYER_COUNT:170
;LAYER:0
M107
G0 F3600 X29.38 Y23.783 Z0.2
;TYPE:SKIRT
G1 F1500 E0
G1 F1800 X29.903 Y23.191 E0.02627
G1 X30.483 Y22.655 E0.05254
G1 X31.113 Y22.18 E0.07878
G1 X31.494 Y21.938 E0.09379
G1 X31.736 Y21.794 E0.10316
G1 X32.435 Y21.425 E0.12945
G1 X33.167 Y21.129 E0.15571
G1 X33.925 Y20.908 E0.18197
G1 X34.701 Y20.764 E0.20822
G1 X35.709 Y20.697 E0.24182
G1 X50.399 Y20.667 E0.73042
G1 X51.188 Y20.705 E0.75669
G1 X51.969 Y20.823 E0.78296
G1 X52.734 Y21.02 E0.80923
G1 X53.475 Y21.292 E0.83549
G1 X53.837 Y21.458 E0.84873
G1 X54.134 Y21.603 E0.85973
G1 X54.825 Y21.985 E0.88599
G1 X55.474 Y22.435 E0.91225
G1 X56.074 Y22.948 E0.93851
G1 X56.811 Y23.75 E0.97474
G1 X63.866 Y32.6 E1.35117
G1 X64.327 Y33.242 E1.37746
G1 X64.72 Y33.926 E1.4037
G1 X65.042 Y34.647 E1.42996
G1 X65.289 Y35.397 E1.45622
G1 X65.459 Y36.169 E1.48252
G1 X65.55 Y36.953 E1.50877
G1 X65.562 Y37.743 E1.53505
G1 X65.494 Y38.529 E1.56129
G1 X65.385 Y39.137 E1.58183
G1 X62.836 Y50.732 E1.97669
G1 X62.547 Y51.726 E2.01112
G1 X61.861 Y53.61 E2.07781
G1 X61.391 Y54.655 E2.11592
G1 X61.182 Y55.041 E2.13052
G1 X60.771 Y55.715 E2.15677
G1 X60.295 Y56.345 E2.18304
G1 X59.757 Y56.923 E2.2093
G1 X59.163 Y57.444 E2.23558
G1 X58.52 Y57.902 E2.26184
G1 X57.833 Y58.292 E2.28811
G1 X57.111 Y58.612 E2.31438
G1 X56.36 Y58.856 E2.34064
G1 X55.589 Y59.024 E2.36689
G1 X54.804 Y59.112 E2.39316
G1 X54.014 Y59.121 E2.41944
G1 X53.064 Y59.025 E2.45119
G1 X51.615 Y58.788 E2.50003
G1 X50.843 Y58.621 E2.5263
G1 X50.092 Y58.377 E2.55256
G1 X49.369 Y58.058 E2.57885
G1 X48.683 Y57.668 E2.60509
G1 X48.039 Y57.211 E2.63136
G1 X47.445 Y56.691 E2.65761
G1 X46.907 Y56.113 E2.68388
G1 X46.429 Y55.484 E2.71015
G1 X46.018 Y54.81 E2.73641
G1 X45.677 Y54.097 E2.7627
G1 X45.41 Y53.354 E2.78896
G1 X45.219 Y52.588 E2.81521
G1 X45.107 Y51.806 E2.84149
G1 X45.074 Y51.017 E2.86775
G1 X45.122 Y50.229 E2.89401
G1 X45.248 Y49.45 E2.92026
G1 X45.453 Y48.687 E2.94654
G1 X45.606 Y48.286 E2.96081
G1 X45.916 Y47.112 E3.0012
G1 X45.937 Y46.409 E3.02459
G1 X45.753 Y45.433 E3.05762
G1 X45.333 Y44.611 E3.08832
G1 X44.817 Y44 E3.11492
G1 X44.158 Y43.586 E3.14081
G1 X43.681 Y43.425 E3.15755
G1 X42.756 Y43.397 E3.18833
G1 X42.318 Y43.476 E3.20314
G1 X42.127 Y43.532 E3.20976
G1 X41.288 Y43.983 E3.24144
G1 X40.736 Y44.531 E3.26731
G1 X40.277 Y45.313 E3.29747
G1 X39.768 Y47.195 E3.36231
G1 X39.523 Y47.946 E3.38859
G1 X39.204 Y48.669 E3.41487
G1 X38.814 Y49.355 E3.44112
G1 X38.356 Y49.998 E3.46737
G1 X37.835 Y50.592 E3.49365
G1 X37.257 Y51.13 E3.51991
G1 X36.628 Y51.607 E3.54617
G1 X35.954 Y52.018 E3.57243
G1 X35.241 Y52.359 E3.59871
G1 X34.498 Y52.625 E3.62496
G1 X33.732 Y52.816 E3.65122
G1 X32.95 Y52.927 E3.67749
G1 X32.161 Y52.96 E3.70375
G1 X31.373 Y52.912 E3.73001
G1 X30.463 Y52.755 E3.76073
G1 X28.362 Y52.264 E3.83249
G1 X27.603 Y52.046 E3.85875
G1 X26.87 Y51.752 E3.88502
G1 X26.171 Y51.385 E3.91128
G1 X25.512 Y50.95 E3.93754
G1 X24.901 Y50.45 E3.9638
G1 X24.343 Y49.891 E3.99007
G1 X23.845 Y49.278 E4.01634
G1 X23.411 Y48.618 E4.04261
G1 X23.046 Y47.918 E4.06887
G1 X22.754 Y47.185 E4.09511
G1 X22.557 Y46.508 E4.11856
G1 X20.853 Y39.484 E4.35896
G1 X20.706 Y38.708 E4.38523
G1 X20.638 Y37.921 E4.4115
G1 X20.65 Y37.132 E4.43775
G1 X20.749 Y36.303 E4.46552
G1 X20.782 Y36.114 E4.4719
G1 X20.957 Y35.344 E4.49816
G1 X21.209 Y34.596 E4.52441
G1 X21.536 Y33.877 E4.55068
G1 X21.933 Y33.194 E4.57696
G1 X22.363 Y32.598 E4.6014
G1 X29.38 Y23.783 E4.97614
G0 F3600 X29.693 Y24.032
G1 F1800 X30.203 Y23.456 E5.00173
G1 X30.77 Y22.936 E5.02732
G1 X31.699 Y22.282 E5.06511
G1 X31.941 Y22.138 E5.07447
G1 X32.621 Y21.779 E5.10005
G1 X33.336 Y21.493 E5.12566
G1 X34.075 Y21.283 E5.15121
G1 X34.833 Y21.151 E5.1768
G1 X35.71 Y21.097 E5.20603
G1 X50.4 Y21.067 E5.69462
G1 X51.168 Y21.105 E5.72019
G1 X51.928 Y21.223 E5.74577
G1 X52.672 Y21.42 E5.77137
G1 X53.662 Y21.817 E5.80685
G1 X53.959 Y21.962 E5.81784
G1 X54.631 Y22.335 E5.84341
G1 X55.262 Y22.776 E5.86901
G1 X55.843 Y23.28 E5.89459
G1 X56.498 Y23.999 E5.92694
G1 X63.553 Y32.849 E6.30338
G1 X64.001 Y33.475 E6.32898
G1 X64.381 Y34.143 E6.35454
G1 X64.69 Y34.848 E6.38014
G1 X64.924 Y35.581 E6.40574
G1 X65.08 Y36.334 E6.43131
G1 X65.158 Y37.099 E6.45689
G1 X65.156 Y37.868 E6.48246
G1 X65.074 Y38.633 E6.50805
G1 X64.994 Y39.051 E6.52221
G1 X62.445 Y50.646 E6.91707
G1 X62.171 Y51.589 E6.94973
G1 X61.485 Y53.473 E7.01642
G1 X61.039 Y54.464 E7.05256
G1 X60.83 Y54.85 E7.06716
G1 X60.429 Y55.507 E7.09276
G1 X59.963 Y56.118 E7.11832
G1 X59.435 Y56.678 E7.14392
G1 X58.852 Y57.179 E7.16949
G1 X58.22 Y57.618 E7.19508
G1 X57.546 Y57.988 E7.22065
G1 X56.837 Y58.287 E7.24625
G1 X56.101 Y58.51 E7.27183
G1 X55.346 Y58.656 E7.2974
G1 X54.58 Y58.723 E7.32298
G1 X53.81 Y58.709 E7.34859
G1 X53.129 Y58.63 E7.37139
G1 X51.68 Y58.393 E7.42023
G1 X50.928 Y58.23 E7.44582
G1 X50.197 Y57.989 E7.47142
G1 X49.496 Y57.674 E7.49698
G1 X48.831 Y57.288 E7.52256
G1 X48.209 Y56.834 E7.54817
G1 X47.638 Y56.319 E7.57374
G1 X47.124 Y55.747 E7.59932
G1 X46.671 Y55.125 E7.62491
G1 X46.286 Y54.46 E7.65047
G1 X45.972 Y53.758 E7.67605
G1 X45.732 Y53.027 E7.70164
G1 X45.569 Y52.275 E7.72723
G1 X45.486 Y51.51 E7.75282
G1 X45.482 Y50.741 E7.7784
G1 X45.558 Y49.976 E7.80397
G1 X45.714 Y49.223 E7.82955
G1 X45.946 Y48.489 E7.85515
G1 X45.997 Y48.372 E7.8594
G1 X46.314 Y47.175 E7.90058
G1 X46.338 Y46.374 E7.92723
G1 X46.135 Y45.3 E7.96359
G1 X45.67 Y44.389 E7.99761
G1 X45.082 Y43.693 E8.02791
G1 X44.333 Y43.223 E8.05732
G1 X43.798 Y43.042 E8.07611
G1 X43.762 Y43.028 E8.07739
G1 X42.721 Y42.996 E8.11203
G1 X42.226 Y43.086 E8.12877
G1 X41.973 Y43.16 E8.13753
G1 X41.05 Y43.656 E8.17238
G1 X40.416 Y44.286 E8.20211
G1 X39.905 Y45.155 E8.23564
G1 X39.382 Y47.091 E8.30234
G1 X39.143 Y47.822 E8.32792
G1 X38.829 Y48.524 E8.3535
G1 X38.444 Y49.19 E8.37908
G1 X37.992 Y49.813 E8.40468
G1 X37.478 Y50.385 E8.43026
G1 X36.908 Y50.901 E8.45583
G1 X36.287 Y51.354 E8.4814
G1 X35.622 Y51.741 E8.50699
G1 X34.92 Y52.057 E8.5326
G1 X34.19 Y52.298 E8.55817
G1 X33.438 Y52.462 E8.58376
G1 X32.674 Y52.547 E8.60933
G1 X31.905 Y52.552 E8.63491
G1 X31.139 Y52.478 E8.66051
G1 X30.554 Y52.366 E8.68032
G1 X28.453 Y51.875 E8.75208
G1 X27.714 Y51.661 E8.77767
G1 X27.001 Y51.372 E8.80326
G1 X26.323 Y51.01 E8.82882
G1 X25.685 Y50.58 E8.85441
G1 X25.096 Y50.086 E8.87998
G1 X24.56 Y49.533 E8.90559
G1 X24.086 Y48.928 E8.93115
G1 X23.676 Y48.277 E8.95674
G1 X23.337 Y47.587 E8.98231
G1 X23.07 Y46.865 E9.00792
G1 X22.946 Y46.414 E9.02347
G1 X21.242 Y39.39 E9.26387
G1 X21.099 Y38.634 E9.28946
G1 X21.036 Y37.867 E9.31506
G1 X21.053 Y37.098 E9.34064
G1 X21.143 Y36.372 E9.36497
G1 X21.176 Y36.183 E9.37135
G1 X21.348 Y35.433 E9.39694
G1 X21.596 Y34.705 E9.42252
G1 X21.919 Y34.007 E9.44811
G1 X22.312 Y33.346 E9.47368
G1 X22.676 Y32.847 E9.49423
G1 X29.693 Y24.032 E9.86896
G0 F3600 X30.006 Y24.281
G1 F1800 X30.503 Y23.722 E9.89384
G1 X31.056 Y23.219 E9.91871
G1 X31.903 Y22.625 E9.95311
G1 X32.145 Y22.481 E9.96248
G1 X32.808 Y22.134 E9.98737
G1 X33.504 Y21.859 E10.01226
G1 X34.225 Y21.66 E10.03714
G1 X34.963 Y21.539 E10.06201
G1 X35.711 Y21.497 E10.08693
G1 X50.401 Y21.467 E10.57552
G1 X51.148 Y21.505 E10.6004
G1 X51.886 Y21.623 E10.62526
G1 X52.608 Y21.82 E10.65015
G1 X53.486 Y22.177 E10.68167
G1 X53.783 Y22.322 E10.69266
G1 X54.437 Y22.685 E10.71754
G1 X55.048 Y23.117 E10.74243
G1 X55.61 Y23.611 E10.76732
G1 X56.186 Y24.249 E10.79591
G1 X63.241 Y33.099 E11.17234
G1 X63.675 Y33.708 E11.19722
G1 X64.042 Y34.359 E11.22207
G1 X64.337 Y35.047 E11.24697
G1 X64.557 Y35.762 E11.27185
G1 X64.7 Y36.496 E11.29672
G1 X64.764 Y37.241 E11.32159
G1 X64.747 Y37.989 E11.34648
G1 X64.604 Y38.965 E11.37929
G1 X62.055 Y50.56 E11.77415
G1 X61.796 Y51.452 E11.80504
G1 X61.11 Y53.336 E11.87173
G1 X60.688 Y54.274 E11.90594
G1 X60.479 Y54.66 E11.92054
G1 X60.088 Y55.298 E11.94542
G1 X59.631 Y55.89 E11.9703
G1 X59.114 Y56.431 E11.99519
G1 X58.542 Y56.913 E12.02007
G1 X57.922 Y57.331 E12.04494
G1 X57.26 Y57.681 E12.06984
G1 X56.566 Y57.958 E12.09469
G1 X55.845 Y58.159 E12.11959
G1 X55.107 Y58.283 E12.14448
G1 X54.361 Y58.327 E12.16934
G1 X53.613 Y58.291 E12.19424
G1 X53.193 Y58.235 E12.20834
G1 X51.744 Y57.998 E12.25717
G1 X51.013 Y57.838 E12.28206
G1 X50.304 Y57.601 E12.30692
G1 X49.624 Y57.29 E12.33179
G1 X48.981 Y56.907 E12.35669
G1 X48.382 Y56.459 E12.38156
G1 X47.835 Y55.949 E12.40644
G1 X47.345 Y55.383 E12.43134
G1 X46.919 Y54.769 E12.45619
G1 X46.56 Y54.112 E12.48109
G1 X46.274 Y53.421 E12.50597
G1 X46.062 Y52.703 E12.53087
G1 X45.929 Y51.967 E12.55574
G1 X45.875 Y51.221 E12.58062
G1 X45.901 Y50.474 E12.60548
G1 X46.007 Y49.733 E12.63038
G1 X46.191 Y49.008 E12.65526
G1 X46.372 Y48.52 E12.67257
G1 X46.712 Y47.234 E12.71681
G1 X46.739 Y46.344 E12.74643
G1 X46.518 Y45.169 E12.78619
G1 X46.006 Y44.168 E12.82359
G1 X45.346 Y43.386 E12.85762
G1 X44.507 Y42.859 E12.89058
G1 X43.926 Y42.663 E12.91097
G1 X43.842 Y42.63 E12.91397
G1 X42.695 Y42.595 E12.95214
G1 X42.137 Y42.696 E12.971
G1 X41.819 Y42.789 E12.98202
G1 X40.807 Y43.333 E13.02023
G1 X40.1 Y44.035 E13.05337
G1 X39.531 Y45.005 E13.09077
G1 X38.995 Y46.987 E13.15906
G1 X38.762 Y47.697 E13.18392
G1 X38.454 Y48.379 E13.20881
G1 X38.075 Y49.024 E13.23369
G1 X37.629 Y49.625 E13.25858
G1 X37.122 Y50.175 E13.28346
G1 X36.559 Y50.667 E13.30833
G1 X35.947 Y51.097 E13.33321
G1 X35.292 Y51.459 E13.3581
G1 X34.602 Y51.749 E13.38299
G1 X33.886 Y51.963 E13.40785
G1 X33.15 Y52.1 E13.43275
G1 X32.405 Y52.158 E13.4576
G1 X31.657 Y52.136 E13.48249
G1 X30.645 Y51.976 E13.51657
G1 X28.544 Y51.485 E13.58833
G1 X27.826 Y51.276 E13.6132
G1 X27.134 Y50.992 E13.63808
G1 X26.476 Y50.635 E13.66298
G1 X25.86 Y50.211 E13.68785
G1 X25.293 Y49.723 E13.71273
G1 X24.782 Y49.177 E13.73761
G1 X24.331 Y48.58 E13.76249
G1 X23.947 Y47.938 E13.78737
G1 X23.634 Y47.259 E13.81224
G1 X23.334 Y46.319 E13.84506
G1 X21.63 Y39.295 E14.08545
G1 X21.493 Y38.56 E14.11032
G1 X21.435 Y37.814 E14.13521
G1 X21.457 Y37.066 E14.1601
G1 X21.537 Y36.441 E14.18105
G1 X21.57 Y36.252 E14.18744
G1 X21.738 Y35.523 E14.21232
G1 X21.983 Y34.816 E14.2372
G1 X22.302 Y34.139 E14.2621
G1 X22.691 Y33.5 E14.28698
G1 X22.989 Y33.096 E14.30367
G1 X30.006 Y24.281 E14.67841
G0 F3600 X30.319 Y24.531
G1 F1800 X30.802 Y23.988 E14.70258
G1 X31.342 Y23.502 E14.72675
G1 X32.108 Y22.969 E14.75778
G1 X32.35 Y22.825 E14.76715
G1 X32.994 Y22.489 E14.79131
G1 X33.671 Y22.225 E14.81548
G1 X34.372 Y22.037 E14.83962
G1 X35.09 Y21.928 E14.86377
G1 X35.712 Y21.897 E14.88449
G1 X50.402 Y21.867 E15.37308
G1 X51.127 Y21.906 E15.39723
G1 X51.844 Y22.023 E15.42139
G1 X52.543 Y22.219 E15.44554
G1 X53.311 Y22.536 E15.47317
G1 X53.608 Y22.681 E15.48416
G1 X54.242 Y23.035 E15.50831
G1 X54.833 Y23.457 E15.53247
G1 X55.375 Y23.941 E15.55664
G1 X55.873 Y24.498 E15.58149
G1 X62.928 Y33.348 E15.95792
G1 X63.349 Y33.94 E15.98208
G1 X63.702 Y34.575 E16.00625
G1 X63.983 Y35.244 E16.03038
G1 X64.189 Y35.941 E16.05456
G1 X64.318 Y36.656 E16.07872
G1 X64.366 Y37.38 E16.10285
G1 X64.335 Y38.106 E16.12702
G1 X64.213 Y38.879 E16.15305
G1 X61.664 Y50.474 E16.54791
G1 X61.42 Y51.315 E16.57704
G1 X60.734 Y53.199 E16.64372
G1 X60.336 Y54.083 E16.67597
G1 X60.127 Y54.469 E16.69057
G1 X59.746 Y55.088 E16.71474
G1 X59.3 Y55.661 E16.73889
G1 X58.794 Y56.182 E16.76305
G1 X58.233 Y56.644 E16.78722
G1 X57.625 Y57.041 E16.81137
G1 X56.977 Y57.37 E16.83554
G1 X56.297 Y57.625 E16.8597
G1 X55.593 Y57.804 E16.88386
G1 X54.874 Y57.904 E16.908
G1 X54.148 Y57.925 E16.93216
G1 X53.258 Y57.84 E16.9619
G1 X51.809 Y57.603 E17.01073
G1 X51.099 Y57.447 E17.03491
G1 X50.412 Y57.213 E17.05905
G1 X49.754 Y56.906 E17.0832
G1 X49.133 Y56.528 E17.10738
G1 X48.559 Y56.084 E17.13151
G1 X48.036 Y55.579 E17.15569
G1 X47.572 Y55.02 E17.17986
G1 X47.172 Y54.414 E17.20401
G1 X46.841 Y53.767 E17.22818
G1 X46.584 Y53.088 E17.25233
G1 X46.402 Y52.385 E17.27648
G1 X46.299 Y51.666 E17.30064
G1 X46.276 Y50.94 E17.3248
G1 X46.332 Y50.216 E17.34895
G1 X46.468 Y49.502 E17.37312
G1 X46.681 Y48.808 E17.39727
G1 X46.755 Y48.636 E17.4035
G1 X47.111 Y47.292 E17.44974
G1 X47.14 Y46.313 E17.48232
G1 X46.9 Y45.039 E17.52543
G1 X46.34 Y43.943 E17.56637
G1 X45.612 Y43.081 E17.6039
G1 X44.682 Y42.497 E17.64042
G1 X44.054 Y42.285 E17.66247
G1 X43.92 Y42.232 E17.66726
G1 X42.664 Y42.194 E17.70905
G1 X42.045 Y42.306 E17.72998
G1 X41.669 Y42.416 E17.74301
G1 X40.565 Y43.009 E17.78469
G1 X39.781 Y43.788 E17.82145
G1 X39.159 Y44.848 E17.86232
G1 X38.609 Y46.882 E17.93241
G1 X38.382 Y47.572 E17.95656
G1 X38.079 Y48.232 E17.98072
G1 X37.706 Y48.856 E18.0049
G1 X37.267 Y49.434 E18.02904
G1 X36.767 Y49.961 E18.0532
G1 X36.212 Y50.43 E18.07737
G1 X35.609 Y50.834 E18.10151
G1 X34.965 Y51.17 E18.12567
G1 X34.288 Y51.434 E18.14984
G1 X33.586 Y51.621 E18.174
G1 X32.868 Y51.73 E18.19816
G1 X32.142 Y51.759 E18.22232
G1 X31.418 Y51.709 E18.24646
G1 X30.736 Y51.587 E18.2695
G1 X28.635 Y51.096 E18.34127
G1 X27.938 Y50.892 E18.36542
G1 X27.267 Y50.613 E18.38959
G1 X26.632 Y50.261 E18.41374
G1 X26.038 Y49.842 E18.43792
G1 X25.495 Y49.36 E18.46206
G1 X25.007 Y48.822 E18.48622
G1 X24.582 Y48.233 E18.51038
G1 X24.224 Y47.601 E18.53454
G1 X23.938 Y46.934 E18.55868
G1 X23.723 Y46.225 E18.58332
G1 X22.019 Y39.201 E18.82371
G1 X21.887 Y38.487 E18.84786
G1 X21.834 Y37.762 E18.87204
G1 X21.861 Y37.036 E18.89621
G1 X21.931 Y36.51 E18.91386
G1 X21.964 Y36.321 E18.92024
G1 X22.128 Y35.613 E18.94441
G1 X22.369 Y34.928 E18.96856
G1 X22.684 Y34.273 E18.99273
G1 X23.069 Y33.657 E19.01689
G1 X23.302 Y33.346 E19.02982
G1 X30.319 Y24.531 E19.40456
G0 F3600 X30.632 Y24.78
G1 F1800 X31.101 Y24.255 E19.42797
G1 X31.627 Y23.786 E19.45141
G1 X32.313 Y23.313 E19.47913
G1 X32.555 Y23.169 E19.48849
G1 X33.179 Y22.844 E19.51189
G1 X33.836 Y22.592 E19.5353
G1 X34.518 Y22.416 E19.55872
G1 X35.215 Y22.318 E19.58213
G1 X35.712 Y22.297 E19.59868
G1 X50.402 Y22.267 E20.08727
G1 X51.105 Y22.306 E20.11069
G1 X51.799 Y22.424 E20.1341
G1 X52.475 Y22.619 E20.1575
G1 X53.135 Y22.896 E20.18131
G1 X53.432 Y23.041 E20.1923
G1 X54.046 Y23.385 E20.21571
G1 X54.617 Y23.796 E20.23911
G1 X55.138 Y24.27 E20.26254
G1 X55.56 Y24.747 E20.28372
G1 X62.615 Y33.597 E20.66016
G1 X63.022 Y34.172 E20.68359
G1 X63.361 Y34.789 E20.707
G1 X63.628 Y35.44 E20.7304
G1 X63.819 Y36.118 E20.75383
G1 X63.933 Y36.812 E20.77722
G1 X63.967 Y37.516 E20.80067
G1 X63.921 Y38.218 E20.82407
G1 X63.822 Y38.793 E20.84347
G1 X61.273 Y50.388 E21.23833
G1 X61.044 Y51.178 E21.26569
G1 X60.358 Y53.062 E21.33238
G1 X59.984 Y53.893 E21.36268
G1 X59.775 Y54.279 E21.37728
G1 X59.405 Y54.878 E21.4007
G1 X58.97 Y55.431 E21.4241
G1 X58.475 Y55.932 E21.44753
G1 X57.926 Y56.373 E21.47095
G1 X57.331 Y56.749 E21.49436
G1 X56.697 Y57.055 E21.51777
G1 X56.032 Y57.287 E21.5412
G1 X55.346 Y57.442 E21.56459
G1 X54.646 Y57.519 E21.58801
G1 X53.942 Y57.515 E21.61143
G1 X53.322 Y57.446 E21.63218
G1 X51.873 Y57.209 E21.68101
G1 X51.186 Y57.056 E21.70442
G1 X50.521 Y56.826 E21.72782
G1 X49.886 Y56.522 E21.75124
G1 X49.289 Y56.148 E21.77467
G1 X48.739 Y55.709 E21.79808
G1 X48.242 Y55.211 E21.82148
G1 X47.804 Y54.659 E21.84492
G1 X47.432 Y54.061 E21.86834
G1 X47.131 Y53.425 E21.89174
G1 X46.903 Y52.759 E21.91516
G1 X46.752 Y52.072 E21.93855
G1 X46.68 Y51.371 E21.96199
G1 X46.688 Y50.667 E21.98541
G1 X46.776 Y49.969 E22.0088
G1 X46.943 Y49.285 E22.03222
G1 X47.134 Y48.765 E22.05065
G1 X47.51 Y47.346 E22.09947
G1 X47.542 Y46.283 E22.13484
G1 X47.282 Y44.909 E22.18135
G1 X46.675 Y43.719 E22.22579
G1 X45.877 Y42.775 E22.2669
G1 X44.856 Y42.134 E22.30699
G1 X44.182 Y41.906 E22.33066
G1 X44.001 Y41.834 E22.33714
G1 X42.634 Y41.793 E22.38263
