;FLAVOR:Marlin
;TIME:3481
;Filament used: 2.6495m
;Layer height: 0.2
;Generated with Cura_SteamEngine 3.4.1
M190 S60
M104 S200
M109 S200
M82 ;absolute extrusion mode
G21 ;metric values
G90 ;absolute positioning
M82 ;set extruder to absolute mode
M107 ;start with the fan off
G28 X0 Y0 ;move X/Y to min endstops
G28 Z0 ;move Z to min endstops
G1 Z15.0 F9000 ;move the platform down 15mm
G92 E0 ;zero the extruded length
G1 F200 E3 ;extrude 3mm of feed stock
G92 E0 ;zero the extruded length again
G1 F9000
;Put printing message on LCD screen
M117 Printing...
G92 E0
G1 F1500 E-6.5
;LAYER_COUNT:165
;LAYER:0
M107
G0 F3600 X29.04 Y21.195 Z0.2
;TYPE:SKIRT
G1 F1500 E0
G1 F1200 X36.202 Y12.409 E0.37701
G1 X36.58 Y12.008 E0.39534
G1 X37.012 Y11.667 E0.41365
G1 X37.489 Y11.391 E0.43198
G1 X38.001 Y11.187 E0.45031
G1 X38.537 Y11.059 E0.46864
G1 X39.2 Y11.01 E0.49075
G1 X48.444 Y11.14 E0.79823
G1 X53.416 Y11.006 E0.96366
G1 X54.122 Y11.053 E0.9872
G1 X54.358 Y11.091 E0.99515
G1 X54.894 Y11.218 E1.01347
G1 X55.407 Y11.421 E1.03182
G1 X55.884 Y11.696 E1.05013
G1 X56.317 Y12.037 E1.06846
G1 X56.699 Y12.442 E1.08698
G1 X63.668 Y20.992 E1.45385
G1 X63.985 Y21.443 E1.47219
G1 X64.181 Y21.818 E1.48626
G1 X64.273 Y22.02 E1.49364
G1 X64.465 Y22.537 E1.51199
G1 X64.579 Y23.076 E1.53031
G1 X64.615 Y23.625 E1.54861
G1 X64.537 Y24.363 E1.57329
G1 X63.089 Y31.376 E1.81147
G1 X62.991 Y31.751 E1.82436
G1 X62.235 Y34.147 E1.90792
G1 X62.078 Y34.56 E1.92262
G1 X61.696 Y35.411 E1.95364
G1 X61.431 Y35.901 E1.97217
G1 X59.669 Y38.658 E2.081
G1 X59.339 Y39.1 E2.09934
G1 X59.125 Y39.328 E2.10974
G1 X57.799 Y40.626 E2.17146
G1 X57.517 Y40.875 E2.18397
G1 X55.901 Y42.17 E2.25285
G1 X55.318 Y42.555 E2.27608
G1 X53.883 Y43.323 E2.33022
G1 X53.629 Y43.447 E2.33962
G1 X52.069 Y44.138 E2.39637
G1 X51.37 Y44.37 E2.42086
G1 X49.441 Y44.807 E2.48665
G1 X49.099 Y44.868 E2.4982
G1 X47.276 Y45.109 E2.55936
G1 X46.586 Y45.137 E2.58233
G1 X44.633 Y45.038 E2.64737
G1 X44.128 Y44.979 E2.66428
G1 X42.429 Y44.662 E2.72177
G1 X41.804 Y44.489 E2.74334
G1 X40.077 Y43.848 E2.80461
G1 X39.795 Y43.73 E2.81477
G1 X38.122 Y42.951 E2.87615
G1 X37.464 Y42.559 E2.90163
G1 X35.974 Y41.455 E2.96331
G1 X35.662 Y41.197 E2.97677
G1 X34.058 Y39.72 E3.04929
G1 X33.613 Y39.233 E3.07124
G1 X32.682 Y38.015 E3.12223
G1 X32.51 Y37.771 E3.13215
G1 X31.494 Y36.2 E3.19438
G1 X31.229 Y35.716 E3.21273
G1 X31.119 Y35.449 E3.22234
G1 X30.023 Y32.472 E3.32785
G1 X29.872 Y31.947 E3.34602
G1 X28.268 Y24.384 E3.60316
G1 X28.193 Y23.839 E3.62146
G1 X28.198 Y23.288 E3.63979
G1 X28.282 Y22.743 E3.65813
G1 X28.444 Y22.216 E3.67647
G1 X28.681 Y21.719 E3.69478
G1 X29.04 Y21.195 E3.71591
G0 F3600 X29.35 Y21.448
G1 F1200 X36.512 Y12.662 E4.09292
G1 X36.871 Y12.284 E4.11026
G1 X37.284 Y11.966 E4.12759
G1 X37.74 Y11.715 E4.14491
G1 X38.23 Y11.536 E4.16226
G1 X38.741 Y11.434 E4.17959
G1 X39.195 Y11.41 E4.19471
G1 X48.448 Y11.54 E4.50249
G1 X53.426 Y11.406 E4.66812
G1 X54.058 Y11.448 E4.68919
G1 X54.294 Y11.486 E4.69714
G1 X54.801 Y11.608 E4.71449
G1 X55.283 Y11.806 E4.73182
G1 X55.729 Y12.076 E4.74916
G1 X56.129 Y12.41 E4.76649
G1 X56.389 Y12.695 E4.77932
G1 X63.358 Y21.245 E5.14619
G1 X63.656 Y21.673 E5.16354
G1 X63.817 Y21.984 E5.17519
G1 X63.909 Y22.186 E5.18257
G1 X64.088 Y22.675 E5.19989
G1 X64.19 Y23.186 E5.21722
G1 X64.213 Y23.707 E5.23456
G1 X64.145 Y24.283 E5.25386
G1 X62.697 Y31.296 E5.49203
G1 X62.609 Y31.631 E5.50355
G1 X61.853 Y34.027 E5.58711
G1 X61.713 Y34.396 E5.60024
G1 X61.331 Y35.247 E5.63127
G1 X61.094 Y35.686 E5.64786
G1 X59.332 Y38.443 E5.75668
G1 X58.845 Y39.042 E5.78236
G1 X57.519 Y40.34 E5.84408
G1 X57.267 Y40.563 E5.85527
G1 X55.651 Y41.858 E5.92415
G1 X55.129 Y42.203 E5.94496
G1 X53.694 Y42.971 E5.99909
G1 X53.467 Y43.082 E6.0075
G1 X51.907 Y43.773 E6.06424
G1 X51.281 Y43.98 E6.08617
G1 X49.352 Y44.417 E6.15196
G1 X49.047 Y44.472 E6.16227
G1 X47.224 Y44.713 E6.22343
G1 X46.606 Y44.738 E6.244
G1 X44.653 Y44.639 E6.30904
G1 X44.201 Y44.585 E6.32418
G1 X42.502 Y44.268 E6.38166
G1 X41.943 Y44.114 E6.40095
G1 X40.216 Y43.473 E6.46222
G1 X39.964 Y43.367 E6.47131
G1 X38.291 Y42.588 E6.53269
G1 X37.702 Y42.238 E6.55548
G1 X36.212 Y41.134 E6.61716
G1 X35.933 Y40.903 E6.6292
G1 X34.329 Y39.426 E6.70173
G1 X33.931 Y38.99 E6.72136
G1 X33 Y37.772 E6.77235
G1 X32.846 Y37.553 E6.78126
G1 X31.83 Y35.982 E6.84348
G1 X31.494 Y35.311 E6.86844
G1 X30.398 Y32.334 E6.97395
G1 X30.263 Y31.864 E6.99022
G1 X28.659 Y24.301 E7.24736
G1 X28.59 Y23.785 E7.26468
G1 X28.601 Y23.264 E7.28201
G1 X28.692 Y22.751 E7.29934
G1 X28.86 Y22.257 E7.31669
G1 X29.101 Y21.795 E7.33402
G1 X29.35 Y21.448 E7.34823
G0 F3600 X29.66 Y21.7
G1 F1200 X36.822 Y12.914 E7.72524
G1 X37.161 Y12.562 E7.74149
G1 X37.553 Y12.269 E7.75777
G1 X37.987 Y12.043 E7.77405
G1 X38.453 Y11.891 E7.79035
G1 X38.937 Y11.817 E7.80663
G1 X39.189 Y11.81 E7.81502
G1 X48.454 Y11.94 E8.1232
G1 X53.437 Y11.806 E8.289
G1 X53.995 Y11.843 E8.3076
G1 X54.231 Y11.881 E8.31555
G1 X54.706 Y11.998 E8.33182
G1 X55.156 Y12.191 E8.34811
G1 X55.569 Y12.454 E8.36439
G1 X56.079 Y12.948 E8.38801
G1 X63.048 Y21.498 E8.75488
G1 X63.326 Y21.901 E8.77116
G1 X63.453 Y22.15 E8.78046
G1 X63.545 Y22.352 E8.78784
G1 X63.711 Y22.812 E8.80411
G1 X63.8 Y23.293 E8.82038
G1 X63.809 Y23.783 E8.83668
G1 X63.753 Y24.202 E8.85074
G1 X62.305 Y31.215 E9.08891
G1 X62.228 Y31.511 E9.09908
G1 X61.472 Y33.907 E9.18265
G1 X61.348 Y34.233 E9.19425
G1 X60.966 Y35.084 E9.22527
G1 X60.757 Y35.471 E9.2399
G1 X58.995 Y38.228 E9.34873
G1 X58.566 Y38.756 E9.37135
G1 X57.24 Y40.054 E9.43307
G1 X57.017 Y40.251 E9.44297
G1 X55.401 Y41.546 E9.51184
G1 X54.941 Y41.85 E9.53018
G1 X53.506 Y42.618 E9.58432
G1 X53.305 Y42.716 E9.59176
G1 X51.745 Y43.407 E9.6485
G1 X51.193 Y43.59 E9.66785
G1 X49.264 Y44.027 E9.73363
G1 X48.994 Y44.075 E9.74275
G1 X47.171 Y44.316 E9.80391
G1 X46.626 Y44.338 E9.82205
G1 X44.673 Y44.239 E9.88709
G1 X44.275 Y44.192 E9.90042
G1 X42.576 Y43.875 E9.95791
G1 X42.082 Y43.739 E9.97495
G1 X40.355 Y43.098 E10.03622
G1 X40.133 Y43.005 E10.04422
G1 X38.46 Y42.226 E10.1056
G1 X37.94 Y41.916 E10.12574
G1 X36.45 Y40.812 E10.18742
G1 X36.204 Y40.609 E10.19803
G1 X34.6 Y39.132 E10.27055
G1 X34.249 Y38.747 E10.28788
G1 X33.318 Y37.529 E10.33887
G1 X33.182 Y37.336 E10.34672
G1 X32.166 Y35.765 E10.40895
G1 X31.87 Y35.172 E10.43099
G1 X30.774 Y32.195 E10.5365
G1 X30.654 Y31.781 E10.55084
G1 X29.05 Y24.218 E10.80798
G1 X28.988 Y23.733 E10.82424
G1 X29.006 Y23.244 E10.84052
G1 X29.103 Y22.764 E10.85681
G1 X29.276 Y22.306 E10.87309
G1 X29.66 Y21.7 E10.89695
G0 F3600 X29.97 Y21.953
G1 F1200 X37.132 Y13.167 E11.27396
G1 X37.449 Y12.841 E11.28909
G1 X37.819 Y12.575 E11.30424
G1 X38.23 Y12.377 E11.31942
G1 X38.669 Y12.254 E11.33458
G1 X39.184 Y12.21 E11.35177
G1 X48.459 Y12.34 E11.66029
G1 X53.448 Y12.206 E11.82628
G1 X53.931 Y12.238 E11.84238
G1 X54.167 Y12.276 E11.85033
G1 X54.609 Y12.388 E11.8655
G1 X55.025 Y12.575 E11.88067
G1 X55.401 Y12.831 E11.8958
G1 X55.769 Y13.2 E11.91313
G1 X62.738 Y21.75 E12.28
G1 X63.089 Y22.315 E12.30213
G1 X63.181 Y22.517 E12.30951
G1 X63.333 Y22.947 E12.32468
G1 X63.407 Y23.396 E12.33981
G1 X63.402 Y23.852 E12.35498
G1 X63.361 Y24.121 E12.36403
G1 X61.913 Y31.134 E12.60221
G1 X61.847 Y31.39 E12.611
G1 X61.091 Y33.786 E12.69456
G1 X60.983 Y34.069 E12.70464
G1 X60.601 Y34.92 E12.73566
G1 X60.42 Y35.255 E12.74833
G1 X58.658 Y38.012 E12.85715
G1 X58.286 Y38.47 E12.87678
G1 X56.96 Y39.768 E12.93849
G1 X56.767 Y39.939 E12.94707
G1 X55.151 Y41.234 E13.01595
G1 X54.752 Y41.497 E13.03184
G1 X53.317 Y42.265 E13.08598
G1 X53.143 Y42.35 E13.09242
G1 X51.583 Y43.041 E13.14916
G1 X51.104 Y43.2 E13.16595
G1 X49.175 Y43.637 E13.23174
G1 X48.942 Y43.679 E13.23961
G1 X47.119 Y43.92 E13.30077
G1 X46.646 Y43.939 E13.31652
G1 X44.693 Y43.84 E13.38156
G1 X44.348 Y43.799 E13.39311
G1 X42.649 Y43.482 E13.4506
G1 X42.221 Y43.364 E13.46536
G1 X40.494 Y42.723 E13.52663
G1 X40.302 Y42.642 E13.53356
G1 X38.629 Y41.863 E13.59494
G1 X38.178 Y41.595 E13.61239
G1 X36.688 Y40.491 E13.67407
G1 X36.475 Y40.315 E13.68326
G1 X34.871 Y38.838 E13.75578
G1 X34.566 Y38.504 E13.77083
G1 X33.635 Y37.286 E13.82182
G1 X33.518 Y37.119 E13.8286
G1 X32.502 Y35.548 E13.89082
G1 X32.245 Y35.034 E13.90994
G1 X31.149 Y32.057 E14.01545
G1 X31.046 Y31.698 E14.02787
G1 X29.442 Y24.135 E14.28501
G1 X29.386 Y23.683 E14.30016
G1 X29.411 Y23.228 E14.31532
G1 X29.515 Y22.785 E14.33045
G1 X29.694 Y22.366 E14.34561
G1 X29.97 Y21.953 E14.36213
G0 F3600 X30.28 Y22.206
G1 F1200 X37.442 Y13.42 E14.73914
G1 X37.736 Y13.122 E14.75307
G1 X38.082 Y12.885 E14.76701
G1 X38.466 Y12.718 E14.78094
G1 X38.875 Y12.627 E14.79488
G1 X39.178 Y12.61 E14.80497
G1 X48.464 Y12.741 E15.11386
G1 X53.459 Y12.606 E15.28005
G1 X53.868 Y12.633 E15.29368
G1 X54.104 Y12.671 E15.30163
G1 X54.509 Y12.777 E15.31556
G1 X54.887 Y12.957 E15.32948
G1 X55.224 Y13.206 E15.34342
G1 X55.459 Y13.453 E15.35476
G1 X62.428 Y22.003 E15.72163
G1 X62.725 Y22.481 E15.74035
G1 X62.817 Y22.683 E15.74773
G1 X62.954 Y23.079 E15.76167
G1 X63.013 Y23.494 E15.77561
G1 X62.97 Y24.04 E15.79383
G1 X61.522 Y31.053 E16.032
G1 X61.465 Y31.27 E16.03946
G1 X60.709 Y33.666 E16.12303
G1 X60.618 Y33.905 E16.13153
G1 X60.236 Y34.756 E16.16256
G1 X60.083 Y35.04 E16.17329
G1 X58.321 Y37.797 E16.28211
G1 X58.006 Y38.184 E16.29871
G1 X56.68 Y39.482 E16.36042
G1 X56.517 Y39.627 E16.36768
G1 X54.901 Y40.922 E16.43656
G1 X54.563 Y41.145 E16.45003
G1 X53.128 Y41.913 E16.50416
G1 X52.981 Y41.985 E16.5096
G1 X51.421 Y42.676 E16.56635
G1 X51.016 Y42.81 E16.58054
G1 X49.087 Y43.247 E16.64633
G1 X48.889 Y43.282 E16.65301
G1 X47.066 Y43.523 E16.71417
G1 X46.667 Y43.539 E16.72745
G1 X44.714 Y43.44 E16.7925
G1 X44.421 Y43.406 E16.80231
G1 X42.722 Y43.089 E16.85979
G1 X42.36 Y42.989 E16.87228
G1 X40.633 Y42.348 E16.93355
G1 X40.47 Y42.279 E16.93944
G1 X38.797 Y41.5 E17.00082
G1 X38.416 Y41.274 E17.01555
G1 X36.926 Y40.17 E17.07723
G1 X36.746 Y40.02 E17.08502
G1 X35.142 Y38.543 E17.15755
G1 X34.884 Y38.261 E17.17026
G1 X33.953 Y37.043 E17.22125
G1 X33.854 Y36.902 E17.22698
G1 X32.838 Y35.331 E17.28921
G1 X32.62 Y34.896 E17.30539
G1 X31.524 Y31.919 E17.4109
G1 X31.437 Y31.615 E17.42142
G1 X29.833 Y24.052 E17.67856
G1 X29.785 Y23.636 E17.69249
G1 X29.818 Y23.218 E17.70643
G1 X29.929 Y22.814 E17.72037
G1 X30.114 Y22.438 E17.73431
G1 X30.28 Y22.206 E17.74379
G0 F3600 X30.59 Y22.459
G1 F1200 X37.752 Y13.673 E18.12081
G1 X38.021 Y13.406 E18.13341
G1 X38.34 Y13.201 E18.14602
G1 X38.694 Y13.068 E18.1586
G1 X39.172 Y13.01 E18.17462
G1 X48.469 Y13.141 E18.48387
G1 X53.47 Y13.006 E18.65026
G1 X53.804 Y13.028 E18.66139
G1 X54.04 Y13.066 E18.66934
G1 X54.406 Y13.165 E18.68196
G1 X54.743 Y13.339 E18.69457
G1 X55.149 Y13.706 E18.71277
G1 X62.118 Y22.256 E19.07965
G1 X62.361 Y22.647 E19.09496
G1 X62.453 Y22.849 E19.10234
G1 X62.573 Y23.208 E19.11493
G1 X62.615 Y23.585 E19.12755
G1 X62.578 Y23.959 E19.14005
G1 X61.13 Y30.972 E19.37822
G1 X61.084 Y31.15 E19.38433
G1 X60.328 Y33.546 E19.4679
G1 X60.253 Y33.741 E19.47485
G1 X59.871 Y34.592 E19.50587
G1 X59.746 Y34.824 E19.51464
G1 X57.984 Y37.581 E19.62346
G1 X57.726 Y37.898 E19.63706
G1 X56.4 Y39.196 E19.69877
G1 X56.267 Y39.315 E19.70471
G1 X54.651 Y40.61 E19.77359
G1 X54.374 Y40.792 E19.78461
G1 X52.939 Y41.56 E19.83874
G1 X52.819 Y41.619 E19.84319
G1 X51.259 Y42.31 E19.89994
G1 X50.928 Y42.42 E19.91154
G1 X48.999 Y42.857 E19.97733
G1 X48.837 Y42.885 E19.98279
G1 X47.014 Y43.126 E20.04395
G1 X46.687 Y43.14 E20.05484
G1 X44.734 Y43.041 E20.11988
G1 X44.495 Y43.012 E20.12789
G1 X42.796 Y42.695 E20.18537
G1 X42.5 Y42.614 E20.19558
G1 X40.773 Y41.973 E20.25685
G1 X40.639 Y41.917 E20.26168
G1 X38.966 Y41.138 E20.32306
G1 X38.654 Y40.952 E20.33514
G1 X37.164 Y39.848 E20.39682
G1 X37.017 Y39.726 E20.40317
G1 X35.413 Y38.249 E20.47569
G1 X35.202 Y38.018 E20.4861
G1 X34.271 Y36.8 E20.53709
G1 X34.19 Y36.684 E20.5418
G1 X33.174 Y35.113 E20.60402
G1 X32.996 Y34.758 E20.61723
G1 X31.9 Y31.781 E20.72274
G1 X31.828 Y31.532 E20.73136
G1 X30.224 Y23.969 E20.98851
G1 X30.185 Y23.593 E21.00108
G1 X30.226 Y23.216 E21.01369
G1 X30.344 Y22.856 E21.02629
G1 X30.59 Y22.459 E21.04183
G0 F3600 X30.9 Y22.711
G1 F1200 X38.062 Y13.925 E21.41884
G1 X38.302 Y13.694 E21.42992
G1 X38.591 Y13.525 E21.44105
G1 X38.911 Y13.43 E21.45216
G1 X39.167 Y13.41 E21.4607
G1 X48.474 Y13.541 E21.77028
G1 X53.48 Y13.406 E21.93684
G1 X53.741 Y13.423 E21.94554
G1 X53.977 Y13.461 E21.95349
G1 X54.298 Y13.553 E21.9646
G1 X54.588 Y13.718 E21.97569
G1 X54.839 Y13.958 E21.98724
G1 X61.808 Y22.508 E22.35412
G1 X61.997 Y22.813 E22.36605
G1 X62.089 Y23.015 E22.37343
G1 X62.19 Y23.333 E22.38453
G1 X62.213 Y23.666 E22.39563
G1 X62.186 Y23.878 E22.40274
G1 X60.738 Y30.891 E22.64091
G1 X60.702 Y31.029 E22.64566
G1 X59.946 Y33.425 E22.72922
G1 X59.888 Y33.577 E22.73463
G1 X59.506 Y34.428 E22.76566
G1 X59.409 Y34.609 E22.77249
G1 X57.647 Y37.366 E22.88131
G1 X57.446 Y37.612 E22.89188
G1 X56.12 Y38.91 E22.95359
G1 X56.016 Y39.002 E22.95821
G1 X54.4 Y40.297 E23.02709
G1 X54.186 Y40.439 E23.03563
G1 X52.751 Y41.207 E23.08977
G1 X52.657 Y41.253 E23.09325
G1 X51.097 Y41.944 E23.14999
G1 X50.839 Y42.029 E23.15903
G1 X48.91 Y42.466 E23.22481
G1 X48.784 Y42.489 E23.22907
G1 X46.961 Y42.73 E23.29023
G1 X46.707 Y42.74 E23.29869
G1 X44.754 Y42.641 E23.36373
G1 X44.568 Y42.619 E23.36996
G1 X42.869 Y42.302 E23.42744
G1 X42.639 Y42.239 E23.43538
G1 X40.912 Y41.598 E23.49664
G1 X40.808 Y41.554 E23.5004
G1 X39.135 Y40.775 E23.56178
G1 X38.893 Y40.631 E23.57115
G1 X37.403 Y39.527 E23.63283
G1 X37.288 Y39.432 E23.63779
G1 X35.684 Y37.955 E23.71031
G1 X35.52 Y37.775 E23.71841
G1 X34.589 Y36.557 E23.7694
G1 X34.525 Y36.467 E23.77307
G1 X33.509 Y34.896 E23.8353
G1 X33.371 Y34.62 E23.84556
G1 X32.275 Y31.643 E23.95107
G1 X32.219 Y31.449 E23.95779
G1 X30.615 Y23.886 E24.21493
G1 X30.586 Y23.554 E24.22602
G1 X30.635 Y23.223 E24.23714
G1 X30.762 Y22.914 E24.24826
G1 X30.9 Y22.711 E24.25642
G0 F3600 X31.21 Y22.964
G1 F1200 X38.372 Y14.178 E24.63343
G1 X38.579 Y13.987 E24.6428
G1 X38.832 Y13.861 E24.6522
G1 X39.161 Y13.81 E24.66327
G1 X48.455 Y13.941 E24.97242
G1 X53.491 Y13.805 E25.13998
G1 X53.677 Y13.818 E25.14619
G1 X53.913 Y13.856 E25.15414
G1 X54.182 Y13.939 E25.1635
G1 X54.418 Y14.095 E25.17291
G1 X54.529 Y14.211 E25.17825
G1 X61.498 Y22.761 E25.54512
G1 X61.633 Y22.979 E25.55365
G1 X61.725 Y23.181 E25.56103
G1 X61.805 Y23.451 E25.5704
G1 X61.794 Y23.797 E25.58191
G1 X60.346 Y30.81 E25.82008
G1 X60.321 Y30.909 E25.82348
G1 X59.565 Y33.305 E25.90704
G1 X59.523 Y33.414 E25.91093
G1 X59.141 Y34.265 E25.94196
G1 X59.072 Y34.394 E25.94682
G1 X57.31 Y37.151 E26.05565
G1 X57.167 Y37.327 E26.06319
G1 X55.841 Y38.625 E26.12491
G1 X55.766 Y38.69 E26.12821
G1 X54.15 Y39.985 E26.19708
G1 X53.997 Y40.087 E26.2032
G1 X52.562 Y40.855 E26.25733
G1 X52.495 Y40.887 E26.2598
G1 X50.935 Y41.578 E26.31655
G1 X50.751 Y41.639 E26.323
G1 X48.822 Y42.076 E26.38878
G1 X48.732 Y42.092 E26.39182
G1 X46.909 Y42.333 E26.45298
G1 X46.727 Y42.341 E26.45904
G1 X44.774 Y42.242 E26.52408
G1 X44.642 Y42.226 E26.52851
G1 X42.943 Y41.909 E26.58599
G1 X42.778 Y41.864 E26.59168
G1 X41.051 Y41.223 E26.65295
G1 X40.977 Y41.192 E26.65562
G1 X39.304 Y40.413 E26.717
G1 X39.131 Y40.309 E26.72371
G1 X37.641 Y39.205 E26.78539
G1 X37.559 Y39.138 E26.78891
G1 X35.955 Y37.661 E26.86143
G1 X35.838 Y37.532 E26.86723
G1 X34.907 Y36.314 E26.91822
G1 X34.861 Y36.25 E26.92084
G1 X33.845 Y34.679 E26.98306
G1 X33.747 Y34.481 E26.99041
G1 X32.651 Y31.504 E27.09592
G1 X32.611 Y31.366 E27.1007
G1 X31.007 Y23.803 E27.35784
G1 X30.988 Y23.522 E27.36721
G1 X31.048 Y23.246 E27.37661
G1 X31.21 Y22.964 E27.38742
G0 F3600 X31.52 Y23.217
G1 F1200 X38.682 Y14.431 E27.76443
G1 X38.848 Y14.29 E27.77168
G1 X39.155 Y14.21 E27.78223
G1 X48.46 Y14.341 E28.09175
G1 X53.502 Y14.205 E28.25951
G1 X53.613 Y14.213 E28.26321
G1 X53.849 Y14.251 E28.27116
G1 X54.055 Y14.324 E28.27843
G1 X54.219 Y14.464 E28.2856
G1 X61.188 Y23.014 E28.65247
G1 X61.269 Y23.144 E28.65757
G1 X61.361 Y23.346 E28.66495
G1 X61.414 Y23.558 E28.67222
G1 X61.403 Y23.716 E28.67748
G1 X59.955 Y30.729 E28.91566
G1 X59.939 Y30.789 E28.91772
G1 X59.183 Y33.185 E29.00129
