;FLAVOR:Marlin
;TIME:3665
;Filament used: 2.83413m
;Layer height: 0.2
;Generated with Cura_SteamEngine 3.4.1
M190 S60
M104 S200
M109 S200
M82 ;absolute extrusion mode
G21 ;metric values
G90 ;absolute positioning
M82 ;set extruder to absolute mode
M107 ;start with the fan off
G28 X0 Y0 ;move X/Y to min endstops
G28 Z0 ;move Z to min endstops
G1 Z15.0 F9000 ;move the platform down 15mm
G92 E0 ;zero the extruded length
G1 F200 E3 ;extrude 3mm of feed stock
G92 E0 ;zero the extruded length again
G1 F9000
;Put printing message on LCD screen
M117 Printing...
G92 E0
G1 F1500 E-6.5
;LAYER_COUNT:169
;LAYER:0
M107
G0 F3600 X26.811 Y21.772 Z0.2
;TYPE:SKIRT
G1 F1500 E0
G1 F1200 X27.19 Y21.372 E0.01833
G1 X27.624 Y21.032 E0.03666
G1 X28.101 Y20.757 E0.05498
G1 X28.614 Y20.555 E0.07331
G1 X29.15 Y20.429 E0.09163
G1 X29.804 Y20.381 E0.11344
G1 X39.476 Y20.518 E0.43516
G1 X44.435 Y20.384 E0.60016
G1 X45.062 Y20.419 E0.62105
G1 X45.306 Y20.453 E0.62924
G1 X45.845 Y20.569 E0.64758
G1 X46.362 Y20.761 E0.66592
G1 X46.845 Y21.026 E0.68425
G1 X47.285 Y21.358 E0.70258
G1 X47.728 Y21.816 E0.72377
G1 X54.896 Y30.612 E1.10117
G1 X55.212 Y31.064 E1.11951
G1 X55.425 Y31.474 E1.13488
G1 X55.518 Y31.684 E1.14252
G1 X55.704 Y32.203 E1.16085
G1 X55.813 Y32.743 E1.17918
G1 X55.842 Y33.293 E1.19749
G1 X55.764 Y33.992 E1.22089
G1 X54.273 Y41.206 E1.4659
G1 X54.177 Y41.576 E1.47861
G1 X53.422 Y43.978 E1.56236
G1 X53.264 Y44.394 E1.57716
G1 X52.817 Y45.391 E1.6135
G1 X52.548 Y45.888 E1.63229
G1 X50.766 Y48.666 E1.74207
G1 X50.436 Y49.107 E1.76039
G1 X50.231 Y49.325 E1.77034
G1 X48.869 Y50.663 E1.83384
G1 X48.567 Y50.93 E1.84725
G1 X46.849 Y52.292 E1.92017
G1 X46.279 Y52.665 E1.94282
G1 X44.857 Y53.425 E1.99645
G1 X44.599 Y53.551 E2.006
G1 X43.073 Y54.224 E2.06147
G1 X42.413 Y54.445 E2.08462
G1 X40.349 Y54.932 E2.15516
G1 X39.968 Y55.002 E2.16804
G1 X38.092 Y55.247 E2.23097
G1 X37.387 Y55.273 E2.25443
G1 X35.29 Y55.155 E2.32429
G1 X34.753 Y55.086 E2.3423
G1 X32.896 Y54.712 E2.4053
G1 X32.317 Y54.547 E2.42532
G1 X30.736 Y53.957 E2.48145
G1 X30.38 Y53.803 E2.49435
G1 X28.434 Y52.84 E2.56657
G1 X27.85 Y52.482 E2.58935
G1 X26.54 Y51.507 E2.64366
G1 X26.303 Y51.316 E2.65379
G1 X24.869 Y50.058 E2.71724
G1 X24.482 Y49.665 E2.73558
G1 X24.296 Y49.427 E2.74563
G1 X22.346 Y46.73 E2.85632
G1 X22.051 Y46.252 E2.875
G1 X21.577 Y45.337 E2.90928
G1 X21.416 Y44.983 E2.92221
G1 X20.9 Y43.674 E2.96901
G1 X20.802 Y43.393 E2.97891
G1 X20.238 Y41.551 E3.04298
G1 X20.144 Y41.18 E3.05571
G1 X18.689 Y33.87 E3.30361
G1 X18.621 Y33.323 E3.32194
G1 X18.633 Y32.772 E3.34027
G1 X18.724 Y32.229 E3.35859
G1 X18.893 Y31.704 E3.37693
G1 X19.136 Y31.21 E3.39524
G1 X19.477 Y30.719 E3.41512
G1 X26.811 Y21.772 E3.7999
G0 F3600 X27.121 Y22.026
G1 F1200 X27.481 Y21.649 E3.81724
G1 X27.894 Y21.332 E3.83456
G1 X28.352 Y21.082 E3.85191
G1 X28.842 Y20.905 E3.86924
G1 X29.353 Y20.804 E3.88656
G1 X29.798 Y20.781 E3.90138
G1 X39.481 Y20.918 E4.22348
G1 X44.446 Y20.784 E4.38867
G1 X45.007 Y20.816 E4.40736
G1 X45.251 Y20.85 E4.41555
G1 X45.76 Y20.961 E4.43288
G1 X46.247 Y21.149 E4.45024
G1 X46.698 Y21.408 E4.46754
G1 X47.105 Y21.734 E4.48489
G1 X47.418 Y22.069 E4.50014
G1 X54.586 Y30.865 E4.87753
G1 X54.883 Y31.293 E4.89486
G1 X55.059 Y31.636 E4.90768
G1 X55.152 Y31.846 E4.91532
G1 X55.326 Y32.338 E4.93268
G1 X55.422 Y32.85 E4.95
G1 X55.44 Y33.37 E4.96731
G1 X55.373 Y33.911 E4.98544
G1 X53.882 Y41.125 E5.23045
G1 X53.796 Y41.457 E5.24186
G1 X53.041 Y43.859 E5.3256
G1 X52.899 Y44.23 E5.33881
G1 X52.452 Y45.227 E5.37515
G1 X52.212 Y45.672 E5.39197
G1 X50.43 Y48.45 E5.50174
G1 X49.951 Y49.039 E5.52699
G1 X48.589 Y50.377 E5.5905
G1 X48.318 Y50.616 E5.60251
G1 X46.6 Y51.978 E5.67543
G1 X46.091 Y52.313 E5.6957
G1 X44.669 Y53.073 E5.74933
G1 X44.438 Y53.185 E5.75787
G1 X42.912 Y53.858 E5.81334
G1 X42.321 Y54.056 E5.83407
G1 X40.257 Y54.543 E5.9046
G1 X39.916 Y54.605 E5.91613
G1 X38.04 Y54.85 E5.97906
G1 X37.409 Y54.874 E6.00006
G1 X35.312 Y54.756 E6.06991
G1 X34.832 Y54.694 E6.08601
G1 X32.975 Y54.32 E6.14902
G1 X32.457 Y54.172 E6.16693
G1 X30.876 Y53.582 E6.22306
G1 X30.557 Y53.444 E6.23462
G1 X28.611 Y52.481 E6.30684
G1 X28.089 Y52.161 E6.3272
G1 X26.779 Y51.186 E6.38152
G1 X26.567 Y51.015 E6.39057
G1 X25.133 Y49.757 E6.45402
G1 X24.62 Y49.193 E6.47938
G1 X22.67 Y46.496 E6.59007
G1 X22.406 Y46.068 E6.6068
G1 X21.932 Y45.153 E6.64107
G1 X21.788 Y44.836 E6.65265
G1 X21.272 Y43.527 E6.69945
G1 X21.184 Y43.275 E6.70833
G1 X20.62 Y41.433 E6.7724
G1 X20.536 Y41.102 E6.78376
G1 X19.081 Y33.792 E7.03166
G1 X19.019 Y33.274 E7.04901
G1 X19.037 Y32.753 E7.06635
G1 X19.134 Y32.241 E7.08368
G1 X19.308 Y31.75 E7.10101
G1 X19.555 Y31.291 E7.11835
G1 X19.787 Y30.973 E7.13144
G1 X27.121 Y22.026 E7.51622
G0 F3600 X27.43 Y22.279
G1 F1200 X27.77 Y21.927 E7.53249
G1 X28.163 Y21.635 E7.54878
G1 X28.598 Y21.411 E7.56505
G1 X29.064 Y21.261 E7.58133
G1 X29.792 Y21.181 E7.60569
G1 X39.487 Y21.318 E7.92818
G1 X44.457 Y21.184 E8.09355
G1 X44.952 Y21.212 E8.11004
G1 X45.196 Y21.246 E8.11823
G1 X45.674 Y21.353 E8.13452
G1 X46.128 Y21.536 E8.1508
G1 X46.546 Y21.79 E8.16707
G1 X46.917 Y22.109 E8.18334
G1 X47.108 Y22.322 E8.19286
G1 X54.276 Y31.118 E8.57026
G1 X54.553 Y31.521 E8.58652
G1 X54.693 Y31.798 E8.59684
G1 X54.786 Y32.008 E8.60448
G1 X54.947 Y32.47 E8.62075
G1 X55.031 Y32.953 E8.63706
G1 X55.035 Y33.442 E8.65332
G1 X54.981 Y33.83 E8.66635
G1 X53.49 Y41.044 E8.91136
G1 X53.414 Y41.337 E8.92143
G1 X52.659 Y43.739 E9.00518
G1 X52.534 Y44.066 E9.01682
G1 X52.087 Y45.063 E9.05316
G1 X51.875 Y45.456 E9.06801
G1 X50.093 Y48.234 E9.17778
G1 X49.67 Y48.754 E9.20008
G1 X48.308 Y50.092 E9.26358
G1 X48.07 Y50.303 E9.27416
G1 X46.352 Y51.665 E9.34708
G1 X45.902 Y51.96 E9.36498
G1 X44.48 Y52.72 E9.4186
G1 X44.277 Y52.819 E9.42612
G1 X42.751 Y53.492 E9.48159
G1 X42.229 Y53.667 E9.4999
G1 X40.165 Y54.154 E9.57043
G1 X39.864 Y54.209 E9.58061
G1 X37.988 Y54.454 E9.64354
G1 X37.431 Y54.474 E9.66207
G1 X35.334 Y54.356 E9.73193
G1 X34.911 Y54.302 E9.74611
G1 X33.054 Y53.928 E9.80912
G1 X32.597 Y53.798 E9.82492
G1 X31.016 Y53.208 E9.88105
G1 X30.734 Y53.086 E9.89127
G1 X28.788 Y52.123 E9.96348
G1 X28.328 Y51.841 E9.98143
G1 X27.018 Y50.866 E10.03574
G1 X26.831 Y50.714 E10.04376
G1 X25.397 Y49.456 E10.1072
G1 X24.944 Y48.959 E10.12957
G1 X22.994 Y46.262 E10.24026
G1 X22.761 Y45.884 E10.25503
G1 X22.287 Y44.969 E10.28931
G1 X22.16 Y44.689 E10.29953
G1 X21.644 Y43.38 E10.34633
G1 X21.566 Y43.158 E10.35416
G1 X21.002 Y41.316 E10.41823
G1 X20.929 Y41.024 E10.42824
G1 X19.474 Y33.714 E10.67614
G1 X19.418 Y33.227 E10.69245
G1 X19.441 Y32.738 E10.70873
G1 X19.544 Y32.26 E10.72499
G1 X19.724 Y31.804 E10.7413
G1 X20.096 Y31.226 E10.76416
G1 X27.43 Y22.279 E11.14894
G0 F3600 X27.739 Y22.533
G1 F1200 X28.058 Y22.207 E11.16411
G1 X28.428 Y21.942 E11.17925
G1 X28.84 Y21.746 E11.19442
G1 X29.279 Y21.624 E11.20957
G1 X29.787 Y21.581 E11.22653
G1 X39.492 Y21.718 E11.54935
G1 X44.468 Y21.584 E11.71492
G1 X44.897 Y21.608 E11.72921
G1 X45.141 Y21.642 E11.7374
G1 X45.585 Y21.744 E11.75255
G1 X46.004 Y21.922 E11.76769
G1 X46.386 Y22.171 E11.78286
G1 X46.798 Y22.575 E11.80205
G1 X53.966 Y31.371 E12.17945
G1 X54.221 Y31.748 E12.19459
G1 X54.327 Y31.96 E12.20247
G1 X54.42 Y32.17 E12.21011
G1 X54.568 Y32.601 E12.22527
G1 X54.637 Y33.052 E12.24044
G1 X54.627 Y33.507 E12.25558
G1 X54.589 Y33.749 E12.26372
G1 X53.098 Y40.963 E12.50873
G1 X53.032 Y41.217 E12.51746
G1 X52.277 Y43.619 E12.60121
G1 X52.169 Y43.903 E12.61131
G1 X51.722 Y44.9 E12.64765
G1 X51.538 Y45.24 E12.66051
G1 X49.756 Y48.018 E12.77028
G1 X49.39 Y48.469 E12.7896
G1 X48.028 Y49.807 E12.85311
G1 X47.821 Y49.989 E12.86227
G1 X46.103 Y51.351 E12.93519
G1 X45.714 Y51.607 E12.95068
G1 X44.292 Y52.367 E13.00431
G1 X44.115 Y52.453 E13.01085
G1 X42.589 Y53.126 E13.06632
G1 X42.137 Y53.278 E13.08219
G1 X40.073 Y53.765 E13.15272
G1 X39.813 Y53.812 E13.16151
G1 X37.937 Y54.057 E13.22443
G1 X37.454 Y54.075 E13.24051
G1 X35.357 Y53.957 E13.31037
G1 X34.99 Y53.91 E13.32267
G1 X33.133 Y53.536 E13.38568
G1 X32.737 Y53.423 E13.39937
G1 X31.156 Y52.833 E13.4555
G1 X30.912 Y52.727 E13.46435
G1 X28.966 Y51.764 E13.53656
G1 X28.567 Y51.52 E13.55212
G1 X27.257 Y50.545 E13.60643
G1 X27.094 Y50.414 E13.61339
G1 X25.66 Y49.156 E13.67684
G1 X25.268 Y48.724 E13.69624
G1 X23.318 Y46.027 E13.80693
G1 X23.116 Y45.7 E13.81971
G1 X22.642 Y44.785 E13.85399
G1 X22.532 Y44.542 E13.86286
G1 X22.016 Y43.233 E13.90966
G1 X21.949 Y43.041 E13.91642
G1 X21.385 Y41.199 E13.98049
G1 X21.321 Y40.946 E13.98917
G1 X19.866 Y33.636 E14.23708
G1 X19.817 Y33.183 E14.25223
G1 X19.847 Y32.728 E14.2674
G1 X19.956 Y32.286 E14.28254
G1 X20.141 Y31.869 E14.29771
G1 X20.405 Y31.48 E14.31335
G1 X27.739 Y22.533 E14.69813
G0 F3600 X28.049 Y22.786
G1 F1200 X28.344 Y22.489 E14.71205
G1 X28.69 Y22.253 E14.72598
G1 X29.075 Y22.087 E14.73992
G1 X29.484 Y21.997 E14.75385
G1 X29.781 Y21.981 E14.76375
G1 X39.497 Y22.119 E15.08693
G1 X44.479 Y21.984 E15.2527
G1 X44.842 Y22.004 E15.26479
G1 X45.086 Y22.038 E15.27298
G1 X45.493 Y22.135 E15.2869
G1 X45.875 Y22.308 E15.30085
G1 X46.217 Y22.55 E15.31478
G1 X46.487 Y22.827 E15.32765
G1 X53.655 Y31.623 E15.70504
G1 X53.962 Y32.122 E15.72453
G1 X54.055 Y32.332 E15.73217
G1 X54.187 Y32.73 E15.74611
G1 X54.242 Y33.145 E15.76004
G1 X54.197 Y33.668 E15.7775
G1 X52.706 Y40.882 E16.02251
G1 X52.651 Y41.097 E16.02989
G1 X51.896 Y43.499 E16.11363
G1 X51.804 Y43.739 E16.12218
G1 X51.357 Y44.736 E16.15852
G1 X51.202 Y45.024 E16.1694
G1 X49.42 Y47.802 E16.27917
G1 X49.11 Y48.183 E16.29551
G1 X47.748 Y49.521 E16.35901
G1 X47.573 Y49.676 E16.36679
G1 X45.855 Y51.038 E16.43971
G1 X45.525 Y51.254 E16.45282
G1 X44.103 Y52.014 E16.50645
G1 X43.954 Y52.087 E16.51197
G1 X42.428 Y52.76 E16.56744
G1 X42.045 Y52.888 E16.58087
G1 X39.981 Y53.375 E16.65141
G1 X39.761 Y53.415 E16.65884
G1 X37.885 Y53.66 E16.72177
G1 X37.476 Y53.676 E16.73538
G1 X35.379 Y53.558 E16.80524
G1 X35.069 Y53.518 E16.81564
G1 X33.212 Y53.144 E16.87864
G1 X32.877 Y53.048 E16.89023
G1 X31.296 Y52.458 E16.94636
G1 X31.089 Y52.369 E16.95385
G1 X29.143 Y51.406 E17.02607
G1 X28.805 Y51.199 E17.03925
G1 X27.495 Y50.224 E17.09356
G1 X27.358 Y50.113 E17.09943
G1 X25.924 Y48.855 E17.16288
G1 X25.592 Y48.49 E17.17929
G1 X23.642 Y45.793 E17.28998
G1 X23.472 Y45.516 E17.30079
G1 X22.998 Y44.601 E17.33506
G1 X22.904 Y44.396 E17.34257
G1 X22.388 Y43.087 E17.38936
G1 X22.331 Y42.924 E17.39511
G1 X21.767 Y41.082 E17.45918
G1 X21.713 Y40.867 E17.46655
G1 X20.258 Y33.557 E17.71445
G1 X20.216 Y33.141 E17.72836
G1 X20.254 Y32.723 E17.74232
G1 X20.37 Y32.321 E17.75624
G1 X20.56 Y31.947 E17.77019
G1 X20.715 Y31.733 E17.77898
G1 X28.049 Y22.786 E18.16376
G0 F3600 X28.358 Y23.04
G1 F1200 X28.628 Y22.774 E18.17636
G1 X28.947 Y22.57 E18.18896
G1 X29.302 Y22.438 E18.20155
G1 X29.775 Y22.381 E18.2174
G1 X39.502 Y22.519 E18.54095
G1 X44.489 Y22.384 E18.70688
G1 X44.786 Y22.4 E18.71677
G1 X45.03 Y22.434 E18.72497
G1 X45.398 Y22.526 E18.73758
G1 X45.739 Y22.692 E18.7502
G1 X46.037 Y22.926 E18.7628
G1 X46.177 Y23.08 E18.76972
G1 X53.345 Y31.876 E19.14712
G1 X53.596 Y32.284 E19.16305
G1 X53.689 Y32.494 E19.17069
G1 X53.805 Y32.855 E19.1833
G1 X53.843 Y33.232 E19.1959
G1 X53.806 Y33.587 E19.20778
G1 X52.315 Y40.801 E19.45279
G1 X52.269 Y40.977 E19.45884
G1 X51.514 Y43.379 E19.54258
G1 X51.439 Y43.575 E19.54956
G1 X50.992 Y44.572 E19.5859
G1 X50.865 Y44.808 E19.59482
G1 X49.083 Y47.586 E19.70459
G1 X48.829 Y47.898 E19.71797
G1 X47.467 Y49.236 E19.78147
G1 X47.324 Y49.363 E19.78783
G1 X45.606 Y50.725 E19.86075
G1 X45.336 Y50.901 E19.87147
G1 X43.914 Y51.661 E19.9251
G1 X43.792 Y51.721 E19.92962
G1 X42.266 Y52.394 E19.98509
G1 X41.953 Y52.499 E19.99607
G1 X39.889 Y52.986 E20.06661
G1 X39.709 Y53.019 E20.07269
G1 X37.833 Y53.264 E20.13562
G1 X37.499 Y53.276 E20.14674
G1 X35.402 Y53.158 E20.21659
G1 X35.148 Y53.126 E20.22511
G1 X33.291 Y52.752 E20.28811
G1 X33.017 Y52.673 E20.2976
G1 X31.436 Y52.083 E20.35372
G1 X31.267 Y52.01 E20.35984
G1 X29.321 Y51.047 E20.43206
G1 X29.044 Y50.878 E20.44285
G1 X27.734 Y49.903 E20.49717
G1 X27.622 Y49.812 E20.50197
G1 X26.188 Y48.554 E20.56541
G1 X25.916 Y48.256 E20.57883
G1 X23.966 Y45.559 E20.68953
G1 X23.827 Y45.332 E20.69838
G1 X23.353 Y44.417 E20.73265
G1 X23.276 Y44.249 E20.7388
G1 X22.76 Y42.94 E20.7856
G1 X22.714 Y42.807 E20.79028
G1 X22.15 Y40.965 E20.85435
G1 X22.106 Y40.789 E20.86039
G1 X20.651 Y33.479 E21.10829
G1 X20.616 Y33.102 E21.12088
G1 X20.662 Y32.726 E21.13348
G1 X20.785 Y32.367 E21.1461
G1 X21.024 Y31.987 E21.16103
G1 X28.358 Y23.04 E21.54581
G0 F3600 X28.667 Y23.293
G1 F1200 X28.908 Y23.062 E21.55691
G1 X29.197 Y22.895 E21.56802
G1 X29.518 Y22.8 E21.57915
G1 X29.77 Y22.781 E21.58755
G1 X39.507 Y22.919 E21.91144
G1 X44.5 Y22.784 E22.07757
G1 X44.731 Y22.796 E22.08526
G1 X44.975 Y22.83 E22.09346
G1 X45.298 Y22.916 E22.10457
G1 X45.592 Y23.075 E22.11569
G1 X45.867 Y23.333 E22.12823
G1 X53.035 Y32.129 E22.50563
G1 X53.23 Y32.446 E22.51801
G1 X53.323 Y32.656 E22.52565
G1 X53.421 Y32.976 E22.53678
G1 X53.44 Y33.309 E22.54787
G1 X53.414 Y33.506 E22.55448
G1 X51.923 Y40.72 E22.79949
G1 X51.888 Y40.857 E22.80419
G1 X51.133 Y43.259 E22.88794
G1 X51.074 Y43.412 E22.89339
G1 X50.627 Y44.409 E22.92973
G1 X50.528 Y44.592 E22.93665
G1 X48.746 Y47.37 E23.04643
G1 X48.549 Y47.613 E23.05683
G1 X47.187 Y48.951 E23.12033
G1 X47.076 Y49.049 E23.12526
G1 X45.358 Y50.411 E23.19818
G1 X45.148 Y50.549 E23.20653
G1 X43.726 Y51.309 E23.26016
G1 X43.631 Y51.355 E23.26367
G1 X42.105 Y52.028 E23.31914
G1 X41.862 Y52.11 E23.32767
G1 X39.798 Y52.597 E23.39821
G1 X39.657 Y52.622 E23.40297
G1 X37.781 Y52.867 E23.4659
G1 X37.521 Y52.877 E23.47455
G1 X35.424 Y52.759 E23.54441
G1 X35.227 Y52.733 E23.55102
G1 X33.37 Y52.359 E23.61402
G1 X33.157 Y52.299 E23.62138
G1 X31.576 Y51.709 E23.67751
G1 X31.444 Y51.652 E23.68229
G1 X29.498 Y50.689 E23.7545
G1 X29.283 Y50.557 E23.7629
G1 X27.973 Y49.582 E23.81721
G1 X27.886 Y49.511 E23.82094
G1 X26.452 Y48.253 E23.88439
G1 X26.24 Y48.021 E23.89484
G1 X24.29 Y45.324 E24.00554
G1 X24.182 Y45.148 E24.01241
G1 X23.708 Y44.233 E24.04668
G1 X23.649 Y44.102 E24.05146
G1 X23.133 Y42.793 E24.09826
G1 X23.096 Y42.69 E24.1019
G1 X22.532 Y40.848 E24.16597
G1 X22.498 Y40.711 E24.17066
G1 X21.043 Y33.401 E24.41857
G1 X21.017 Y33.068 E24.42967
G1 X21.071 Y32.739 E24.44076
G1 X21.202 Y32.431 E24.4519
G1 X21.333 Y32.24 E24.4596
G1 X28.667 Y23.293 E24.84438
G0 F3600 X28.977 Y23.547
G1 F1200 X29.184 Y23.356 E24.85375
G1 X29.437 Y23.231 E24.86313
G1 X29.764 Y23.181 E24.87413
G1 X39.488 Y23.319 E25.19759
G1 X44.511 Y23.183 E25.36472
G1 X44.676 Y23.193 E25.37021
G1 X44.92 Y23.227 E25.37841
G1 X45.191 Y23.305 E25.38779
G1 X45.43 Y23.455 E25.39717
G1 X45.557 Y23.585 E25.40322
G1 X52.725 Y32.381 E25.78061
G1 X52.864 Y32.608 E25.78947
G1 X52.957 Y32.818 E25.7971
G1 X53.034 Y33.09 E25.80651
G1 X53.022 Y33.425 E25.81766
G1 X51.531 Y40.639 E26.06267
G1 X51.506 Y40.737 E26.06603
G1 X50.751 Y43.139 E26.14977
G1 X50.709 Y43.248 E26.15366
G1 X50.262 Y44.245 E26.19
G1 X50.192 Y44.376 E26.19494
G1 X48.41 Y47.154 E26.30471
G1 X48.269 Y47.327 E26.31214
G1 X46.907 Y48.665 E26.37564
G1 X46.827 Y48.736 E26.3792
G1 X45.109 Y50.098 E26.45211
G1 X44.959 Y50.196 E26.45807
G1 X43.537 Y50.956 E26.5117
G1 X43.47 Y50.989 E26.51419
G1 X41.944 Y51.662 E26.56966
G1 X41.77 Y51.72 E26.57576
G1 X39.706 Y52.207 E26.64629
G1 X39.605 Y52.226 E26.64971
G1 X37.729 Y52.471 E26.71264
G1 X37.544 Y52.477 E26.71879
G1 X35.447 Y52.359 E26.78865
G1 X35.306 Y52.341 E26.79338
G1 X33.449 Y51.967 E26.85638
G1 X33.296 Y51.924 E26.86167
G1 X31.715 Y51.334 E26.91779
G1 X31.621 Y51.293 E26.9212
G1 X29.675 Y50.33 E26.99342
G1 X29.522 Y50.236 E26.99939
G1 X28.212 Y49.261 E27.05371
G1 X28.15 Y49.211 E27.05636
G1 X26.716 Y47.953 E27.1198
G1 X26.565 Y47.787 E27.12727
G1 X24.615 Y45.09 E27.23796
G1 X24.537 Y44.964 E27.24289
G1 X24.063 Y44.049 E27.27716
G1 X24.021 Y43.956 E27.28056
G1 X23.505 Y42.647 E27.32735
G1 X23.479 Y42.573 E27.32996
G1 X22.915 Y40.731 E27.39404
G1 X22.89 Y40.633 E27.3974
G1 X21.435 Y33.323 E27.6453
G1 X21.42 Y33.042 E27.65466
G1 X21.484 Y32.767 E27.66405
G1 X21.643 Y32.494 E27.67456
