;FLAVOR:Marlin
;TIME:2579
;Filament used: 2.74254m
;Layer height: 0.2
;Generated with Cura_SteamEngine 3.4.1
M190 S60
M104 S200
M109 S200
M82 ;absolute extrusion mode
G21 ;metric values
G90 ;absolute positioning
M82 ;set extruder to absolute mode
M107 ;start with the fan off
G28 X0 Y0 ;move X/Y to min endstops
G28 Z0 ;move Z to min endstops
G1 Z15.0 F9000 ;move the platform down 15mm
G92 E0 ;zero the extruded length
G1 F200 E3 ;extrude 3mm of feed stock
G92 E0 ;zero the extruded length again
G1 F9000
;Put printing message on LCD screen
M117 Printing...
G92 E0
G1 F1500 E-6.5
;LAYER_COUNT:170
;LAYER:0
M107
G0 F3600 X22.365 Y16.216 Z0.2
;TYPE:SKIRT
G1 F1500 E0
G1 F1800 X22.89 Y15.626 E0.02627
G1 X23.472 Y15.092 E0.05254
G1 X24.105 Y14.62 E0.0788
G1 X24.783 Y14.214 E0.10509
G1 X25.538 Y13.863 E0.13278
G1 X25.854 Y13.736 E0.1441
G1 X26.601 Y13.479 E0.17038
G1 X27.37 Y13.298 E0.19666
G1 X28.153 Y13.197 E0.22291
G1 X28.777 Y13.173 E0.24368
G1 X43.578 Y13.2 E0.73597
G1 X44.367 Y13.241 E0.76225
G1 X45.147 Y13.362 E0.7885
G1 X45.911 Y13.562 E0.81477
G1 X46.651 Y13.837 E0.84102
G1 X47.377 Y14.195 E0.86795
G1 X47.518 Y14.274 E0.87332
G1 X48.186 Y14.695 E0.89958
G1 X48.809 Y15.18 E0.92584
G1 X49.379 Y15.727 E0.95212
G1 X49.784 Y16.192 E0.97263
G1 X56.949 Y25.105 E1.35299
G1 X57.412 Y25.745 E1.37926
G1 X57.808 Y26.428 E1.40552
G1 X58.133 Y27.148 E1.43179
G1 X58.383 Y27.897 E1.45805
G1 X58.557 Y28.667 E1.48431
G1 X58.636 Y29.27 E1.50454
G1 X58.652 Y29.442 E1.51028
G1 X58.686 Y30.231 E1.53655
G1 X58.639 Y31.019 E1.56281
G1 X58.515 Y31.79 E1.58878
G1 X55.988 Y43.647 E1.992
G1 X55.799 Y44.364 E2.01666
G1 X55.304 Y45.936 E2.07148
G1 X54.947 Y46.86 E2.10443
G1 X54.258 Y48.354 E2.15915
G1 X53.784 Y49.229 E2.19224
G1 X52.911 Y50.622 E2.24692
G1 X52.333 Y51.426 E2.27986
G1 X51.298 Y52.688 E2.33414
G1 X50.622 Y53.413 E2.36711
G1 X49.436 Y54.533 E2.42137
G1 X48.667 Y55.171 E2.4546
G1 X47.356 Y56.124 E2.50851
G1 X46.525 Y56.652 E2.54125
G1 X45.103 Y57.433 E2.59521
G1 X44.173 Y57.866 E2.62933
G1 X42.67 Y58.45 E2.68297
G1 X41.725 Y58.75 E2.71594
G1 X40.163 Y59.138 E2.76947
G1 X39.163 Y59.318 E2.80327
G1 X37.561 Y59.5 E2.85689
G1 X36.545 Y59.549 E2.89073
G1 X34.938 Y59.521 E2.94418
G1 X33.932 Y59.438 E2.97776
G1 X32.338 Y59.202 E3.03135
G1 X31.365 Y58.994 E3.06444
G1 X29.814 Y58.557 E3.11804
G1 X28.844 Y58.213 E3.15227
G1 X27.358 Y57.573 E3.20608
G1 X26.47 Y57.122 E3.23921
G1 X25.076 Y56.297 E3.29308
G1 X24.237 Y55.723 E3.3269
G1 X22.956 Y54.719 E3.38103
G1 X22.226 Y54.069 E3.41354
G1 X21.078 Y52.91 E3.4678
G1 X20.424 Y52.159 E3.50092
G1 X19.429 Y50.858 E3.55539
G1 X18.876 Y50.031 E3.58848
G1 X18.052 Y48.609 E3.64315
G1 X17.614 Y47.728 E3.67587
G1 X16.974 Y46.21 E3.73066
G1 X16.646 Y45.27 E3.76378
G1 X16.204 Y43.681 E3.81863
G1 X16.082 Y43.18 E3.83578
G1 X13.669 Y31.581 E4.22983
G1 X13.548 Y30.8 E4.25611
G1 X13.506 Y30.012 E4.28236
G1 X13.544 Y29.223 E4.30863
G1 X13.662 Y28.442 E4.3349
G1 X13.857 Y27.677 E4.36116
G1 X14.13 Y26.936 E4.38743
G1 X14.475 Y26.226 E4.41368
G1 X14.891 Y25.555 E4.43994
G1 X15.224 Y25.108 E4.45848
G1 X22.365 Y16.216 E4.83779
G0 F3600 X22.677 Y16.466
G1 F1800 X23.189 Y15.893 E4.86335
G1 X23.758 Y15.375 E4.88894
G1 X24.378 Y14.919 E4.91454
G1 X25.041 Y14.53 E4.94011
G1 X25.687 Y14.234 E4.96374
G1 X26.003 Y14.107 E4.97507
G1 X26.731 Y13.857 E5.00067
G1 X27.481 Y13.685 E5.02626
G1 X28.244 Y13.591 E5.05183
G1 X28.776 Y13.573 E5.06954
G1 X43.577 Y13.6 E5.56182
G1 X44.346 Y13.641 E5.58743
G1 X45.105 Y13.762 E5.613
G1 X45.848 Y13.961 E5.63858
G1 X46.566 Y14.236 E5.66415
G1 X47.181 Y14.544 E5.68703
G1 X47.322 Y14.623 E5.69241
G1 X47.973 Y15.034 E5.71801
G1 X48.577 Y15.509 E5.74357
G1 X49.129 Y16.045 E5.76916
G1 X49.472 Y16.443 E5.78664
G1 X56.637 Y25.356 E6.16699
G1 X57.088 Y25.979 E6.19257
G1 X57.471 Y26.646 E6.21816
G1 X57.782 Y27.35 E6.24375
G1 X58.019 Y28.081 E6.26931
G1 X58.179 Y28.834 E6.29492
G1 X58.238 Y29.307 E6.31077
G1 X58.254 Y29.479 E6.31652
G1 X58.286 Y30.247 E6.34208
G1 X58.237 Y31.015 E6.36768
G1 X58.123 Y31.706 E6.39097
G1 X55.596 Y43.563 E6.79419
G1 X55.417 Y44.244 E6.81761
G1 X54.922 Y45.816 E6.87243
G1 X54.584 Y46.692 E6.90366
G1 X53.895 Y48.186 E6.95838
G1 X53.445 Y49.017 E6.98981
G1 X52.572 Y50.41 E7.04449
G1 X52.024 Y51.173 E7.07573
G1 X50.989 Y52.435 E7.13002
G1 X50.348 Y53.122 E7.16127
G1 X49.162 Y54.242 E7.21553
G1 X48.432 Y54.848 E7.24708
G1 X47.121 Y55.801 E7.30099
G1 X46.332 Y56.301 E7.33206
G1 X44.91 Y57.082 E7.38602
G1 X44.028 Y57.494 E7.41839
G1 X42.525 Y58.078 E7.47203
G1 X41.629 Y58.362 E7.50329
G1 X40.067 Y58.75 E7.55682
G1 X39.118 Y58.921 E7.58889
G1 X37.516 Y59.103 E7.64252
G1 X36.552 Y59.149 E7.67462
G1 X34.945 Y59.121 E7.72807
G1 X33.99 Y59.042 E7.75994
G1 X32.396 Y58.806 E7.81354
G1 X31.473 Y58.609 E7.84493
G1 X29.922 Y58.172 E7.89852
G1 X29.002 Y57.845 E7.931
G1 X27.516 Y57.205 E7.98481
G1 X26.674 Y56.777 E8.01623
G1 X25.28 Y55.952 E8.0701
G1 X24.484 Y55.408 E8.10217
G1 X23.203 Y54.404 E8.1563
G1 X22.511 Y53.788 E8.18712
G1 X21.363 Y52.629 E8.24138
G1 X20.742 Y51.916 E8.27282
G1 X19.747 Y50.615 E8.3273
G1 X19.222 Y49.83 E8.35871
G1 X18.398 Y48.408 E8.41337
G1 X17.982 Y47.573 E8.4444
G1 X17.342 Y46.055 E8.49919
G1 X17.032 Y45.163 E8.5306
G1 X16.59 Y43.574 E8.58546
G1 X16.474 Y43.098 E8.60175
G1 X14.061 Y31.499 E8.9958
G1 X13.944 Y30.739 E9.02137
G1 X13.906 Y29.971 E9.04695
G1 X13.948 Y29.203 E9.07253
G1 X14.07 Y28.443 E9.09813
G1 X14.27 Y27.701 E9.12369
G1 X14.546 Y26.983 E9.14928
G1 X14.894 Y26.297 E9.17486
G1 X15.536 Y25.358 E9.21269
G1 X22.677 Y16.466 E9.59201
G0 F3600 X22.989 Y16.717
G1 F1800 X23.488 Y16.159 E9.61691
G1 X24.044 Y15.659 E9.64178
G1 X24.649 Y15.22 E9.66664
G1 X25.299 Y14.848 E9.69155
G1 X25.837 Y14.605 E9.71118
G1 X26.153 Y14.478 E9.72251
G1 X26.861 Y14.236 E9.74739
G1 X27.59 Y14.072 E9.77225
G1 X28.334 Y13.986 E9.79716
G1 X28.776 Y13.973 E9.81186
G1 X43.577 Y14 E10.30415
G1 X44.324 Y14.041 E10.32903
G1 X45.062 Y14.162 E10.35391
G1 X45.783 Y14.361 E10.37878
G1 X46.479 Y14.636 E10.40367
G1 X46.986 Y14.893 E10.42258
G1 X47.127 Y14.972 E10.42795
G1 X47.759 Y15.372 E10.45283
G1 X48.345 Y15.837 E10.47771
G1 X48.877 Y16.362 E10.50257
G1 X49.161 Y16.693 E10.51708
G1 X56.326 Y25.606 E10.89744
G1 X56.763 Y26.213 E10.92231
G1 X57.132 Y26.864 E10.9472
G1 X57.43 Y27.55 E10.97208
G1 X57.653 Y28.264 E10.99696
G1 X57.84 Y29.344 E11.03341
G1 X57.856 Y29.516 E11.03916
G1 X57.885 Y30.263 E11.06402
G1 X57.835 Y31.009 E11.08889
G1 X57.732 Y31.623 E11.1096
G1 X55.205 Y43.48 E11.51282
G1 X55.036 Y44.123 E11.53493
G1 X54.541 Y45.695 E11.58975
G1 X54.221 Y46.525 E11.61933
G1 X53.532 Y48.019 E11.67405
G1 X53.106 Y48.804 E11.70376
G1 X52.233 Y50.197 E11.75844
G1 X51.715 Y50.919 E11.78799
G1 X50.68 Y52.181 E11.84228
G1 X50.073 Y52.831 E11.87186
G1 X48.887 Y53.951 E11.92611
G1 X48.197 Y54.524 E11.95594
G1 X46.886 Y55.477 E12.00985
G1 X46.14 Y55.951 E12.03925
G1 X44.718 Y56.732 E12.09321
G1 X43.883 Y57.121 E12.12385
G1 X42.38 Y57.705 E12.17748
G1 X41.533 Y57.974 E12.20704
G1 X39.971 Y58.362 E12.26057
G1 X39.073 Y58.523 E12.29091
G1 X37.471 Y58.705 E12.34454
G1 X36.559 Y58.749 E12.37491
G1 X34.952 Y58.721 E12.42836
G1 X34.049 Y58.647 E12.4585
G1 X32.455 Y58.411 E12.51209
G1 X31.582 Y58.224 E12.54179
G1 X30.031 Y57.787 E12.59538
G1 X29.16 Y57.478 E12.62612
G1 X27.674 Y56.838 E12.67993
G1 X26.878 Y56.433 E12.70964
G1 X25.484 Y55.608 E12.76351
G1 X24.731 Y55.093 E12.79386
G1 X23.45 Y54.089 E12.84799
G1 X22.795 Y53.506 E12.87715
G1 X21.647 Y52.347 E12.93141
G1 X21.06 Y51.673 E12.96114
G1 X20.065 Y50.372 E13.01562
G1 X19.568 Y49.63 E13.04532
G1 X18.744 Y48.208 E13.09998
G1 X18.351 Y47.417 E13.12936
G1 X17.711 Y45.899 E13.18415
G1 X17.417 Y45.056 E13.21385
G1 X16.975 Y43.467 E13.2687
G1 X16.866 Y43.017 E13.2841
G1 X14.453 Y31.418 E13.67815
G1 X14.34 Y30.678 E13.70304
G1 X14.306 Y29.931 E13.72792
G1 X14.353 Y29.184 E13.75281
G1 X14.479 Y28.447 E13.77768
G1 X14.683 Y27.727 E13.80257
G1 X14.962 Y27.033 E13.82745
G1 X15.314 Y26.373 E13.85232
G1 X15.848 Y25.609 E13.88333
G1 X22.989 Y16.717 E14.26264
G0 F3600 X23.301 Y16.967
G1 F1800 X23.786 Y16.427 E14.28678
G1 X24.328 Y15.943 E14.31095
G1 X24.92 Y15.522 E14.33511
G1 X25.554 Y15.168 E14.35926
G1 X25.986 Y14.976 E14.37499
G1 X26.302 Y14.849 E14.38631
G1 X26.99 Y14.616 E14.41047
G1 X27.699 Y14.459 E14.43463
G1 X28.775 Y14.373 E14.47053
G1 X43.576 Y14.4 E14.96281
G1 X44.301 Y14.441 E14.98696
G1 X45.017 Y14.562 E15.01112
G1 X45.716 Y14.761 E15.03529
G1 X46.389 Y15.035 E15.05946
G1 X46.79 Y15.242 E15.07447
G1 X46.931 Y15.321 E15.07984
G1 X47.544 Y15.711 E15.10401
G1 X48.111 Y16.165 E15.12817
G1 X48.849 Y16.944 E15.16386
G1 X56.014 Y25.857 E15.54422
G1 X56.437 Y26.447 E15.56836
G1 X56.793 Y27.08 E15.59252
G1 X57.077 Y27.749 E15.61669
G1 X57.286 Y28.445 E15.64086
G1 X57.442 Y29.381 E15.67242
G1 X57.458 Y29.553 E15.67817
G1 X57.485 Y30.279 E15.70233
G1 X57.432 Y31.003 E15.72647
G1 X57.341 Y31.54 E15.74459
G1 X54.814 Y43.397 E16.14781
G1 X54.654 Y44.003 E16.16866
G1 X54.159 Y45.575 E16.22347
G1 X53.857 Y46.357 E16.25135
G1 X53.168 Y47.851 E16.30608
G1 X52.767 Y48.592 E16.3341
G1 X51.894 Y49.985 E16.38878
G1 X51.405 Y50.665 E16.41663
G1 X50.37 Y51.927 E16.47092
G1 X49.798 Y52.541 E16.49883
G1 X48.612 Y53.661 E16.55309
G1 X47.962 Y54.201 E16.58119
G1 X46.651 Y55.154 E16.6351
G1 X45.947 Y55.6 E16.66282
G1 X44.525 Y56.381 E16.71678
G1 X43.738 Y56.748 E16.74566
G1 X42.235 Y57.332 E16.79929
G1 X41.436 Y57.585 E16.82717
G1 X39.874 Y57.973 E16.8807
G1 X39.028 Y58.126 E16.90929
G1 X37.426 Y58.308 E16.96292
G1 X36.566 Y58.349 E16.99155
G1 X34.959 Y58.321 E17.04501
G1 X34.107 Y58.251 E17.07344
G1 X32.513 Y58.015 E17.12704
G1 X31.69 Y57.839 E17.15503
G1 X30.139 Y57.402 E17.20862
G1 X29.318 Y57.111 E17.2376
G1 X27.832 Y56.471 E17.29141
G1 X27.082 Y56.089 E17.3194
G1 X25.688 Y55.264 E17.37328
G1 X24.978 Y54.779 E17.40188
G1 X23.697 Y53.775 E17.45601
G1 X23.079 Y53.225 E17.48353
G1 X21.931 Y52.066 E17.53779
G1 X21.377 Y51.43 E17.56584
G1 X20.382 Y50.129 E17.62031
G1 X19.914 Y49.429 E17.64832
G1 X19.09 Y48.007 E17.70298
G1 X18.719 Y47.262 E17.73066
G1 X18.079 Y45.744 E17.78546
G1 X17.802 Y44.949 E17.81346
G1 X17.36 Y43.36 E17.86831
G1 X17.257 Y42.935 E17.88286
G1 X14.844 Y31.336 E18.2769
G1 X14.736 Y30.618 E18.30105
G1 X14.707 Y29.892 E18.32522
G1 X14.758 Y29.168 E18.34936
G1 X14.888 Y28.453 E18.37353
G1 X15.096 Y27.757 E18.39769
G1 X15.379 Y27.088 E18.42185
G1 X15.734 Y26.455 E18.44599
G1 X16.16 Y25.859 E18.47036
G1 X23.301 Y16.967 E18.84967
G0 F3600 X23.613 Y17.218
G1 F1800 X24.084 Y16.695 E18.87308
G1 X24.612 Y16.229 E18.8965
G1 X25.189 Y15.825 E18.91993
G1 X25.808 Y15.49 E18.94334
G1 X26.135 Y15.347 E18.95521
G1 X26.451 Y15.22 E18.96654
G1 X27.118 Y14.995 E18.98995
G1 X27.806 Y14.847 E19.01336
G1 X28.774 Y14.773 E19.04565
G1 X43.575 Y14.8 E19.53793
G1 X44.278 Y14.841 E19.56135
G1 X44.972 Y14.962 E19.58478
G1 X45.647 Y15.16 E19.60818
G1 X46.595 Y15.591 E19.64281
G1 X46.736 Y15.67 E19.64819
G1 X47.329 Y16.049 E19.6716
G1 X47.876 Y16.492 E19.69501
G1 X48.537 Y17.194 E19.72708
G1 X55.702 Y26.107 E20.10744
G1 X56.111 Y26.68 E20.13085
G1 X56.453 Y27.296 E20.15429
G1 X56.723 Y27.946 E20.1777
G1 X56.917 Y28.623 E20.20112
G1 X57.043 Y29.418 E20.22789
G1 X57.059 Y29.59 E20.23364
G1 X57.085 Y30.293 E20.25703
G1 X57.03 Y30.995 E20.28046
G1 X56.95 Y31.456 E20.29602
G1 X54.423 Y43.313 E20.69924
G1 X54.273 Y43.883 E20.71884
G1 X53.778 Y45.455 E20.77366
G1 X53.494 Y46.189 E20.79984
G1 X52.805 Y47.683 E20.85456
G1 X52.429 Y48.379 E20.88087
G1 X51.556 Y49.772 E20.93555
G1 X51.096 Y50.412 E20.96176
G1 X50.061 Y51.674 E21.01604
G1 X49.524 Y52.25 E21.04224
G1 X48.338 Y53.37 E21.09649
G1 X47.727 Y53.877 E21.1229
G1 X46.416 Y54.83 E21.17681
G1 X45.755 Y55.249 E21.20284
G1 X44.333 Y56.03 E21.2568
G1 X43.593 Y56.375 E21.28395
G1 X42.09 Y56.959 E21.33758
G1 X41.34 Y57.197 E21.36375
G1 X39.778 Y57.585 E21.41729
G1 X38.983 Y57.728 E21.44415
G1 X37.381 Y57.91 E21.49778
G1 X36.573 Y57.949 E21.52468
G1 X34.966 Y57.921 E21.57814
G1 X34.166 Y57.855 E21.60484
G1 X32.572 Y57.619 E21.65843
G1 X31.799 Y57.454 E21.68472
G1 X30.248 Y57.017 E21.73832
G1 X29.477 Y56.743 E21.76553
G1 X27.991 Y56.103 E21.81935
G1 X27.285 Y55.745 E21.84567
G1 X25.891 Y54.92 E21.89955
G1 X25.224 Y54.464 E21.92642
G1 X23.943 Y53.46 E21.98056
G1 X23.363 Y52.943 E22.0064
G1 X22.215 Y51.784 E22.06066
G1 X21.695 Y51.187 E22.08699
G1 X20.7 Y49.886 E22.14146
G1 X20.261 Y49.229 E22.16775
G1 X19.437 Y47.807 E22.22241
G1 X19.088 Y47.107 E22.24842
G1 X18.448 Y45.589 E22.30322
G1 X18.188 Y44.842 E22.32952
G1 X17.746 Y43.253 E22.38438
G1 X17.649 Y42.854 E22.39804
G1 X15.236 Y31.255 E22.79208
G1 X15.132 Y30.559 E22.81549
G1 X15.108 Y29.855 E22.83892
G1 X15.163 Y29.153 E22.86234
G1 X15.298 Y28.462 E22.88575
G1 X15.51 Y27.791 E22.90916
G1 X15.797 Y27.148 E22.93258
G1 X16.155 Y26.542 E22.95599
G1 X16.472 Y26.11 E22.97381
G1 X23.613 Y17.218 E23.35312
G0 F3600 X23.925 Y17.468
G1 F1800 X24.382 Y16.963 E23.37578
G1 X24.894 Y16.515 E23.39841
G1 X25.456 Y16.131 E23.42104
G1 X26.284 Y15.718 E23.45182
G1 X26.6 Y15.591 E23.46315
G1 X27.246 Y15.375 E23.4858
G1 X27.912 Y15.236 E23.50843
G1 X28.774 Y15.173 E23.53718
G1 X43.575 Y15.2 E24.02946
G1 X44.254 Y15.241 E24.05209
G1 X44.924 Y15.362 E24.07473
G1 X45.576 Y15.56 E24.09739
G1 X46.399 Y15.94 E24.12754
G1 X46.54 Y16.019 E24.13292
G1 X47.113 Y16.386 E24.15555
G1 X47.64 Y16.818 E24.17822
G1 X48.225 Y17.445 E24.20674
G1 X55.39 Y26.358 E24.5871
G1 X55.785 Y26.913 E24.60975
G1 X56.112 Y27.51 E24.63239
G1 X56.367 Y28.142 E24.65506
G1 X56.546 Y28.798 E24.67768
G1 X56.645 Y29.455 E24.69977
G1 X56.661 Y29.627 E24.70552
G1 X56.684 Y30.307 E24.72815
G1 X56.627 Y30.986 E24.75081
G1 X56.559 Y31.373 E24.76388
G1 X54.032 Y43.23 E25.1671
G1 X53.891 Y43.763 E25.18544
G1 X53.396 Y45.335 E25.24026
G1 X53.131 Y46.022 E25.26475
G1 X52.442 Y47.516 E25.31947
G1 X52.09 Y48.167 E25.34408
G1 X51.217 Y49.56 E25.39876
G1 X50.787 Y50.158 E25.42326
G1 X49.752 Y51.42 E25.47754
G1 X49.249 Y51.959 E25.50207
G1 X48.063 Y53.079 E25.55632
G1 X47.491 Y53.553 E25.58103
G1 X46.18 Y54.506 E25.63494
G1 X45.562 Y54.899 E25.6593
G1 X44.14 Y55.68 E25.71326
G1 X43.449 Y56.002 E25.73861
G1 X41.946 Y56.586 E25.79224
G1 X41.243 Y56.809 E25.81677
G1 X39.681 Y57.197 E25.8703
G1 X38.938 Y57.331 E25.89541
G1 X37.336 Y57.513 E25.94904
G1 X36.58 Y57.549 E25.97421
G1 X34.973 Y57.521 E26.02767
G1 X34.225 Y57.459 E26.05263
G1 X32.631 Y57.223 E26.10623
G1 X31.907 Y57.069 E26.13085
G1 X30.356 Y56.632 E26.18444
G1 X29.635 Y56.376 E26.20989
G1 X28.149 Y55.736 E26.2637
G1 X27.489 Y55.4 E26.28834
G1 X26.095 Y54.575 E26.34221
G1 X25.471 Y54.149 E26.36734
G1 X24.19 Y53.145 E26.42147
G1 X23.647 Y52.662 E26.44565
G1 X22.499 Y51.503 E26.4999
G1 X22.013 Y50.944 E26.52454
G1 X21.018 Y49.643 E26.57902
G1 X20.607 Y49.028 E26.60362
G1 X19.783 Y47.606 E26.65828
G1 X19.457 Y46.951 E26.68262
G1 X18.817 Y45.433 E26.73741
G1 X18.573 Y44.734 E26.76203
G1 X18.131 Y43.145 E26.81689
G1 X18.041 Y42.772 E26.82965
G1 X15.628 Y31.173 E27.2237
G1 X15.528 Y30.5 E27.24633
G1 X15.509 Y29.819 E27.26898
G1 X15.569 Y29.141 E27.29162
G1 X15.708 Y28.474 E27.31428
G1 X15.924 Y27.829 E27.33691
G1 X16.215 Y27.213 E27.35957
G1 X16.576 Y26.636 E27.3822
G1 X16.784 Y26.36 E27.3937
G1 X23.925 Y17.468 E27.77301
G0 F3600 X24.237 Y17.719
G1 F1800 X24.678 Y17.232 E27.79487
G1 X25.176 Y16.803 E27.81673
G1 X25.722 Y16.438 E27.83857
G1 X26.433 Y16.09 E27.8649
G1 X26.749 Y15.963 E27.87623
G1 X27.373 Y15.755 E27.8981
G1 X28.017 Y15.625 E27.91996
G1 X28.773 Y15.573 E27.94516
G1 X43.574 Y15.6 E28.43744
G1 X44.23 Y15.641 E28.4593
G1 X44.875 Y15.762 E28.48113
G1 X45.502 Y15.96 E28.503
G1 X46.203 Y16.289 E28.52876
G1 X46.344 Y16.368 E28.53413
G1 X46.897 Y16.723 E28.55599
G1 X47.402 Y17.143 E28.57784
G1 X47.914 Y17.696 E28.6029
G1 X55.079 Y26.609 E28.98326
G1 X55.458 Y27.145 E29.00509
G1 X55.77 Y27.723 E29.02694
G1 X56.009 Y28.335 E29.04879
G1 X56.173 Y28.971 E29.07064
G1 X56.247 Y29.492 E29.08814
G1 X56.263 Y29.664 E29.09388
G1 X56.284 Y30.32 E29.11571
G1 X56.167 Y31.29 E29.14821
G1 X53.64 Y43.147 E29.55143
G1 X53.51 Y43.643 E29.56849
G1 X53.015 Y45.215 E29.6233
G1 X52.768 Y45.854 E29.64609
