;FLAVOR:Marlin
;TIME:10296
;Filament used: 12.2738m
;Layer height: 0.3
;Generated with Cura_SteamEngine 3.6.0
M140 S60
M105
M190 S60
M104 S190
M105
M109 S190
M82 ;absolute extrusion mode
G21 ;metric values
G90 ;absolute positioning
M82 ;set extruder to absolute mode
M107 ;start with the fan off
G28 X0 Y0 ;move X/Y to min endstops
G28 Z0 ;move Z to min endstops
G1 Z15.0 F9000 ;move the platform down 15mm
G92 E0 ;zero the extruded length
G1 F200 E3 ;extrude 3mm of feed stock
G92 E0 ;zero the extruded length again
G1 F9000
;Put printing message on LCD screen
M117 Printing...
G92 E0
G1 F1500 E-3.5
;LAYER_COUNT:334
;LAYER:0
M107
G0 F3600 X67.37 Y67.71 Z0.3
;TYPE:SKIRT
G1 F1500 E0
G1 F1800 X67.721 Y67.369 E0.02441
G1 X68.123 Y67.09 E0.04883
G1 X68.478 Y66.914 E0.0686
G1 X103.809 Y52.246 E1.97714
G1 X104.275 Y52.096 E2.00156
G1 X104.759 Y52.024 E2.02597
G1 X105.248 Y52.031 E2.05037
G1 X105.73 Y52.118 E2.07481
G1 X106.105 Y52.244 E2.09454
G1 X141.461 Y66.855 E4.00315
G1 X141.896 Y67.079 E4.02756
G1 X142.29 Y67.37 E4.05199
G1 X142.631 Y67.721 E4.07641
G1 X142.91 Y68.123 E4.10082
G1 X143.086 Y68.478 E4.12059
G1 X157.754 Y103.809 E6.02913
G1 X157.904 Y104.275 E6.05355
G1 X157.976 Y104.759 E6.07797
G1 X157.969 Y105.248 E6.10236
G1 X157.882 Y105.73 E6.1268
G1 X157.756 Y106.105 E6.14654
G1 X143.145 Y141.461 E8.05514
G1 X142.921 Y141.896 E8.07955
G1 X142.63 Y142.29 E8.10399
G1 X142.279 Y142.631 E8.1284
G1 X141.877 Y142.91 E8.15282
G1 X141.522 Y143.086 E8.17258
G1 X106.191 Y157.754 E10.08112
G1 X105.725 Y157.904 E10.10555
G1 X105.241 Y157.976 E10.12996
G1 X104.752 Y157.969 E10.15436
G1 X104.27 Y157.882 E10.17879
G1 X103.895 Y157.756 E10.19853
G1 X68.539 Y143.145 E12.10713
G1 X68.104 Y142.921 E12.13155
G1 X67.71 Y142.63 E12.15598
G1 X67.369 Y142.279 E12.1804
G1 X67.09 Y141.877 E12.20481
G1 X66.914 Y141.522 E12.22458
G1 X52.246 Y106.191 E14.13312
G1 X52.096 Y105.725 E14.15754
G1 X52.024 Y105.241 E14.18195
G1 X52.031 Y104.752 E14.20635
G1 X52.118 Y104.27 E14.23079
G1 X52.244 Y103.895 E14.25053
G1 X66.855 Y68.539 E16.15913
G1 X67.079 Y68.104 E16.18354
G1 X67.37 Y67.71 E16.20798
G0 F3600 X67.713 Y67.926
G1 F1800 X68.049 Y67.619 E16.23068
G1 X68.631 Y67.284 E16.26419
G1 X103.962 Y52.616 E18.17273
G1 X104.397 Y52.479 E18.19548
G1 X104.848 Y52.419 E18.21818
G1 X105.304 Y52.44 E18.24095
G1 X105.952 Y52.614 E18.27443
G1 X141.308 Y67.225 E20.18303
G1 X141.712 Y67.435 E20.20575
G1 X142.074 Y67.713 E20.22852
G1 X142.381 Y68.049 E20.25122
G1 X142.716 Y68.631 E20.28473
G1 X157.384 Y103.962 E22.19327
G1 X157.521 Y104.397 E22.21602
G1 X157.581 Y104.848 E22.23872
G1 X157.56 Y105.304 E22.26149
G1 X157.386 Y105.952 E22.29497
G1 X142.775 Y141.308 E24.20357
G1 X142.565 Y141.712 E24.22629
G1 X142.287 Y142.074 E24.24906
G1 X141.951 Y142.381 E24.27176
G1 X141.369 Y142.716 E24.30527
G1 X106.038 Y157.384 E26.21381
G1 X105.603 Y157.521 E26.23656
G1 X105.152 Y157.581 E26.25926
G1 X104.696 Y157.56 E26.28203
G1 X104.048 Y157.386 E26.31551
G1 X68.692 Y142.775 E28.22411
G1 X68.288 Y142.565 E28.24683
G1 X67.926 Y142.287 E28.2696
G1 X67.619 Y141.951 E28.2923
G1 X67.284 Y141.369 E28.32581
G1 X52.616 Y106.038 E30.23435
G1 X52.479 Y105.603 E30.2571
G1 X52.419 Y105.152 E30.2798
G1 X52.44 Y104.696 E30.30257
G1 X52.614 Y104.048 E30.33605
G1 X67.225 Y68.692 E32.24465
G1 X67.435 Y68.288 E32.26737
G1 X67.713 Y67.926 E32.29014
G0 F3600 X68.054 Y68.148
G1 F1800 X68.374 Y67.878 E32.31103
G1 X68.784 Y67.653 E32.33436
G1 X104.115 Y52.985 E34.2429
G1 X104.516 Y52.862 E34.26382
G1 X104.933 Y52.817 E34.28475
G1 X105.35 Y52.852 E34.30563
G1 X105.799 Y52.984 E34.32897
G1 X141.155 Y67.595 E36.23758
G1 X141.526 Y67.791 E36.25851
G1 X141.852 Y68.054 E36.27941
G1 X142.122 Y68.374 E36.3003
G1 X142.347 Y68.784 E36.32363
G1 X157.015 Y104.115 E38.23217
G1 X157.138 Y104.516 E38.2531
G1 X157.183 Y104.933 E38.27402
G1 X157.148 Y105.35 E38.2949
G1 X157.016 Y105.799 E38.31825
G1 X142.405 Y141.155 E40.22685
G1 X142.209 Y141.526 E40.24778
G1 X141.946 Y141.852 E40.26868
G1 X141.626 Y142.122 E40.28957
G1 X141.216 Y142.347 E40.3129
G1 X105.885 Y157.015 E42.22144
G1 X105.484 Y157.138 E42.24237
G1 X105.067 Y157.183 E42.26329
G1 X104.65 Y157.148 E42.28417
G1 X104.201 Y157.016 E42.30752
G1 X68.845 Y142.405 E44.21612
G1 X68.474 Y142.209 E44.23706
G1 X68.148 Y141.946 E44.25795
G1 X67.878 Y141.626 E44.27884
G1 X67.653 Y141.216 E44.30217
G1 X52.985 Y105.885 E46.21071
G1 X52.862 Y105.484 E46.23164
G1 X52.817 Y105.067 E46.25257
G1 X52.852 Y104.65 E46.27344
G1 X52.984 Y104.201 E46.29679
G1 X67.595 Y68.845 E48.2054
G1 X67.791 Y68.474 E48.22633
G1 X68.054 Y68.148 E48.24723
G0 F3600 X68.392 Y68.377
G1 F1800 X68.693 Y68.147 E48.26613
G1 X68.938 Y68.023 E48.27982
G1 X104.269 Y53.355 E50.18836
G1 X104.632 Y53.247 E50.20726
G1 X105.01 Y53.218 E50.22617
G1 X105.386 Y53.268 E50.2451
G1 X105.646 Y53.353 E50.25874
G1 X141.002 Y67.964 E52.16735
G1 X141.336 Y68.145 E52.1863
G1 X141.623 Y68.392 E52.20519
G1 X141.853 Y68.693 E52.22409
G1 X141.977 Y68.938 E52.23779
G1 X156.645 Y104.269 E54.14633
G1 X156.753 Y104.632 E54.16522
G1 X156.782 Y105.01 E54.18414
G1 X156.732 Y105.386 E54.20306
G1 X156.647 Y105.646 E54.21671
G1 X142.036 Y141.002 E56.12531
G1 X141.855 Y141.336 E56.14427
G1 X141.608 Y141.623 E56.16316
G1 X141.307 Y141.853 E56.18206
G1 X141.062 Y141.977 E56.19576
G1 X105.731 Y156.645 E58.1043
G1 X105.368 Y156.753 E58.12319
G1 X104.99 Y156.782 E58.1421
G1 X104.614 Y156.732 E58.16103
G1 X104.354 Y156.647 E58.17468
G1 X68.998 Y142.036 E60.08328
G1 X68.664 Y141.855 E60.10223
G1 X68.377 Y141.608 E60.12112
G1 X68.147 Y141.307 E60.14002
G1 X68.023 Y141.062 E60.15372
G1 X53.355 Y105.731 E62.06226
G1 X53.247 Y105.368 E62.08116
G1 X53.218 Y104.99 E62.10007
G1 X53.268 Y104.614 E62.11899
G1 X53.353 Y104.354 E62.13264
G1 X67.964 Y68.998 E64.04124
G1 X68.145 Y68.664 E64.0602
G1 X68.392 Y68.377 E64.07909
G0 F3600 X68.498 Y68.859
G1 F1800 X68.726 Y68.615 E64.09575
G1 X69.091 Y68.392 E64.11709
G1 X104.422 Y53.724 E66.02563
G1 X104.744 Y53.634 E66.04231
G1 X105.078 Y53.622 E66.05898
G1 X105.494 Y53.723 E66.08034
G1 X140.85 Y68.334 E67.98894
G1 X141.141 Y68.498 E68.00561
G1 X141.385 Y68.726 E68.02227
G1 X141.608 Y69.091 E68.04361
G1 X156.276 Y104.422 E69.95215
G1 X156.366 Y104.744 E69.96883
G1 X156.378 Y105.078 E69.9855
G1 X156.277 Y105.494 E70.00686
G1 X141.666 Y140.85 E71.91546
G1 X141.502 Y141.141 E71.93213
G1 X141.274 Y141.385 E71.94879
G1 X140.909 Y141.608 E71.97013
G1 X105.578 Y156.276 E73.87867
G1 X105.256 Y156.366 E73.89535
G1 X104.922 Y156.378 E73.91202
G1 X104.506 Y156.277 E73.93338
G1 X69.15 Y141.666 E75.84199
G1 X68.859 Y141.502 E75.85865
G1 X68.615 Y141.274 E75.87531
G1 X68.392 Y140.909 E75.89665
G1 X53.724 Y105.578 E77.80519
G1 X53.634 Y105.256 E77.82187
G1 X53.622 Y104.922 E77.83854
G1 X53.723 Y104.506 E77.8599
G1 X68.334 Y69.15 E79.76851
G1 X68.498 Y68.859 E79.78517
G0 F3600 X68.847 Y69.06
G1 F1800 X69.053 Y68.867 E79.79925
G1 X69.245 Y68.761 E79.8102
G1 X104.576 Y54.093 E81.71874
G1 X104.849 Y54.023 E81.7328
G1 X105.131 Y54.032 E81.74687
G1 X105.341 Y54.093 E81.75778
G1 X140.697 Y68.704 E83.66639
G1 X140.94 Y68.847 E83.68045
G1 X141.133 Y69.053 E83.69454
G1 X141.239 Y69.245 E83.70548
G1 X155.907 Y104.576 E85.61402
G1 X155.977 Y104.849 E85.62808
G1 X155.968 Y105.131 E85.64215
G1 X155.907 Y105.341 E85.65306
G1 X141.296 Y140.697 E87.56167
G1 X141.153 Y140.94 E87.57573
G1 X140.947 Y141.133 E87.58982
G1 X140.755 Y141.239 E87.60076
G1 X105.424 Y155.907 E89.5093
G1 X105.151 Y155.977 E89.52336
G1 X104.869 Y155.968 E89.53744
G1 X104.659 Y155.907 E89.54835
G1 X69.303 Y141.296 E91.45695
G1 X69.06 Y141.153 E91.47102
G1 X68.867 Y140.947 E91.4851
G1 X68.761 Y140.755 E91.49604
G1 X54.093 Y105.424 E93.40458
G1 X54.023 Y105.151 E93.41864
G1 X54.032 Y104.869 E93.43272
G1 X54.093 Y104.659 E93.44363
G1 X68.704 Y69.303 E95.35223
G1 X68.847 Y69.06 E95.3663
G0 F3600 X69.192 Y69.273
G1 F1800 X69.398 Y69.131 E95.37878
G1 X104.729 Y54.463 E97.28732
G1 X104.942 Y54.417 E97.29819
G1 X105.188 Y54.462 E97.31067
G1 X140.544 Y69.073 E99.21927
G1 X140.727 Y69.192 E99.23016
G1 X140.869 Y69.398 E99.24265
G1 X155.537 Y104.729 E101.15119
G1 X155.583 Y104.942 E101.16206
G1 X155.538 Y105.188 E101.17453
G1 X140.927 Y140.544 E103.08314
G1 X140.808 Y140.727 E103.09403
G1 X140.602 Y140.869 E103.10651
G1 X105.271 Y155.537 E105.01505
G1 X105.058 Y155.583 E105.02592
G1 X104.812 Y155.538 E105.0384
G1 X69.456 Y140.927 E106.947
G1 X69.273 Y140.808 E106.95789
G1 X69.131 Y140.602 E106.97038
G1 X54.463 Y105.271 E108.87892
G1 X54.417 Y105.058 E108.88979
G1 X54.462 Y104.812 E108.90226
G1 X69.073 Y69.456 E110.81087
G1 X69.192 Y69.273 E110.82176
G0 F3600 X69.443 Y69.609
G1 F1800 X69.551 Y69.5 E110.82941
G1 X104.882 Y54.832 E112.73795
G1 X105.035 Y54.832 E112.74559
G1 X140.391 Y69.443 E114.65419
G1 X140.5 Y69.551 E114.66185
G1 X155.168 Y104.882 E116.57039
G1 X155.168 Y105.035 E116.57802
G1 X140.557 Y140.391 E118.48662
G1 X140.449 Y140.5 E118.49428
G1 X105.118 Y155.168 E120.40282
G1 X104.965 Y155.168 E120.41045
G1 X69.609 Y140.557 E122.31906
G1 X69.5 Y140.449 E122.32671
G1 X54.832 Y105.118 E124.23525
G1 X54.832 Y104.965 E124.24288
G1 X69.443 Y69.609 E126.15149
G1 F1500 E122.65149
;MESH:Pencil_holder.stl
G0 F3600 X70.118 Y70.118
G0 X139.826 Y70.174
G0 X140.202 Y69.798
;TYPE:WALL-OUTER
G1 F1500 E126.15149
G1 F1800 X154.783 Y105 E128.05242
G1 X140.202 Y140.202 E129.95335
G1 X105 Y154.783 E131.85428
G1 X69.798 Y140.202 E133.75522
G1 X55.217 Y105 E135.65615
G1 X69.798 Y69.798 E137.55708
G1 X105 Y55.217 E139.45801
G1 X140.202 Y69.798 E141.35894
G0 F3600 X140.278 Y69.982
G0 X139.896 Y70.104
;TYPE:WALL-INNER
G1 F1800 X154.35 Y105 E143.24335
G1 X139.896 Y139.896 E145.12775
G1 X105 Y154.35 E147.01215
G1 X70.104 Y139.896 E148.89656
G1 X55.65 Y105 E150.78096
G1 X70.104 Y70.104 E152.66536
G1 X105 Y55.65 E154.54977
G1 X139.896 Y70.104 E156.43417
G0 F3600 X139.597 Y70.403
;TYPE:SKIN
G1 F1800 X153.927 Y105 E158.30242
G1 X139.597 Y139.597 E160.17068
G1 X105 Y153.927 E162.03893
G1 X70.403 Y139.597 E163.90719
G1 X56.073 Y105 E165.77544
G1 X70.403 Y70.403 E167.64369
G1 X105 Y56.073 E169.51195
G1 X139.597 Y70.403 E171.3802
G0 F3600 X139.79 Y71.342
G1 F1800 X138.657 Y70.209 E171.46014
G1 X138.587 Y70.139
G0 F3600 X137.691 Y69.809
G1 F1800 X140.19 Y72.308 E171.63646
G1 X140.26 Y72.378
G0 F3600 X140.59 Y73.273
G1 F1800 X136.726 Y69.409 E171.90909
G1 X136.656 Y69.339
G0 F3600 X135.76 Y69.009
G1 F1800 X140.99 Y74.239 E172.27809
G1 X141.06 Y74.309
G0 F3600 X141.39 Y75.205
G1 F1800 X134.794 Y68.609 E172.74347
G1 X134.724 Y68.539
G0 F3600 X133.829 Y68.209
G1 F1800 X141.79 Y76.17 E173.30517
G1 X141.86 Y76.24
G0 F3600 X142.19 Y77.136
G1 F1800 X132.863 Y67.809 E173.96324
G1 X132.793 Y67.739
G0 F3600 X131.898 Y67.409
G1 F1800 X142.59 Y78.102 E174.71765
G1 X142.66 Y78.172
G0 F3600 X142.99 Y79.067
G1 F1800 X130.932 Y67.009 E175.56841
G1 X130.862 Y66.939
G0 F3600 X129.966 Y66.609
G1 F1800 X143.39 Y80.033 E176.51554
G1 X143.46 Y80.103
G0 F3600 X143.79 Y80.999
G1 F1800 X129.001 Y66.209 E177.55902
G1 X128.931 Y66.139
G0 F3600 X128.035 Y65.809
G1 F1800 X144.19 Y81.964 E178.69884
G1 X144.26 Y82.034
G0 F3600 X144.59 Y82.93
G1 F1800 X127.069 Y65.409 E179.93504
G1 X126.999 Y65.339
G0 F3600 X126.104 Y65.009
G1 F1800 X144.99 Y83.896 E181.26759
G1 X145.06 Y83.966
G0 F3600 X145.39 Y84.862
G1 F1800 X125.138 Y64.609 E182.69651
G1 X125.068 Y64.539
G0 F3600 X124.172 Y64.209
G1 F1800 X145.79 Y85.827 E184.22178
G1 X145.86 Y85.897
G0 F3600 X146.19 Y86.793
G1 F1800 X123.206 Y63.81 E185.84339
G1 X123.136 Y63.74
G0 F3600 X122.241 Y63.409
G1 F1800 X146.59 Y87.759 E187.56138
G1 X146.66 Y87.829
G0 F3600 X146.99 Y88.724
G1 F1800 X121.275 Y63.009 E189.37571
G1 X121.205 Y62.939
G0 F3600 X120.309 Y62.61
G1 F1800 X147.39 Y89.69 E191.28639
G1 X147.46 Y89.76
G0 F3600 X147.79 Y90.656
G1 F1800 X119.344 Y62.209 E193.29344
G1 X119.274 Y62.139
G0 F3600 X118.378 Y61.809
G1 F1800 X148.19 Y91.621 E195.39684
G1 X148.26 Y91.691
G0 F3600 X148.59 Y92.587
G1 F1800 X117.412 Y61.41 E197.59658
G1 X117.342 Y61.34
G0 F3600 X116.447 Y61.009
G1 F1800 X148.99 Y93.553 E199.8927
G1 X149.06 Y93.623
G0 F3600 X149.389 Y94.518
G1 F1800 X115.481 Y60.61 E202.28509
G1 X115.411 Y60.54
G0 F3600 X114.515 Y60.21
G1 F1800 X149.789 Y95.484 E204.77386
G1 X149.859 Y95.554
G0 F3600 X150.19 Y96.45
G1 F1800 X113.55 Y59.809 E207.35905
G1 X113.48 Y59.739
G0 F3600 X112.584 Y59.41
G1 F1800 X150.589 Y97.415 E210.04051
G1 X150.659 Y97.485
G0 F3600 X150.989 Y98.381
G1 F1800 X111.618 Y59.01 E212.81834
G1 X111.548 Y58.94
G0 F3600 X110.653 Y58.609
G1 F1800 X151.39 Y99.347 E215.69259
G1 X151.46 Y99.417
G0 F3600 X151.789 Y100.312
G1 F1800 X109.687 Y58.21 E218.66312
G1 X109.617 Y58.14
G0 F3600 X108.721 Y57.81
G1 F1800 X152.189 Y101.278 E221.73002
G1 X152.259 Y101.348
G0 F3600 X152.59 Y102.244
G1 F1800 X107.756 Y57.409 E224.89333
G1 X107.686 Y57.339
G0 F3600 X106.79 Y57.01
G1 F1800 X152.989 Y103.209 E228.15292
G1 X153.059 Y103.279
G0 F3600 X153.389 Y104.175
G1 F1800 X105.824 Y56.61 E231.50889
G1 X105.754 Y56.54
G0 F3600 X104.941 Y56.292
G1 F1800 X153.708 Y105.059 E234.94967
G0 F3600 X153.541 Y105.458
G1 F1800 X104.541 Y56.458 E238.40688
G0 F3600 X104.141 Y56.623
G1 F1800 X153.376 Y105.858 E241.88068
G0 F3600 X153.21 Y106.259
G1 F1800 X103.741 Y56.789 E245.37102
G0 F3600 X103.341 Y56.955
G1 F1800 X153.044 Y106.658 E248.87783
G0 F3600 X152.879 Y107.058
G1 F1800 X102.941 Y57.12 E252.40123
G0 F3600 X102.541 Y57.286
G1 F1800 X152.713 Y107.459 E255.94117
G0 F3600 X152.547 Y107.858
G1 F1800 X102.141 Y57.452 E259.49758
G0 F3600 X101.741 Y57.617
G1 F1800 X152.382 Y108.258 E263.07058
G0 F3600 X152.216 Y108.658
G1 F1800 X101.341 Y57.783 E266.66009
G0 F3600 X100.941 Y57.949
G1 F1800 X152.05 Y109.058 E270.2661
G0 F3600 X151.885 Y109.458
G1 F1800 X100.541 Y58.114 E273.8887
G0 F3600 X100.141 Y58.28
G1 F1800 X151.719 Y109.858 E277.5278
G0 F3600 X151.553 Y110.258
G1 F1800 X99.741 Y58.446 E281.18342
G0 F3600 X99.341 Y58.612
G1 F1800 X151.388 Y110.658 E284.85558
G0 F3600 X151.222 Y111.058
G1 F1800 X98.941 Y58.777 E288.54429
G0 F3600 X98.541 Y58.943
G1 F1800 X151.056 Y111.458 E292.24951
G0 F3600 X150.89 Y111.858
G1 F1800 X98.141 Y59.109 E295.97123
G0 F3600 X97.741 Y59.274
G1 F1800 X150.725 Y112.258 E299.70954
G0 F3600 X150.56 Y112.659
G1 F1800 X97.341 Y59.44 E303.46443
G0 F3600 X96.941 Y59.606
G1 F1800 X150.393 Y113.058 E307.23576
G0 F3600 X150.228 Y113.458
G1 F1800 X96.541 Y59.771 E311.02366
G0 F3600 X96.141 Y59.937
G1 F1800 X150.062 Y113.859 E314.82812
G0 F3600 X149.896 Y114.258
G1 F1800 X95.741 Y60.103 E318.64904
G0 F3600 X95.341 Y60.268
G1 F1800 X149.731 Y114.658 E322.48655
G0 F3600 X149.565 Y115.059
G1 F1800 X94.941 Y60.434 E326.34061
G0 F3600 X94.541 Y60.6
G1 F1800 X149.399 Y115.458 E330.21113
G0 F3600 X149.234 Y115.858
G1 F1800 X94.141 Y60.765 E334.09824
G0 F3600 X93.741 Y60.931
G1 F1800 X149.068 Y116.258 E338.00186
G0 F3600 X148.902 Y116.658
G1 F1800 X93.341 Y61.097 E341.92199
G0 F3600 X92.941 Y61.263
G1 F1800 X148.737 Y117.058 E345.85866
G0 F3600 X148.571 Y117.458
G1 F1800 X92.541 Y61.428 E349.81188
G0 F3600 X92.141 Y61.594
G1 F1800 X148.405 Y117.858 E353.78161
G0 F3600 X148.239 Y118.258
G1 F1800 X91.741 Y61.76 E357.76785
G0 F3600 X91.341 Y61.925
G1 F1800 X148.074 Y118.658 E361.77067
G0 F3600 X147.909 Y119.059
G1 F1800 X90.941 Y62.091 E365.79007
G0 F3600 X90.541 Y62.257
G1 F1800 X147.742 Y119.458 E369.82591
G0 F3600 X147.577 Y119.858
G1 F1800 X90.141 Y62.422 E373.87833
G0 F3600 X89.741 Y62.588
G1 F1800 X147.411 Y120.259 E377.9473
G0 F3600 X147.245 Y120.658
G1 F1800 X89.341 Y62.754 E382.03274
G0 F3600 X88.941 Y62.919
G1 F1800 X147.08 Y121.058 E386.13476
G0 F3600 X146.914 Y121.459
G1 F1800 X88.541 Y63.085 E390.25332
G0 F3600 X88.141 Y63.251
G1 F1800 X146.748 Y121.858 E394.38836
G0 F3600 X146.583 Y122.258
G1 F1800 X87.741 Y63.416 E398.53998
G0 F3600 X87.341 Y63.582
G1 F1800 X146.417 Y122.658 E402.70811
G0 F3600 X146.251 Y123.058
G1 F1800 X86.941 Y63.748 E406.89276
G0 F3600 X86.541 Y63.913
G1 F1800 X146.086 Y123.458 E411.09398
G0 F3600 X145.92 Y123.858
G1 F1800 X86.141 Y64.079 E415.31171
G0 F3600 X85.741 Y64.245
G1 F1800 X145.754 Y124.258 E419.54595
G0 F3600 X145.589 Y124.658
