;FLAVOR:Marlin
;TIME:8438
;Filament used: 7.94801m
;Layer height: 0.2
;Generated with Cura_SteamEngine 3.4.1
M190 S60
M104 S200
M109 S200
M82 ;absolute extrusion mode
G21 ;metric values
G90 ;absolute positioning
M82 ;set extruder to absolute mode
M107 ;start with the fan off
G28 X0 Y0 ;move X/Y to min endstops
G28 Z0 ;move Z to min endstops
G1 Z15.0 F9000 ;move the platform down 15mm
G92 E0 ;zero the extruded length
G1 F200 E3 ;extrude 3mm of feed stock
G92 E0 ;zero the extruded length again
G1 F9000
;Put printing message on LCD screen
M117 Printing...
G92 E0
G1 F1500 E-6.5
;LAYER_COUNT:71
;LAYER:0
M107
G0 F3600 X11.075 Y14.217 Z0.2
;TYPE:SKIRT
G1 F1500 E0
G1 F1800 X11.495 Y13.965 E0.01629
G1 X11.95 Y13.785 E0.03257
G1 X12.428 Y13.681 E0.04884
G1 X12.823 Y13.655 E0.062
G1 X42.089 Y13.655 E1.03539
G1 X42.577 Y13.695 E1.05168
G1 X43.052 Y13.814 E1.06797
G1 X43.112 Y13.84 E1.07014
G1 X43.25 Y13.785 E1.07508
G1 X43.728 Y13.681 E1.09135
G1 X44.123 Y13.655 E1.10452
G1 X73.389 Y13.655 E2.07791
G1 X73.877 Y13.695 E2.09419
G1 X74.352 Y13.814 E2.11048
G1 X74.364 Y13.819 E2.11091
G1 X74.45 Y13.785 E2.11399
G1 X74.928 Y13.681 E2.13026
G1 X75.323 Y13.655 E2.14343
G1 X104.589 Y13.655 E3.11682
G1 X105.077 Y13.695 E3.1331
G1 X105.552 Y13.814 E3.14939
G1 X106.001 Y14.008 E3.16566
G1 X106.413 Y14.273 E3.18195
G1 X106.71 Y14.534 E3.1951
G1 X106.827 Y14.651 E3.2006
G1 X107.144 Y15.024 E3.21688
G1 X107.396 Y15.444 E3.23318
G1 X107.576 Y15.899 E3.24945
G1 X107.68 Y16.377 E3.26572
G1 X107.706 Y16.772 E3.27889
G1 X107.706 Y19.584 E3.37241
G1 X107.963 Y19.879 E3.38543
G1 X108.121 Y20.116 E3.3949
G1 X108.496 Y20.742 E3.41917
G1 X108.712 Y21.181 E3.43544
G1 X108.843 Y21.602 E3.45011
G1 X108.999 Y22.27 E3.47293
G1 X109.078 Y22.95 E3.49569
G1 X109.095 Y54.991 E4.56138
G1 X109.055 Y55.479 E4.57767
G1 X108.999 Y55.692 E4.58499
G1 X109.001 Y55.711 E4.58563
G1 X108.989 Y87.643 E5.64769
G1 X108.902 Y88.359 E5.67168
G1 X108.686 Y89.237 E5.70175
G1 X108.531 Y89.701 E5.71802
G1 X108.317 Y90.11 E5.73338
G1 X107.977 Y90.654 E5.75471
G1 X107.706 Y91.019 E5.76983
G1 X107.706 Y93.938 E5.86692
G1 X107.666 Y94.426 E5.88321
G1 X107.547 Y94.901 E5.89949
G1 X107.353 Y95.35 E5.91576
G1 X107.088 Y95.762 E5.93205
G1 X106.827 Y96.059 E5.9452
G1 X106.71 Y96.176 E5.95071
G1 X106.337 Y96.493 E5.96699
G1 X105.917 Y96.745 E5.98328
G1 X105.462 Y96.925 E5.99955
G1 X104.984 Y97.029 E6.01582
G1 X104.589 Y97.055 E6.02899
G1 X75.323 Y97.055 E7.00238
G1 X74.835 Y97.015 E7.01867
G1 X74.36 Y96.896 E7.03495
G1 X74.348 Y96.891 E7.03539
G1 X74.262 Y96.925 E7.03846
G1 X73.784 Y97.029 E7.05473
G1 X73.389 Y97.055 E7.0679
G1 X44.123 Y97.055 E8.04129
G1 X43.635 Y97.015 E8.05758
G1 X43.16 Y96.896 E8.07386
G1 X43.1 Y96.87 E8.07604
G1 X42.962 Y96.925 E8.08098
G1 X42.484 Y97.029 E8.09725
G1 X42.089 Y97.055 E8.11041
G1 X12.823 Y97.055 E9.08381
G1 X12.335 Y97.015 E9.10009
G1 X11.86 Y96.896 E9.11638
G1 X11.411 Y96.702 E9.13265
G1 X10.999 Y96.437 E9.14894
G1 X10.702 Y96.176 E9.16209
G1 X10.585 Y96.059 E9.16759
G1 X10.268 Y95.686 E9.18387
G1 X10.016 Y95.266 E9.20016
G1 X9.836 Y94.811 E9.21644
G1 X9.732 Y94.333 E9.23271
G1 X9.706 Y93.938 E9.24588
G1 X9.706 Y91.121 E9.33957
G1 X9.51 Y90.91 E9.34915
G1 X9.289 Y90.59 E9.36208
G1 X8.915 Y89.964 E9.38634
G1 X8.699 Y89.524 E9.40264
G1 X8.568 Y89.106 E9.41721
G1 X8.412 Y88.437 E9.44006
G1 X8.334 Y87.758 E9.46279
G1 X8.317 Y55.719 E10.52841
G1 X8.357 Y55.231 E10.5447
G1 X8.414 Y55.02 E10.55197
G1 X8.411 Y54.998 E10.5527
G1 X8.423 Y23.066 E11.61477
G1 X8.51 Y22.348 E11.63882
G1 X8.727 Y21.469 E11.66894
G1 X8.883 Y21.005 E11.68522
G1 X9.097 Y20.597 E11.70054
G1 X9.436 Y20.055 E11.7218
G1 X9.706 Y19.693 E11.73682
G1 X9.706 Y16.772 E11.83398
G1 X9.746 Y16.284 E11.85026
G1 X9.865 Y15.809 E11.86655
G1 X10.059 Y15.36 E11.88282
G1 X10.324 Y14.948 E11.89911
G1 X10.585 Y14.651 E11.91226
G1 X10.702 Y14.534 E11.91776
G1 X11.075 Y14.217 E11.93404
G0 F3600 X11.334 Y14.524
G1 F1800 X11.729 Y14.297 E11.9492
G1 X12.157 Y14.142 E11.96434
G1 X12.823 Y14.055 E11.98668
G1 X42.089 Y14.055 E12.96007
G1 X42.543 Y14.095 E12.97523
G1 X42.983 Y14.213 E12.99038
G1 X43.104 Y14.27 E12.99483
G1 X43.457 Y14.142 E13.00732
G1 X44.123 Y14.055 E13.02966
G1 X73.389 Y14.055 E14.00305
G1 X73.843 Y14.095 E14.0182
G1 X74.283 Y14.213 E14.03336
G1 X74.36 Y14.249 E14.03618
G1 X74.657 Y14.142 E14.04668
G1 X75.323 Y14.055 E14.06902
G1 X104.589 Y14.055 E15.04241
G1 X105.043 Y14.095 E15.05757
G1 X105.483 Y14.213 E15.07272
G1 X105.895 Y14.407 E15.08787
G1 X106.427 Y14.817 E15.11021
G1 X106.544 Y14.934 E15.11571
G1 X106.837 Y15.283 E15.13087
G1 X107.064 Y15.678 E15.14602
G1 X107.219 Y16.106 E15.16116
G1 X107.306 Y16.772 E15.1835
G1 X107.306 Y19.753 E15.28265
G1 X107.384 Y19.818 E15.28603
G1 X107.777 Y20.322 E15.30728
G1 X108.152 Y20.948 E15.33155
G1 X108.351 Y21.358 E15.34671
G1 X108.454 Y21.693 E15.35837
G1 X108.61 Y22.361 E15.38119
G1 X108.678 Y22.951 E15.40094
G1 X108.695 Y54.992 E16.46663
G1 X108.655 Y55.446 E16.48179
G1 X108.596 Y55.664 E16.4893
G1 X108.601 Y55.711 E16.49087
G1 X108.589 Y87.643 E17.55293
G1 X108.514 Y88.263 E17.5737
G1 X108.298 Y89.141 E17.60378
G1 X108.151 Y89.572 E17.61892
G1 X107.978 Y89.898 E17.6312
G1 X107.638 Y90.442 E17.65253
G1 X107.306 Y90.847 E17.66995
G1 X107.306 Y93.938 E17.77276
G1 X107.266 Y94.392 E17.78792
G1 X107.148 Y94.832 E17.80307
G1 X106.954 Y95.244 E17.81822
G1 X106.544 Y95.776 E17.84056
G1 X106.427 Y95.893 E17.84606
G1 X106.078 Y96.186 E17.86121
G1 X105.683 Y96.413 E17.87637
G1 X105.255 Y96.568 E17.89151
G1 X104.589 Y96.655 E17.91385
G1 X75.323 Y96.655 E18.88724
G1 X74.869 Y96.615 E18.9024
G1 X74.429 Y96.497 E18.91755
G1 X74.352 Y96.461 E18.92038
G1 X74.055 Y96.568 E18.93088
G1 X73.389 Y96.655 E18.95321
G1 X44.123 Y96.655 E19.92661
G1 X43.669 Y96.615 E19.94176
G1 X43.229 Y96.497 E19.95692
G1 X43.108 Y96.44 E19.96136
G1 X42.755 Y96.568 E19.97385
G1 X42.089 Y96.655 E19.99619
G1 X12.823 Y96.655 E20.96958
G1 X12.369 Y96.615 E20.98474
G1 X11.929 Y96.497 E20.99989
G1 X11.517 Y96.303 E21.01504
G1 X10.985 Y95.893 E21.03738
G1 X10.868 Y95.776 E21.04288
G1 X10.575 Y95.427 E21.05804
G1 X10.348 Y95.032 E21.07319
G1 X10.193 Y94.604 E21.08833
G1 X10.106 Y93.938 E21.11067
G1 X10.106 Y90.965 E21.20955
G1 X9.804 Y90.638 E21.22436
G1 X9.632 Y90.384 E21.23456
G1 X9.258 Y89.758 E21.25882
G1 X9.059 Y89.348 E21.27397
G1 X8.958 Y89.015 E21.28555
G1 X8.802 Y88.346 E21.3084
G1 X8.734 Y87.757 E21.32812
G1 X8.717 Y55.718 E22.39374
G1 X8.757 Y55.264 E22.4089
G1 X8.817 Y55.047 E22.41638
G1 X8.811 Y54.998 E22.41803
G1 X8.823 Y23.066 E23.48009
G1 X8.899 Y22.444 E23.50093
G1 X9.116 Y21.565 E23.53104
G1 X9.263 Y21.134 E23.54619
G1 X9.436 Y20.809 E23.55844
G1 X9.775 Y20.267 E23.5797
G1 X10.106 Y19.863 E23.59707
G1 X10.106 Y16.772 E23.69988
G1 X10.146 Y16.318 E23.71503
G1 X10.264 Y15.878 E23.73019
G1 X10.458 Y15.466 E23.74533
G1 X10.868 Y14.934 E23.76767
G1 X10.985 Y14.817 E23.77318
G1 X11.334 Y14.524 E23.78833
G0 F3600 X11.591 Y14.833
G1 F1800 X11.958 Y14.632 E23.80225
G1 X12.358 Y14.505 E23.81621
G1 X12.823 Y14.455 E23.83176
G1 X42.089 Y14.455 E24.80515
G1 X42.506 Y14.495 E24.81909
G1 X42.908 Y14.613 E24.83302
G1 X43.106 Y14.715 E24.84043
G1 X43.258 Y14.632 E24.84619
G1 X43.658 Y14.505 E24.86015
G1 X44.123 Y14.455 E24.8757
G1 X73.389 Y14.455 E25.84909
G1 X73.806 Y14.495 E25.86303
G1 X74.208 Y14.613 E25.87696
G1 X74.354 Y14.689 E25.88244
G1 X74.458 Y14.632 E25.88638
G1 X74.858 Y14.505 E25.90034
G1 X75.323 Y14.455 E25.91589
G1 X104.589 Y14.455 E26.88929
G1 X105.006 Y14.495 E26.90322
G1 X105.408 Y14.613 E26.91715
G1 X105.78 Y14.806 E26.93109
G1 X106.145 Y15.099 E26.94666
G1 X106.262 Y15.216 E26.95216
G1 X106.528 Y15.54 E26.96611
G1 X106.729 Y15.907 E26.98002
G1 X106.856 Y16.307 E26.99398
G1 X106.906 Y16.772 E27.00954
G1 X106.906 Y19.939 E27.11487
G1 X107.125 Y20.125 E27.12443
G1 X107.434 Y20.527 E27.14129
G1 X107.809 Y21.153 E27.16556
G1 X107.989 Y21.532 E27.17952
G1 X108.064 Y21.784 E27.18826
G1 X108.22 Y22.452 E27.21108
G1 X108.278 Y22.951 E27.22779
G1 X108.295 Y54.992 E28.29348
G1 X108.255 Y55.409 E28.30741
G1 X108.192 Y55.631 E28.31508
G1 X108.201 Y55.711 E28.31776
G1 X108.189 Y87.643 E29.37982
G1 X108.125 Y88.168 E29.39742
G1 X107.909 Y89.046 E29.42749
G1 X107.771 Y89.441 E29.4414
G1 X107.639 Y89.686 E29.45066
G1 X107.299 Y90.23 E29.472
G1 X106.942 Y90.665 E29.49071
G1 X106.906 Y90.699 E29.49236
G1 X106.906 Y93.938 E29.60009
G1 X106.866 Y94.355 E29.61402
G1 X106.748 Y94.757 E29.62796
G1 X106.555 Y95.129 E29.6419
G1 X106.262 Y95.494 E29.65747
G1 X106.145 Y95.611 E29.66297
G1 X105.821 Y95.877 E29.67691
G1 X105.454 Y96.078 E29.69083
G1 X105.054 Y96.205 E29.70479
G1 X104.589 Y96.255 E29.72034
G1 X75.323 Y96.255 E30.69373
G1 X74.906 Y96.215 E30.70767
G1 X74.504 Y96.097 E30.7216
G1 X74.358 Y96.021 E30.72708
G1 X74.254 Y96.078 E30.73102
G1 X73.854 Y96.205 E30.74498
G1 X73.389 Y96.255 E30.76053
G1 X44.123 Y96.255 E31.73392
G1 X43.706 Y96.215 E31.74786
G1 X43.304 Y96.097 E31.76179
G1 X43.106 Y95.995 E31.7692
G1 X42.954 Y96.078 E31.77496
G1 X42.554 Y96.205 E31.78892
G1 X42.089 Y96.255 E31.80447
G1 X12.823 Y96.255 E32.77787
G1 X12.406 Y96.215 E32.7918
G1 X12.004 Y96.097 E32.80573
G1 X11.632 Y95.904 E32.81967
G1 X11.267 Y95.611 E32.83524
G1 X11.15 Y95.494 E32.84074
G1 X10.884 Y95.17 E32.85469
G1 X10.683 Y94.803 E32.8686
G1 X10.556 Y94.403 E32.88256
G1 X10.506 Y93.938 E32.89812
G1 X10.506 Y90.79 E33.00282
G1 X10.382 Y90.677 E33.0084
G1 X10.101 Y90.367 E33.02232
G1 X9.975 Y90.179 E33.02984
G1 X9.601 Y89.553 E33.0541
G1 X9.422 Y89.175 E33.06801
G1 X9.347 Y88.925 E33.07669
G1 X9.191 Y88.256 E33.09954
G1 X9.134 Y87.757 E33.11624
G1 X9.117 Y55.718 E34.18186
G1 X9.157 Y55.301 E34.1958
G1 X9.22 Y55.079 E34.20347
G1 X9.211 Y54.998 E34.20618
G1 X9.223 Y23.066 E35.26824
G1 X9.287 Y22.54 E35.28587
G1 X9.504 Y21.661 E35.31598
G1 X9.643 Y21.265 E35.32994
G1 X9.775 Y21.021 E35.33917
G1 X10.114 Y20.479 E35.36043
G1 X10.47 Y20.045 E35.3791
G1 X10.506 Y20.011 E35.38075
G1 X10.506 Y16.772 E35.48848
G1 X10.546 Y16.355 E35.50241
G1 X10.664 Y15.953 E35.51634
G1 X10.857 Y15.581 E35.53028
G1 X11.15 Y15.216 E35.54585
G1 X11.267 Y15.099 E35.55135
G1 X11.591 Y14.833 E35.5653
G0 F3600 X11.845 Y15.144
G1 F1800 X12.183 Y14.973 E35.5779
G1 X12.549 Y14.876 E35.59049
G1 X12.823 Y14.855 E35.59963
G1 X42.089 Y14.855 E36.57302
G1 X42.466 Y14.895 E36.58563
G1 X42.826 Y15.013 E36.59823
G1 X43.106 Y15.176 E36.60901
G1 X43.145 Y15.144 E36.61068
G1 X43.483 Y14.973 E36.62328
G1 X43.849 Y14.876 E36.63588
G1 X44.123 Y14.855 E36.64502
G1 X73.389 Y14.855 E37.61841
G1 X73.766 Y14.895 E37.63102
G1 X74.126 Y15.013 E37.64362
G1 X74.348 Y15.142 E37.65216
G1 X74.683 Y14.973 E37.66464
G1 X75.049 Y14.876 E37.67723
G1 X75.323 Y14.855 E37.68637
G1 X104.589 Y14.855 E38.65976
G1 X104.966 Y14.895 E38.67237
G1 X105.326 Y15.013 E38.68497
G1 X105.653 Y15.203 E38.69755
G1 X105.862 Y15.382 E38.7067
G1 X105.979 Y15.499 E38.71221
G1 X106.217 Y15.794 E38.72481
G1 X106.388 Y16.132 E38.73741
G1 X106.485 Y16.498 E38.75001
G1 X106.506 Y16.772 E38.75915
G1 X106.506 Y20.132 E38.8709
G1 X106.577 Y20.182 E38.87379
G1 X106.863 Y20.43 E38.88638
G1 X107.091 Y20.733 E38.89899
G1 X107.466 Y21.359 E38.92326
G1 X107.675 Y21.875 E38.94178
G1 X107.831 Y22.543 E38.96459
G1 X107.878 Y22.951 E38.97825
G1 X107.895 Y54.992 E40.04394
G1 X107.855 Y55.369 E40.05655
G1 X107.79 Y55.594 E40.06434
G1 X107.801 Y55.711 E40.06825
G1 X107.789 Y87.643 E41.13031
G1 X107.737 Y88.072 E41.14468
G1 X107.521 Y88.95 E41.17476
G1 X107.392 Y89.306 E41.18735
G1 X107.299 Y89.474 E41.19374
G1 X106.959 Y90.018 E41.21508
G1 X106.667 Y90.374 E41.23039
G1 X106.506 Y90.526 E41.23775
G1 X106.506 Y93.938 E41.35124
G1 X106.466 Y94.315 E41.36385
G1 X106.348 Y94.675 E41.37645
G1 X106.158 Y95.002 E41.38903
G1 X105.979 Y95.211 E41.39818
G1 X105.862 Y95.328 E41.40368
G1 X105.567 Y95.566 E41.41629
G1 X105.229 Y95.737 E41.42889
G1 X104.863 Y95.834 E41.44148
G1 X104.589 Y95.855 E41.45062
G1 X75.323 Y95.855 E42.42401
G1 X74.946 Y95.815 E42.43662
G1 X74.586 Y95.697 E42.44922
G1 X74.364 Y95.568 E42.45776
G1 X74.029 Y95.737 E42.47024
G1 X73.663 Y95.834 E42.48283
G1 X73.389 Y95.855 E42.49197
G1 X44.123 Y95.855 E43.46537
G1 X43.746 Y95.815 E43.47798
G1 X43.386 Y95.697 E43.49058
G1 X43.106 Y95.534 E43.50135
G1 X43.067 Y95.566 E43.50303
G1 X42.729 Y95.737 E43.51563
G1 X42.363 Y95.834 E43.52822
G1 X42.089 Y95.855 E43.53736
G1 X12.823 Y95.855 E44.51075
G1 X12.446 Y95.815 E44.52336
G1 X12.086 Y95.697 E44.53596
G1 X11.759 Y95.507 E44.54854
G1 X11.55 Y95.328 E44.55769
G1 X11.433 Y95.211 E44.5632
G1 X11.195 Y94.916 E44.5758
G1 X11.024 Y94.578 E44.5884
G1 X10.927 Y94.212 E44.601
G1 X10.906 Y93.938 E44.61014
G1 X10.906 Y90.612 E44.72076
G1 X10.652 Y90.381 E44.73218
G1 X10.319 Y89.974 E44.74967
G1 X9.945 Y89.348 E44.77392
G1 X9.737 Y88.834 E44.79237
G1 X9.581 Y88.165 E44.81521
G1 X9.534 Y87.757 E44.82887
G1 X9.517 Y55.718 E45.89449
G1 X9.557 Y55.341 E45.9071
G1 X9.622 Y55.117 E45.91486
G1 X9.611 Y54.998 E45.91884
G1 X9.623 Y23.066 E46.9809
G1 X9.675 Y22.636 E46.99531
G1 X9.892 Y21.757 E47.02542
G1 X10.022 Y21.4 E47.03806
G1 X10.114 Y21.233 E47.0444
G1 X10.453 Y20.691 E47.06566
G1 X10.745 Y20.336 E47.08095
G1 X10.906 Y20.184 E47.08831
G1 X10.906 Y16.772 E47.2018
G1 X10.946 Y16.395 E47.21441
G1 X11.064 Y16.035 E47.22701
G1 X11.254 Y15.708 E47.23958
G1 X11.433 Y15.499 E47.24874
G1 X11.55 Y15.382 E47.25424
G1 X11.845 Y15.144 E47.26685
G0 F3600 X12.096 Y15.459
G1 F1800 X12.4 Y15.32 E47.27797
G1 X12.823 Y15.255 E47.2922
G1 X42.089 Y15.255 E48.26559
G1 X42.421 Y15.295 E48.27671
G1 X42.733 Y15.412 E48.2878
G1 X43.079 Y15.665 E48.30205
G1 X43.106 Y15.692 E48.30332
G1 X43.133 Y15.665 E48.30459
G1 X43.396 Y15.459 E48.3157
G1 X43.7 Y15.32 E48.32682
G1 X44.123 Y15.255 E48.34106
G1 X73.389 Y15.255 E49.31445
G1 X73.721 Y15.295 E49.32557
G1 X74.033 Y15.412 E49.33665
G1 X74.355 Y15.648 E49.34993
G1 X74.596 Y15.459 E49.36012
G1 X74.9 Y15.32 E49.37123
G1 X75.323 Y15.255 E49.38547
G1 X104.589 Y15.255 E50.35886
G1 X104.921 Y15.295 E50.36998
G1 X105.233 Y15.412 E50.38106
G1 X105.579 Y15.665 E50.39532
G1 X105.696 Y15.782 E50.40082
G1 X105.902 Y16.045 E50.41194
G1 X106.041 Y16.349 E50.42305
G1 X106.106 Y16.772 E50.43729
G1 X106.106 Y20.341 E50.55599
G1 X106.348 Y20.51 E50.56581
G1 X106.597 Y20.733 E50.57693
G1 X106.748 Y20.939 E50.58542
G1 X107.123 Y21.565 E50.60969
G1 X107.285 Y21.966 E50.62408
G1 X107.441 Y22.634 E50.64689
G1 X107.478 Y22.951 E50.65751
G1 X107.495 Y54.992 E51.7232
G1 X107.406 Y55.484 E51.73983
G1 X107.387 Y55.536 E51.74167
G1 X107.401 Y55.711 E51.74751
G1 X107.389 Y87.643 E52.80957
G1 X107.348 Y87.976 E52.82073
G1 X107.132 Y88.854 E52.8508
G1 X106.96 Y89.262 E52.86553
G1 X106.62 Y89.806 E52.88687
G1 X106.393 Y90.083 E52.89878
G1 X106.186 Y90.278 E52.90824
G1 X106.106 Y90.338 E52.91156
G1 X106.106 Y93.938 E53.0313
G1 X106.066 Y94.27 E53.04242
G1 X105.949 Y94.582 E53.0535
G1 X105.696 Y94.928 E53.06776
G1 X105.579 Y95.045 E53.07326
G1 X105.316 Y95.251 E53.08437
G1 X105.012 Y95.39 E53.09549
G1 X104.589 Y95.455 E53.10973
G1 X75.323 Y95.455 E54.08312
G1 X74.991 Y95.415 E54.09424
G1 X74.679 Y95.298 E54.10532
G1 X74.357 Y95.062 E54.1186
G1 X74.116 Y95.251 E54.12879
G1 X73.812 Y95.39 E54.13991
G1 X73.389 Y95.455 E54.15414
G1 X44.123 Y95.455 E55.12753
G1 X43.791 Y95.415 E55.13865
G1 X43.479 Y95.298 E55.14974
G1 X43.133 Y95.045 E55.16399
G1 X43.106 Y95.018 E55.16526
G1 X43.079 Y95.045 E55.16653
G1 X42.816 Y95.251 E55.17764
G1 X42.512 Y95.39 E55.18876
G1 X42.089 Y95.455 E55.203
G1 X12.823 Y95.455 E56.17639
G1 X12.491 Y95.415 E56.18751
G1 X12.179 Y95.298 E56.19859
G1 X11.833 Y95.045 E56.21285
G1 X11.716 Y94.928 E56.21835
G1 X11.51 Y94.665 E56.22946
G1 X11.371 Y94.361 E56.24058
G1 X11.306 Y93.938 E56.25481
G1 X11.306 Y90.428 E56.37156
G1 X11.259 Y90.394 E56.37349
G1 X10.921 Y90.086 E56.3887
G1 X10.662 Y89.769 E56.40231
G1 X10.288 Y89.143 E56.42657
G1 X10.127 Y88.743 E56.44091
G1 X9.971 Y88.074 E56.46375
G1 X9.934 Y87.757 E56.47437
G1 X9.917 Y55.718 E57.53999
G1 X9.957 Y55.386 E57.55111
G1 X10.007 Y55.222 E57.55682
G1 X10.026 Y55.173 E57.55856
G1 X10.011 Y54.998 E57.56441
G1 X10.023 Y23.066 E58.62647
G1 X10.064 Y22.731 E58.63769
