;FLAVOR:Marlin
;TIME:9076
;Filament used: 8.65204m
;Layer height: 0.2
;Generated with Cura_SteamEngine 3.5.0
M140 S60
M105
M190 S60
M104 S195
M105
M109 S195
M82 ;absolute extrusion mode
G21 ;metric values
G90 ;absolute positioning
M82 ;set extruder to absolute mode
M107 ;start with the fan off
G28 X0 Y0 ;move X/Y to min endstops
G28 Z0 ;move Z to min endstops
G1 Z15.0 F9000 ;move the platform down 15mm
G92 E0 ;zero the extruded length
G1 F200 E3 ;extrude 3mm of feed stock
G92 E0 ;zero the extruded length again
G1 F9000
;Put printing message on LCD screen
M117 Printing...
G92 E0
G1 F1500 E-6.5
;LAYER_COUNT:160
;LAYER:0
M107
G0 F3600 X51.187 Y37.539 Z0.2
;TYPE:SKIRT
G1 F1500 E0
G1 X51.187 Y47.539 E0.3326
G1 X67.182 Y47.539 E0.8646
G1 X67.182 Y37.539 E1.1972
G1 X51.187 Y37.539 E1.72919
G0 F3600 X50.787 Y37.139
G1 F1500 X50.787 Y47.939 E2.0884
G1 X67.613 Y47.939 E2.64804
G1 X67.582 Y47.563 E2.66059
G1 X67.582 Y37.544 E2.99382
G1 X67.618 Y37.139 E3.00734
G1 X50.787 Y37.139 E3.56715
G0 F3600 X50.387 Y36.739
G1 F1500 X50.387 Y48.339 E3.95296
G1 X68.133 Y48.339 E4.5432
G1 X68.043 Y48.077 E4.55241
G1 X67.982 Y47.563 E4.56963
G1 X67.982 Y37.544 E4.90286
G1 X68.022 Y37.127 E4.91679
G1 X68.136 Y36.739 E4.93024
G1 X50.387 Y36.739 E5.52058
G0 F3600 X49.987 Y36.339
G1 F1500 X49.987 Y48.739 E5.933
G1 X68.823 Y48.739 E6.55949
G1 X68.617 Y48.452 E6.57124
G1 X68.465 Y48.105 E6.58384
G1 X68.382 Y47.563 E6.60208
G1 X68.382 Y37.544 E6.93531
G1 X68.422 Y37.167 E6.94792
G1 X68.54 Y36.807 E6.96052
G1 X68.73 Y36.48 E6.9731
G1 X68.858 Y36.339 E6.97943
G1 X49.987 Y36.339 E7.60709
G0 F3600 X49.587 Y35.939
G1 F1500 X49.587 Y49.139 E8.04612
G1 X71.786 Y49.139 E8.78446
G1 X71.786 Y49.069 E8.78679
G1 X71.799 Y48.962 E8.79038
G1 X70.183 Y48.963 E8.84412
G1 X69.851 Y48.923 E8.85525
G1 X69.538 Y48.806 E8.86636
G1 X69.262 Y48.618 E8.87747
G1 X69.038 Y48.37 E8.88858
G1 X68.879 Y48.076 E8.8997
G1 X68.795 Y47.753 E8.9108
G1 X68.782 Y47.563 E8.91713
G1 X68.782 Y37.544 E9.25037
G1 X68.822 Y37.212 E9.26149
G1 X68.939 Y36.9 E9.27257
G1 X69.127 Y36.623 E9.28371
G1 X69.375 Y36.4 E9.2948
G1 X69.669 Y36.241 E9.30592
G1 X69.993 Y36.157 E9.31705
G1 X70.182 Y36.144 E9.32335
G1 X71.792 Y36.144 E9.3769
G1 X71.786 Y36.059 E9.37973
G1 X71.786 Y35.939 E9.38372
G1 X49.587 Y35.939 E10.12207
G0 F3600 X49.187 Y35.539
G1 F1500 X49.187 Y49.539 E10.58771
G1 X72.186 Y49.539 E11.35266
G1 X72.186 Y49.069 E11.36829
G1 X72.226 Y48.789 E11.3777
G1 X72.328 Y48.562 E11.38597
G1 X70.182 Y48.563 E11.45735
G1 X69.903 Y48.523 E11.46672
G1 X69.646 Y48.407 E11.4761
G1 X69.431 Y48.224 E11.48549
G1 X69.277 Y47.988 E11.49487
G1 X69.194 Y47.718 E11.50426
G1 X69.182 Y47.563 E11.50943
G1 X69.182 Y37.544 E11.84267
G1 X69.222 Y37.265 E11.85204
G1 X69.338 Y37.008 E11.86142
G1 X69.521 Y36.793 E11.87081
G1 X69.757 Y36.639 E11.88018
G1 X70.027 Y36.556 E11.88958
G1 X70.182 Y36.544 E11.89475
G1 X72.319 Y36.544 E11.96582
G1 X72.281 Y36.485 E11.96816
G1 X72.198 Y36.215 E11.97755
G1 X72.186 Y36.059 E11.98276
G1 X72.186 Y35.539 E12.00005
G1 X49.187 Y35.539 E12.765
G0 F3600 X48.787 Y35.139
G1 F1500 X48.787 Y49.939 E13.25725
G1 X72.587 Y49.939 E14.04884
G1 X72.586 Y49.068 E14.07781
G1 X72.626 Y48.854 E14.08505
G1 X72.739 Y48.668 E14.09229
G1 X72.912 Y48.534 E14.09957
G1 X73.186 Y48.468 E14.10894
G1 X81.339 Y48.466 E14.38011
G1 X81.553 Y48.506 E14.38736
G1 X81.74 Y48.619 E14.39462
G1 X81.873 Y48.792 E14.40188
G1 X81.939 Y49.069 E14.41135
G1 X81.911 Y54.022 E14.57609
G1 X81.894 Y54.161 E14.58075
G1 X81.665 Y55.098 E14.61283
G1 X81.613 Y55.235 E14.6177
G1 X81.164 Y56.088 E14.64977
G1 X81.083 Y56.206 E14.65453
G1 X80.445 Y56.928 E14.68657
G1 X80.337 Y57.024 E14.69138
G1 X79.543 Y57.574 E14.7235
G1 X79.413 Y57.642 E14.72838
G1 X78.511 Y57.983 E14.76046
G1 X78.372 Y58.018 E14.76522
G1 X77.413 Y58.135 E14.79736
G1 X77.34 Y58.139 E14.79979
G1 X33.75 Y58.139 E16.2496
G1 X33.535 Y58.099 E16.25687
G1 X33.349 Y57.986 E16.26411
G1 X33.216 Y57.813 E16.27137
G1 X33.15 Y57.539 E16.28074
G1 X33.151 Y27.539 E17.27855
G1 X33.191 Y27.324 E17.28582
G1 X33.304 Y27.138 E17.29306
G1 X33.477 Y27.005 E17.30032
G1 X33.751 Y26.939 E17.30969
G1 X77.821 Y26.968 E18.77546
G1 X77.964 Y26.985 E18.78025
G1 X78.903 Y27.216 E18.81242
G1 X79.039 Y27.268 E18.81726
G1 X79.891 Y27.716 E18.84928
G1 X80.01 Y27.798 E18.85408
G1 X80.731 Y28.437 E18.88613
G1 X80.826 Y28.544 E18.89088
G1 X81.375 Y29.337 E18.92296
G1 X81.443 Y29.467 E18.92784
G1 X81.784 Y30.369 E18.95992
G1 X81.819 Y30.508 E18.96468
G1 X81.936 Y31.465 E18.99675
G1 X81.94 Y31.538 E18.99918
G1 X81.94 Y36.06 E19.14958
G1 X81.9 Y36.275 E19.15686
G1 X81.787 Y36.461 E19.1641
G1 X81.614 Y36.594 E19.17135
G1 X81.34 Y36.66 E19.18073
G1 X73.186 Y36.66 E19.45193
G1 X72.971 Y36.62 E19.45921
G1 X72.785 Y36.507 E19.46644
G1 X72.652 Y36.334 E19.4737
G1 X72.586 Y36.06 E19.48308
G1 X72.587 Y35.139 E19.51371
G1 X48.787 Y35.139 E20.3053
G0 F3600 X48.387 Y34.739
G1 F1500 X48.387 Y50.339 E20.82416
G1 X72.987 Y50.339 E21.64236
G1 X72.986 Y49.068 E21.68463
G1 X73.025 Y48.949 E21.6888
G1 X73.186 Y48.868 E21.69479
G1 X81.339 Y48.866 E21.96596
G1 X81.458 Y48.905 E21.97013
G1 X81.539 Y49.067 E21.97615
G1 X81.511 Y54.02 E22.14089
G1 X81.505 Y54.066 E22.14243
G1 X81.276 Y55.003 E22.17451
G1 X81.259 Y55.049 E22.17615
G1 X80.81 Y55.902 E22.20821
G1 X80.783 Y55.941 E22.20978
G1 X80.145 Y56.663 E22.24183
G1 X80.109 Y56.695 E22.24343
G1 X79.315 Y57.245 E22.27556
G1 X79.272 Y57.268 E22.27718
G1 X78.37 Y57.609 E22.30925
G1 X78.323 Y57.621 E22.31087
G1 X77.364 Y57.738 E22.343
G1 X77.34 Y57.739 E22.3438
G1 X33.75 Y57.739 E23.79361
G1 X33.631 Y57.7 E23.79777
G1 X33.55 Y57.539 E23.80377
G1 X33.551 Y27.539 E24.80157
G1 X33.59 Y27.42 E24.80574
G1 X33.751 Y27.339 E24.81173
G1 X77.821 Y27.368 E26.2775
G1 X77.869 Y27.374 E26.27911
G1 X78.808 Y27.605 E26.31128
G1 X78.853 Y27.622 E26.31288
G1 X79.705 Y28.07 E26.34489
G1 X79.745 Y28.097 E26.3465
G1 X80.466 Y28.736 E26.37854
G1 X80.497 Y28.772 E26.38012
G1 X81.046 Y29.565 E26.4122
G1 X81.069 Y29.608 E26.41382
G1 X81.41 Y30.51 E26.4459
G1 X81.422 Y30.557 E26.44751
G1 X81.539 Y31.514 E26.47958
G1 X81.54 Y31.538 E26.48037
G1 X81.54 Y36.06 E26.63078
G1 X81.501 Y36.179 E26.63494
G1 X81.34 Y36.26 E26.64094
G1 X73.186 Y36.26 E26.91214
G1 X73.067 Y36.221 E26.9163
G1 X72.986 Y36.06 E26.9223
G1 X72.987 Y34.739 E26.96624
G1 X48.387 Y34.739 E27.78443
G1 F1500 E21.28443
G0 F3600 X48.84 Y35.192
G0 X72.533 Y36.713
G0 X81.993 Y36.713
G0 X81.972 Y30.978
G0 X81.704 Y29.885
G0 X81.179 Y28.889
G0 X80.435 Y28.048
G0 X79.508 Y27.408
G0 X78.457 Y27.009
G0 X77.569 Y26.901
G0 X33.752 Y26.539
G1 F1500 E27.78443
G1 X77.822 Y26.568 E29.25021
G1 X78.06 Y26.597 E29.25818
G1 X78.999 Y26.828 E29.29035
G1 X79.225 Y26.914 E29.29839
G1 X80.077 Y27.362 E29.33041
G1 X80.275 Y27.499 E29.33841
G1 X80.996 Y28.138 E29.37046
G1 X81.155 Y28.317 E29.37842
G1 X81.704 Y29.11 E29.4105
G1 X81.817 Y29.325 E29.41858
G1 X82.158 Y30.227 E29.45065
G1 X82.216 Y30.46 E29.45864
G1 X82.333 Y31.417 E29.4907
G1 X82.34 Y31.538 E29.49473
G1 X82.34 Y36.06 E29.64514
G1 X82.3 Y36.339 E29.65451
G1 X82.184 Y36.596 E29.66389
G1 X82.001 Y36.811 E29.67328
G1 X81.993 Y36.816 E29.67359
G1 X82.09 Y36.899 E29.67784
G1 X82.116 Y36.939 E29.67943
G1 X96.671 Y36.939 E30.16353
G1 X96.95 Y36.979 E30.1729
G1 X97.207 Y37.095 E30.18228
G1 X97.422 Y37.278 E30.19167
G1 X97.576 Y37.514 E30.20104
G1 X97.659 Y37.784 E30.21044
G1 X97.671 Y37.939 E30.21561
G1 X97.672 Y40.939 E30.31539
G1 X97.632 Y41.218 E30.32476
G1 X97.516 Y41.475 E30.33414
G1 X97.333 Y41.69 E30.34353
G1 X97.097 Y41.844 E30.35291
G1 X96.827 Y41.927 E30.3623
G1 X96.672 Y41.939 E30.36747
G1 X82.339 Y41.939 E30.84419
G1 X82.339 Y43.139 E30.8841
G1 X96.671 Y43.139 E31.36079
G1 X96.95 Y43.179 E31.37016
G1 X97.207 Y43.295 E31.37954
G1 X97.422 Y43.478 E31.38893
G1 X97.576 Y43.714 E31.3983
G1 X97.659 Y43.984 E31.4077
G1 X97.671 Y44.139 E31.41287
G1 X97.672 Y47.139 E31.51265
G1 X97.632 Y47.418 E31.52202
G1 X97.516 Y47.675 E31.5314
G1 X97.333 Y47.89 E31.54079
G1 X97.097 Y48.044 E31.55016
G1 X96.827 Y48.127 E31.55956
G1 X96.672 Y48.139 E31.56473
G1 X82.152 Y48.139 E32.04767
G1 X82 Y48.317 E32.05545
G1 X81.992 Y48.322 E32.05577
G1 X82.09 Y48.405 E32.06004
G1 X82.244 Y48.641 E32.06941
G1 X82.327 Y48.911 E32.0788
G1 X82.339 Y49.072 E32.08417
G1 X82.311 Y54.025 E32.24891
G1 X82.282 Y54.256 E32.25666
G1 X82.053 Y55.193 E32.28874
G1 X81.967 Y55.422 E32.29688
G1 X81.518 Y56.275 E32.32894
G1 X81.382 Y56.471 E32.33687
G1 X80.744 Y57.193 E32.36892
G1 X80.564 Y57.353 E32.37693
G1 X79.77 Y57.903 E32.40905
G1 X79.555 Y58.016 E32.41713
G1 X78.653 Y58.357 E32.44921
G1 X78.42 Y58.415 E32.45719
G1 X77.461 Y58.532 E32.48932
G1 X77.34 Y58.539 E32.49336
G1 X33.75 Y58.539 E33.94316
G1 X33.471 Y58.499 E33.95254
G1 X33.214 Y58.383 E33.96192
G1 X32.999 Y58.2 E33.97131
G1 X32.845 Y57.964 E33.98068
G1 X32.762 Y57.694 E33.99008
G1 X32.75 Y57.539 E33.99525
G1 X32.751 Y27.539 E34.99305
G1 X32.791 Y27.26 E35.00242
G1 X32.907 Y27.003 E35.0118
G1 X33.09 Y26.788 E35.02119
G1 X33.326 Y26.634 E35.03057
G1 X33.596 Y26.551 E35.03996
G1 X33.752 Y26.539 E35.04517
G0 F3600 X33.752 Y26.139
G1 F1500 X77.822 Y26.168 E36.51094
G1 X78.155 Y26.209 E36.5221
G1 X79.094 Y26.44 E36.55426
G1 X79.412 Y26.56 E36.56557
G1 X80.264 Y27.008 E36.59758
G1 X80.541 Y27.199 E36.60877
G1 X81.262 Y27.838 E36.64082
G1 X81.484 Y28.089 E36.65196
G1 X82.033 Y28.882 E36.68404
G1 X82.192 Y29.184 E36.69539
G1 X82.533 Y30.086 E36.72747
G1 X82.613 Y30.411 E36.7386
G1 X82.73 Y31.368 E36.77066
G1 X82.74 Y31.538 E36.77633
G1 X82.74 Y36.06 E36.92673
G1 X82.7 Y36.392 E36.93785
G1 X82.645 Y36.539 E36.94307
G1 X96.671 Y36.539 E37.40958
G1 X97.003 Y36.579 E37.4207
G1 X97.315 Y36.696 E37.43179
G1 X97.592 Y36.884 E37.44292
G1 X97.815 Y37.132 E37.45401
G1 X97.974 Y37.426 E37.46513
G1 X98.058 Y37.75 E37.47626
G1 X98.071 Y37.939 E37.48256
G1 X98.072 Y40.939 E37.58234
G1 X98.032 Y41.27 E37.59343
G1 X97.915 Y41.583 E37.60455
G1 X97.727 Y41.859 E37.61565
G1 X97.479 Y42.083 E37.62677
G1 X97.185 Y42.242 E37.63789
G1 X96.862 Y42.326 E37.64899
G1 X96.672 Y42.339 E37.65532
G1 X82.739 Y42.339 E38.11873
G1 X82.739 Y42.739 E38.13204
G1 X96.671 Y42.739 E38.59542
G1 X97.003 Y42.779 E38.60654
G1 X97.315 Y42.896 E38.61762
G1 X97.592 Y43.084 E38.62876
G1 X97.815 Y43.332 E38.63985
G1 X97.974 Y43.626 E38.65097
G1 X98.058 Y43.95 E38.6621
G1 X98.071 Y44.139 E38.6684
G1 X98.072 Y47.139 E38.76818
G1 X98.032 Y47.47 E38.77927
G1 X97.915 Y47.783 E38.79038
G1 X97.727 Y48.059 E38.80149
G1 X97.479 Y48.283 E38.81261
G1 X97.185 Y48.442 E38.82372
G1 X96.862 Y48.526 E38.83482
G1 X96.672 Y48.539 E38.84116
G1 X82.634 Y48.539 E39.30806
G1 X82.642 Y48.553 E39.3086
G1 X82.726 Y48.876 E39.3197
G1 X82.739 Y49.074 E39.3263
G1 X82.711 Y54.027 E39.49104
G1 X82.671 Y54.351 E39.5019
G1 X82.442 Y55.288 E39.53398
G1 X82.321 Y55.608 E39.54536
G1 X81.872 Y56.461 E39.57742
G1 X81.682 Y56.736 E39.58854
G1 X81.044 Y57.458 E39.62058
G1 X80.792 Y57.682 E39.6318
G1 X79.998 Y58.232 E39.66392
G1 X79.696 Y58.391 E39.67528
G1 X78.794 Y58.732 E39.70735
G1 X78.469 Y58.812 E39.71848
G1 X77.51 Y58.929 E39.75061
G1 X77.34 Y58.939 E39.75628
G1 X33.75 Y58.939 E41.20609
G1 X33.418 Y58.899 E41.21721
G1 X33.106 Y58.782 E41.22829
G1 X32.829 Y58.594 E41.23943
G1 X32.606 Y58.346 E41.25052
G1 X32.447 Y58.052 E41.26164
G1 X32.363 Y57.728 E41.27277
G1 X32.35 Y57.539 E41.27907
G1 X32.351 Y27.539 E42.27687
G1 X32.391 Y27.207 E42.288
G1 X32.508 Y26.894 E42.29911
G1 X32.696 Y26.618 E42.31022
G1 X32.944 Y26.395 E42.32131
G1 X33.238 Y26.236 E42.33243
G1 X33.562 Y26.152 E42.34356
G1 X33.752 Y26.139 E42.34989
G0 F3600 X33.752 Y25.739
G1 F1500 X77.822 Y25.768 E43.81567
G1 X78.251 Y25.82 E43.83004
G1 X79.19 Y26.051 E43.8622
G1 X79.598 Y26.206 E43.87672
G1 X80.45 Y26.654 E43.90874
G1 X80.806 Y26.9 E43.92313
G1 X81.527 Y27.539 E43.95517
G1 X81.813 Y27.861 E43.9695
G1 X82.362 Y28.654 E44.00158
G1 X82.566 Y29.042 E44.01616
G1 X82.907 Y29.944 E44.04823
G1 X83.01 Y30.363 E44.06258
G1 X83.127 Y31.32 E44.09465
G1 X83.14 Y31.538 E44.10191
G1 X83.14 Y36.06 E44.25231
G1 X83.132 Y36.139 E44.25495
G1 X96.671 Y36.139 E44.70526
G1 X97.048 Y36.179 E44.71787
G1 X97.408 Y36.297 E44.73047
G1 X97.735 Y36.487 E44.74305
G1 X98.016 Y36.742 E44.75567
G1 X98.236 Y37.051 E44.76829
G1 X98.388 Y37.398 E44.78089
G1 X98.471 Y37.938 E44.79906
G1 X98.472 Y40.938 E44.89884
G1 X98.432 Y41.315 E44.91145
G1 X98.314 Y41.675 E44.92405
G1 X98.124 Y42.003 E44.93666
G1 X97.869 Y42.283 E44.94925
G1 X97.561 Y42.504 E44.96186
G1 X97.481 Y42.539 E44.96477
G1 X97.735 Y42.687 E44.97454
G1 X98.016 Y42.942 E44.98716
G1 X98.236 Y43.251 E44.99978
G1 X98.388 Y43.598 E45.01238
G1 X98.471 Y44.138 E45.03055
G1 X98.472 Y47.138 E45.13033
G1 X98.432 Y47.515 E45.14294
G1 X98.314 Y47.875 E45.15554
G1 X98.124 Y48.203 E45.16815
G1 X97.869 Y48.483 E45.18074
G1 X97.561 Y48.704 E45.19335
G1 X97.214 Y48.856 E45.20595
G1 X96.672 Y48.939 E45.22419
G1 X83.118 Y48.939 E45.675
G1 X83.139 Y49.076 E45.67961
G1 X83.111 Y54.029 E45.84435
G1 X83.06 Y54.446 E45.85832
G1 X82.831 Y55.383 E45.8904
G1 X82.675 Y55.794 E45.90502
G1 X82.226 Y56.647 E45.93709
G1 X81.982 Y57.001 E45.95139
G1 X81.344 Y57.723 E45.98343
G1 X81.02 Y58.011 E45.99785
G1 X80.226 Y58.561 E46.02998
G1 X79.838 Y58.765 E46.04456
G1 X78.936 Y59.106 E46.07663
G1 X78.517 Y59.209 E46.09098
G1 X77.558 Y59.326 E46.12311
G1 X77.34 Y59.339 E46.13038
G1 X33.75 Y59.339 E47.58019
G1 X33.373 Y59.299 E47.59279
G1 X33.013 Y59.181 E47.60539
G1 X32.686 Y58.991 E47.61797
G1 X32.405 Y58.736 E47.63059
G1 X32.185 Y58.427 E47.64321
G1 X32.033 Y58.08 E47.65581
G1 X31.95 Y57.539 E47.67401
G1 X31.951 Y27.539 E48.67182
G1 X31.991 Y27.162 E48.68443
G1 X32.109 Y26.802 E48.69703
G1 X32.3 Y26.474 E48.70965
G1 X32.555 Y26.194 E48.72225
G1 X32.863 Y25.974 E48.73484
G1 X33.21 Y25.822 E48.74744
G1 X33.752 Y25.739 E48.76568
G0 F3600 X33.752 Y25.339
G1 F1500 X77.822 Y25.368 E50.23145
G1 X78.347 Y25.432 E50.24904
G1 X79.286 Y25.663 E50.2812
G1 X79.784 Y25.852 E50.29892
G1 X80.636 Y26.3 E50.33094
G1 X81.071 Y26.601 E50.34853
G1 X81.792 Y27.24 E50.38057
G1 X82.142 Y27.634 E50.3981
G1 X82.691 Y28.427 E50.43018
G1 X82.94 Y28.901 E50.44799
G1 X83.281 Y29.803 E50.48006
G1 X83.407 Y30.314 E50.49757
G1 X83.524 Y31.271 E50.52963
G1 X83.54 Y31.538 E50.53853
G1 X83.54 Y35.739 E50.67826
G1 X96.671 Y35.739 E51.11499
G1 X97.088 Y35.779 E51.12893
G1 X97.49 Y35.897 E51.14286
G1 X97.862 Y36.09 E51.1568
G1 X98.191 Y36.349 E51.17073
G1 X98.465 Y36.666 E51.18466
G1 X98.674 Y37.029 E51.1986
G1 X98.81 Y37.426 E51.21255
G1 X98.871 Y37.938 E51.2297
G1 X98.872 Y40.938 E51.32948
G1 X98.832 Y41.355 E51.34342
G1 X98.714 Y41.757 E51.35735
G1 X98.522 Y42.13 E51.3713
G1 X98.263 Y42.459 E51.38523
G1 X98.174 Y42.536 E51.38914
G1 X98.191 Y42.549 E51.38986
G1 X98.465 Y42.866 E51.40379
G1 X98.674 Y43.229 E51.41772
G1 X98.81 Y43.626 E51.43168
G1 X98.871 Y44.138 E51.44883
G1 X98.872 Y47.138 E51.54861
G1 X98.832 Y47.555 E51.56255
G1 X98.714 Y47.957 E51.57648
G1 X98.522 Y48.33 E51.59043
G1 X98.263 Y48.659 E51.60436
G1 X97.945 Y48.933 E51.61832
G1 X97.582 Y49.142 E51.63225
G1 X97.186 Y49.278 E51.64618
G1 X96.672 Y49.339 E51.66339
G1 X83.538 Y49.339 E52.10023
G1 X83.511 Y54.031 E52.25629
G1 X83.448 Y54.541 E52.27338
G1 X83.219 Y55.478 E52.30547
G1 X83.029 Y55.981 E52.32335
G1 X82.58 Y56.834 E52.35541
G1 X82.282 Y57.266 E52.37287
G1 X81.644 Y57.988 E52.40491
G1 X81.248 Y58.339 E52.42251
G1 X80.454 Y58.889 E52.45464
G1 X79.979 Y59.139 E52.47249
G1 X79.077 Y59.48 E52.50456
G1 X78.565 Y59.606 E52.5221
G1 X77.606 Y59.723 E52.55423
G1 X77.34 Y59.739 E52.5631
G1 X33.75 Y59.739 E54.01291
G1 X33.333 Y59.699 E54.02684
G1 X32.931 Y59.581 E54.04077
G1 X32.559 Y59.388 E54.05471
G1 X32.23 Y59.129 E54.06864
G1 X31.956 Y58.812 E54.08258
G1 X31.747 Y58.449 E54.09651
G1 X31.611 Y58.052 E54.11046
G1 X31.55 Y57.539 E54.12765
G1 X31.551 Y27.539 E55.12545
G1 X31.591 Y27.122 E55.13938
G1 X31.709 Y26.72 E55.15332
G1 X31.902 Y26.348 E55.16726
G1 X32.161 Y26.018 E55.18121
G1 X32.478 Y25.745 E55.19513
G1 X32.842 Y25.536 E55.20909
G1 X33.238 Y25.4 E55.22301
G1 X33.752 Y25.339 E55.24023
G0 F3600 X33.753 Y24.939
G1 F1500 X77.823 Y24.968 E56.706
G1 X78.442 Y25.043 E56.72674
