;FLAVOR:Marlin
;TIME:4788
;Filament used: 2.96019m
;Layer height: 0.2
;Generated with Cura_SteamEngine 3.4.1
M190 S75
M104 S220
M109 S220
M82 ;absolute extrusion mode
G21 ;metric values
G90 ;absolute positioning
M82 ;set extruder to absolute mode
M107 ;start with the fan off
G28 X0 Y0 ;move X/Y to min endstops
G28 Z0 ;move Z to min endstops
G1 Z15.0 F9000 ;move the platform down 15mm
G92 E0 ;zero the extruded length
G1 F200 E3 ;extrude 3mm of feed stock
G92 E0 ;zero the extruded length again
G1 F9000
;Put printing message on LCD screen
M117 Printing...
G92 E0
G1 F1500 E-6.5
;LAYER_COUNT:233
;LAYER:0
M107
G0 F2400 X87.854 Y81.066 Z0.2
;TYPE:SKIRT
G1 F1500 E0
G1 F1200 X88.448 Y80.534 E0.01989
G1 X89.092 Y80.064 E0.03978
G1 X89.78 Y79.66 E0.05968
G1 X90.505 Y79.328 E0.07957
G1 X91.259 Y79.07 E0.09945
G1 X92.035 Y78.889 E0.11933
G1 X92.826 Y78.787 E0.13922
G1 X93.972 Y78.779 E0.16781
G1 X108.753 Y79.75 E0.53732
G1 X109.545 Y79.842 E0.55721
G1 X110.324 Y80.013 E0.5771
G1 X111.081 Y80.261 E0.59698
G1 X111.81 Y80.584 E0.61687
G1 X112.503 Y80.978 E0.63675
G1 X113.154 Y81.44 E0.65666
G1 X113.754 Y81.964 E0.67654
G1 X114.299 Y82.546 E0.69643
G1 X114.783 Y83.179 E0.7163
G1 X115.363 Y84.168 E0.7449
G1 X121.912 Y97.456 E1.11444
G1 X122.228 Y98.188 E1.13433
G1 X122.469 Y98.948 E1.15422
G1 X122.633 Y99.728 E1.1741
G1 X122.718 Y100.521 E1.194
G1 X122.723 Y101.318 E1.21388
G1 X122.649 Y102.112 E1.23377
G1 X122.495 Y102.894 E1.25365
G1 X122.263 Y103.657 E1.27355
G1 X121.957 Y104.393 E1.29343
G1 X121.391 Y105.389 E1.32201
G1 X113.159 Y117.706 E1.69156
G1 X112.683 Y118.345 E1.71144
G1 X112.146 Y118.934 E1.73132
G1 X111.552 Y119.466 E1.75121
G1 X110.908 Y119.936 E1.7711
G1 X110.22 Y120.34 E1.791
G1 X109.495 Y120.672 E1.81089
G1 X108.741 Y120.93 E1.83077
G1 X107.965 Y121.111 E1.85065
G1 X107.174 Y121.213 E1.87054
G1 X106.028 Y121.221 E1.89913
G1 X91.247 Y120.25 E2.26864
G1 X90.455 Y120.158 E2.28853
G1 X89.676 Y119.987 E2.30842
G1 X88.919 Y119.739 E2.3283
G1 X88.19 Y119.416 E2.34819
G1 X87.497 Y119.022 E2.36807
G1 X86.846 Y118.56 E2.38798
G1 X86.246 Y118.036 E2.40786
G1 X85.701 Y117.454 E2.42775
G1 X85.217 Y116.821 E2.44762
G1 X84.637 Y115.832 E2.47622
G1 X78.088 Y102.544 E2.84576
G1 X77.772 Y101.812 E2.86565
G1 X77.531 Y101.052 E2.88554
G1 X77.367 Y100.272 E2.90542
G1 X77.282 Y99.479 E2.92532
G1 X77.277 Y98.682 E2.9452
G1 X77.351 Y97.888 E2.96509
G1 X77.505 Y97.106 E2.98497
G1 X77.737 Y96.343 E3.00487
G1 X78.043 Y95.607 E3.02475
G1 X78.609 Y94.611 E3.05333
G1 X86.841 Y82.294 E3.42288
G1 X87.317 Y81.655 E3.44276
G1 X87.854 Y81.066 E3.46264
G0 F2400 X88.087 Y81.258
G1 F1200 X88.672 Y80.739 E3.48215
G1 X89.306 Y80.282 E3.50164
G1 X89.985 Y79.892 E3.52118
G1 X90.699 Y79.574 E3.54067
G1 X91.442 Y79.33 E3.56018
G1 X92.206 Y79.164 E3.57968
G1 X92.983 Y79.076 E3.59919
G1 X93.952 Y79.078 E3.62336
G1 X108.733 Y80.049 E3.99287
G1 X109.51 Y80.141 E4.01239
G1 X110.274 Y80.31 E4.03191
G1 X111.016 Y80.557 E4.05142
G1 X111.729 Y80.879 E4.07093
G1 X112.405 Y81.271 E4.09042
G1 X113.038 Y81.731 E4.10994
G1 X113.62 Y82.253 E4.12945
G1 X114.147 Y82.831 E4.14896
G1 X114.611 Y83.46 E4.16845
G1 X115.094 Y84.301 E4.19265
G1 X121.643 Y97.589 E4.56219
G1 X121.952 Y98.307 E4.58169
G1 X122.187 Y99.053 E4.6012
G1 X122.344 Y99.82 E4.62073
G1 X122.422 Y100.598 E4.64023
G1 X122.42 Y101.38 E4.65974
G1 X122.338 Y102.158 E4.67925
G1 X122.178 Y102.923 E4.69875
G1 X121.94 Y103.668 E4.71826
G1 X121.627 Y104.385 E4.73777
G1 X121.141 Y105.222 E4.76192
G1 X112.909 Y117.539 E5.13147
G1 X112.442 Y118.166 E5.15097
G1 X111.913 Y118.742 E5.17048
G1 X111.328 Y119.261 E5.18999
G1 X110.694 Y119.718 E5.20949
G1 X110.015 Y120.108 E5.22902
G1 X109.301 Y120.426 E5.24852
G1 X108.558 Y120.67 E5.26802
G1 X107.794 Y120.836 E5.28753
G1 X107.017 Y120.924 E5.30703
G1 X106.048 Y120.922 E5.33121
G1 X91.267 Y119.951 E5.70071
G1 X90.49 Y119.859 E5.72023
G1 X89.726 Y119.69 E5.73975
G1 X88.984 Y119.443 E5.75926
G1 X88.271 Y119.121 E5.77877
G1 X87.595 Y118.729 E5.79827
G1 X86.962 Y118.269 E5.81779
G1 X86.38 Y117.747 E5.83729
G1 X85.853 Y117.169 E5.8568
G1 X85.389 Y116.54 E5.8763
G1 X84.906 Y115.699 E5.90049
G1 X78.357 Y102.411 E6.27003
G1 X78.048 Y101.693 E6.28953
G1 X77.813 Y100.947 E6.30904
G1 X77.656 Y100.18 E6.32857
G1 X77.578 Y99.402 E6.34807
G1 X77.58 Y98.62 E6.36758
G1 X77.662 Y97.842 E6.3871
G1 X77.822 Y97.077 E6.40659
G1 X78.06 Y96.332 E6.4261
G1 X78.373 Y95.615 E6.44562
G1 X78.859 Y94.778 E6.46976
G1 X87.091 Y82.461 E6.83931
G1 X87.558 Y81.834 E6.85882
G1 X88.087 Y81.258 E6.87833
G0 F2400 X88.319 Y81.45
G1 F1200 X88.895 Y80.945 E6.89743
G1 X89.52 Y80.501 E6.91656
G1 X90.188 Y80.126 E6.93567
G1 X90.892 Y79.822 E6.9548
G1 X91.624 Y79.593 E6.97393
G1 X92.375 Y79.441 E6.99304
G1 X93.138 Y79.369 E7.01216
G1 X93.933 Y79.378 E7.03199
G1 X108.714 Y80.349 E7.4015
G1 X109.475 Y80.439 E7.42062
G1 X110.223 Y80.608 E7.43975
G1 X110.949 Y80.854 E7.45887
G1 X111.645 Y81.174 E7.47798
G1 X112.305 Y81.565 E7.49711
G1 X112.92 Y82.022 E7.51623
G1 X113.484 Y82.541 E7.53534
G1 X113.991 Y83.116 E7.55447
G1 X114.435 Y83.741 E7.57359
G1 X114.825 Y84.434 E7.59343
G1 X121.374 Y97.722 E7.96297
G1 X121.676 Y98.426 E7.98208
G1 X121.904 Y99.158 E8.0012
G1 X122.054 Y99.91 E8.02033
G1 X122.125 Y100.673 E8.03945
G1 X122.116 Y101.44 E8.05858
G1 X122.027 Y102.201 E8.07769
G1 X121.86 Y102.949 E8.09681
G1 X121.615 Y103.675 E8.11593
G1 X121.297 Y104.373 E8.13506
G1 X120.892 Y105.055 E8.15485
G1 X112.66 Y117.372 E8.5244
G1 X112.201 Y117.986 E8.54352
G1 X111.681 Y118.55 E8.56266
G1 X111.105 Y119.055 E8.58177
G1 X110.48 Y119.499 E8.60089
G1 X109.812 Y119.874 E8.62
G1 X109.108 Y120.178 E8.63913
G1 X108.376 Y120.407 E8.65826
G1 X107.625 Y120.559 E8.67738
G1 X106.862 Y120.631 E8.69649
G1 X106.067 Y120.622 E8.71633
G1 X91.286 Y119.651 E9.08583
G1 X90.525 Y119.561 E9.10495
G1 X89.777 Y119.392 E9.12408
G1 X89.051 Y119.146 E9.1432
G1 X88.355 Y118.826 E9.16231
G1 X87.695 Y118.435 E9.18145
G1 X87.08 Y117.978 E9.20056
G1 X86.516 Y117.459 E9.21968
G1 X86.009 Y116.884 E9.2388
G1 X85.565 Y116.259 E9.25793
G1 X85.175 Y115.566 E9.27776
G1 X78.626 Y102.278 E9.6473
G1 X78.324 Y101.574 E9.66641
G1 X78.096 Y100.842 E9.68554
G1 X77.946 Y100.09 E9.70467
G1 X77.875 Y99.327 E9.72378
G1 X77.884 Y98.56 E9.74292
G1 X77.973 Y97.799 E9.76203
G1 X78.14 Y97.051 E9.78115
G1 X78.385 Y96.325 E9.80026
G1 X78.703 Y95.627 E9.81939
G1 X79.108 Y94.945 E9.83918
G1 X87.34 Y82.628 E10.20873
G1 X87.799 Y82.014 E10.22786
G1 X88.319 Y81.45 E10.24699
G0 F2400 X88.551 Y81.644
G1 F1200 X89.117 Y81.151 E10.26572
G1 X89.733 Y80.722 E10.28444
G1 X90.391 Y80.361 E10.30316
G1 X91.084 Y80.071 E10.3219
G1 X91.803 Y79.857 E10.34062
G1 X92.542 Y79.721 E10.35936
G1 X93.29 Y79.664 E10.37807
G1 X93.913 Y79.677 E10.39362
G1 X108.694 Y80.648 E10.76313
G1 X109.44 Y80.737 E10.78187
G1 X110.171 Y80.905 E10.80058
G1 X110.881 Y81.15 E10.81931
G1 X111.561 Y81.468 E10.83804
G1 X112.203 Y81.858 E10.85678
G1 X112.8 Y82.313 E10.8755
G1 X113.345 Y82.829 E10.89422
G1 X113.832 Y83.4 E10.91294
G1 X114.256 Y84.02 E10.93168
G1 X114.556 Y84.566 E10.94722
G1 X121.105 Y97.854 E11.31676
G1 X121.4 Y98.544 E11.33548
G1 X121.621 Y99.262 E11.35422
G1 X121.764 Y99.999 E11.37295
G1 X121.827 Y100.747 E11.39167
G1 X121.811 Y101.498 E11.41041
G1 X121.715 Y102.242 E11.42912
G1 X121.541 Y102.972 E11.44784
G1 X121.29 Y103.68 E11.46658
G1 X120.965 Y104.357 E11.48532
G1 X120.642 Y104.888 E11.50082
G1 X112.41 Y117.205 E11.87037
G1 X111.961 Y117.807 E11.88911
G1 X111.449 Y118.356 E11.90783
G1 X110.883 Y118.849 E11.92656
G1 X110.267 Y119.278 E11.94528
G1 X109.609 Y119.639 E11.964
G1 X108.916 Y119.929 E11.98274
G1 X108.197 Y120.143 E12.00146
G1 X107.458 Y120.279 E12.0202
G1 X106.71 Y120.336 E12.03891
G1 X106.087 Y120.323 E12.05446
G1 X91.306 Y119.352 E12.42397
G1 X90.56 Y119.263 E12.44271
G1 X89.829 Y119.095 E12.46142
G1 X89.119 Y118.85 E12.48015
G1 X88.439 Y118.532 E12.49888
G1 X87.797 Y118.142 E12.51762
G1 X87.2 Y117.687 E12.53634
G1 X86.655 Y117.171 E12.55506
G1 X86.168 Y116.6 E12.57378
G1 X85.744 Y115.98 E12.59252
G1 X85.444 Y115.434 E12.60806
G1 X78.895 Y102.146 E12.9776
G1 X78.6 Y101.456 E12.99632
G1 X78.379 Y100.738 E13.01506
G1 X78.236 Y100.001 E13.03379
G1 X78.173 Y99.253 E13.05251
G1 X78.189 Y98.502 E13.07125
G1 X78.285 Y97.758 E13.08997
G1 X78.459 Y97.028 E13.10869
G1 X78.71 Y96.32 E13.12742
G1 X79.035 Y95.643 E13.14616
G1 X79.358 Y95.112 E13.16166
G1 X87.59 Y82.795 E13.53121
G1 X88.039 Y82.193 E13.54995
G1 X88.551 Y81.644 E13.56867
G0 F2400 X88.782 Y81.837
G1 F1200 X89.339 Y81.359 E13.58698
G1 X89.945 Y80.944 E13.6053
G1 X90.593 Y80.597 E13.62364
G1 X91.274 Y80.323 E13.64195
G1 X91.981 Y80.124 E13.66027
G1 X92.706 Y80.003 E13.67861
G1 X93.439 Y79.962 E13.69692
G1 X93.893 Y79.977 E13.70825
G1 X108.674 Y80.948 E14.07776
G1 X109.404 Y81.035 E14.0961
G1 X110.119 Y81.202 E14.11442
G1 X110.812 Y81.446 E14.13274
G1 X111.475 Y81.763 E14.15108
G1 X112.099 Y82.15 E14.16939
G1 X112.677 Y82.603 E14.18771
G1 X113.203 Y83.116 E14.20604
G1 X113.67 Y83.684 E14.22438
G1 X114.072 Y84.298 E14.24269
G1 X114.287 Y84.699 E14.25404
G1 X120.836 Y97.987 E14.62358
G1 X121.124 Y98.663 E14.64191
G1 X121.337 Y99.366 E14.66023
G1 X121.473 Y100.087 E14.67854
G1 X121.529 Y100.82 E14.69687
G1 X121.506 Y101.554 E14.71519
G1 X121.403 Y102.281 E14.73351
G1 X121.221 Y102.993 E14.75184
G1 X120.963 Y103.681 E14.77017
G1 X120.632 Y104.337 E14.7885
G1 X120.393 Y104.722 E14.7998
G1 X112.161 Y117.039 E15.16936
G1 X111.72 Y117.626 E15.18767
G1 X111.218 Y118.163 E15.20601
G1 X110.661 Y118.641 E15.22432
G1 X110.055 Y119.056 E15.24264
G1 X109.407 Y119.403 E15.26098
G1 X108.726 Y119.677 E15.27929
G1 X108.019 Y119.876 E15.29761
G1 X107.294 Y119.997 E15.31594
G1 X106.561 Y120.038 E15.33426
G1 X106.107 Y120.023 E15.34559
G1 X91.326 Y119.052 E15.7151
G1 X90.596 Y118.965 E15.73343
G1 X89.881 Y118.798 E15.75175
G1 X89.188 Y118.554 E15.77008
G1 X88.525 Y118.237 E15.78841
G1 X87.901 Y117.85 E15.80673
G1 X87.323 Y117.397 E15.82504
G1 X86.797 Y116.884 E15.84337
G1 X86.33 Y116.316 E15.86172
G1 X85.928 Y115.702 E15.88002
G1 X85.713 Y115.301 E15.89137
G1 X79.164 Y102.013 E16.26091
G1 X78.876 Y101.337 E16.27924
G1 X78.663 Y100.634 E16.29757
G1 X78.527 Y99.913 E16.31587
G1 X78.471 Y99.18 E16.33421
G1 X78.494 Y98.446 E16.35253
G1 X78.597 Y97.719 E16.37084
G1 X78.779 Y97.007 E16.38918
G1 X79.037 Y96.319 E16.4075
G1 X79.368 Y95.663 E16.42583
G1 X79.607 Y95.278 E16.43714
G1 X87.839 Y82.961 E16.80669
G1 X88.28 Y82.374 E16.82501
G1 X88.782 Y81.837 E16.84334
G0 F2400 X89.013 Y82.032
G1 F1200 X89.56 Y81.567 E16.86125
G1 X90.156 Y81.167 E16.87916
G1 X90.793 Y80.835 E16.89708
G1 X91.463 Y80.576 E16.91499
G1 X92.157 Y80.393 E16.9329
G1 X92.868 Y80.288 E16.95083
G1 X93.874 Y80.276 E16.97592
G1 X108.655 Y81.247 E17.34543
G1 X109.368 Y81.334 E17.36335
G1 X110.066 Y81.499 E17.38124
G1 X110.742 Y81.742 E17.39916
G1 X111.387 Y82.057 E17.41707
G1 X111.993 Y82.443 E17.43499
G1 X112.552 Y82.893 E17.45289
G1 X113.058 Y83.403 E17.47081
G1 X113.503 Y83.966 E17.48871
G1 X114.018 Y84.832 E17.51385
G1 X120.567 Y98.12 E17.88339
G1 X120.848 Y98.78 E17.90128
G1 X121.054 Y99.468 E17.9192
G1 X121.182 Y100.175 E17.93712
G1 X121.231 Y100.891 E17.95502
G1 X121.199 Y101.609 E17.97295
G1 X121.089 Y102.318 E17.99085
G1 X120.9 Y103.011 E18.00877
G1 X120.635 Y103.678 E18.02667
G1 X120.144 Y104.555 E18.05174
G1 X111.912 Y116.872 E18.42129
G1 X111.48 Y117.446 E18.43922
G1 X110.987 Y117.968 E18.45713
G1 X110.44 Y118.433 E18.47504
G1 X109.844 Y118.833 E18.49294
G1 X109.207 Y119.165 E18.51086
G1 X108.537 Y119.424 E18.52878
G1 X107.843 Y119.607 E18.54668
G1 X107.132 Y119.712 E18.56461
G1 X106.126 Y119.724 E18.58971
G1 X91.345 Y118.753 E18.95921
G1 X90.632 Y118.666 E18.97713
G1 X89.934 Y118.501 E18.99502
G1 X89.258 Y118.258 E19.01294
G1 X88.613 Y117.943 E19.03085
G1 X88.007 Y117.557 E19.04877
G1 X87.448 Y117.107 E19.06667
G1 X86.942 Y116.597 E19.08459
G1 X86.497 Y116.034 E19.1025
G1 X85.982 Y115.168 E19.12763
G1 X79.433 Y101.88 E19.49717
G1 X79.152 Y101.22 E19.51506
G1 X78.946 Y100.532 E19.53298
G1 X78.818 Y99.825 E19.5509
G1 X78.769 Y99.109 E19.56881
G1 X78.801 Y98.391 E19.58673
G1 X78.911 Y97.682 E19.60463
G1 X79.1 Y96.989 E19.62255
G1 X79.365 Y96.322 E19.64045
G1 X79.856 Y95.445 E19.66553
G1 X88.088 Y83.128 E20.03508
G1 X88.52 Y82.554 E20.053
G1 X89.013 Y82.032 E20.07091
G0 F2400 X89.243 Y82.227
G1 F1200 X89.781 Y81.777 E20.08841
G1 X90.367 Y81.391 E20.10591
G1 X90.992 Y81.075 E20.12338
G1 X91.65 Y80.832 E20.14088
G1 X92.331 Y80.665 E20.15837
G1 X93.026 Y80.577 E20.17584
G1 X93.854 Y80.575 E20.1965
G1 X108.635 Y81.546 E20.56601
G1 X109.331 Y81.632 E20.5835
G1 X110.013 Y81.796 E20.601
G1 X110.671 Y82.037 E20.61848
G1 X111.298 Y82.352 E20.63598
G1 X111.885 Y82.735 E20.65347
G1 X112.424 Y83.183 E20.67095
G1 X112.909 Y83.69 E20.68845
G1 X113.333 Y84.248 E20.70593
G1 X113.748 Y84.964 E20.72658
G1 X120.297 Y98.252 E21.09612
G1 X120.571 Y98.898 E21.11362
G1 X120.769 Y99.57 E21.1311
G1 X120.89 Y100.261 E21.1486
G1 X120.931 Y100.961 E21.16609
G1 X120.892 Y101.661 E21.18358
G1 X120.774 Y102.352 E21.20106
G1 X120.578 Y103.025 E21.21855
G1 X120.306 Y103.672 E21.23606
G1 X119.894 Y104.388 E21.25666
G1 X111.662 Y116.705 E21.62622
G1 X111.24 Y117.265 E21.64371
G1 X110.757 Y117.773 E21.66119
G1 X110.219 Y118.223 E21.67869
G1 X109.633 Y118.609 E21.69619
G1 X109.008 Y118.925 E21.71367
G1 X108.35 Y119.168 E21.73116
G1 X107.669 Y119.335 E21.74865
G1 X106.974 Y119.423 E21.76613
G1 X106.146 Y119.425 E21.78678
G1 X91.365 Y118.454 E22.15629
G1 X90.669 Y118.368 E22.17379
G1 X89.987 Y118.204 E22.19128
G1 X89.329 Y117.963 E22.20876
G1 X88.702 Y117.648 E22.22627
G1 X88.115 Y117.265 E22.24375
G1 X87.576 Y116.817 E22.26123
G1 X87.091 Y116.31 E22.27874
G1 X86.667 Y115.752 E22.29622
G1 X86.252 Y115.036 E22.31686
G1 X79.703 Y101.748 E22.6864
G1 X79.429 Y101.102 E22.70391
G1 X79.231 Y100.43 E22.72138
G1 X79.11 Y99.739 E22.73888
G1 X79.069 Y99.039 E22.75637
G1 X79.108 Y98.339 E22.77386
G1 X79.226 Y97.648 E22.79135
G1 X79.422 Y96.975 E22.80883
G1 X79.694 Y96.328 E22.82634
G1 X80.106 Y95.612 E22.84695
G1 X88.338 Y83.295 E23.2165
G1 X88.76 Y82.735 E23.23399
G1 X89.243 Y82.227 E23.25148
G0 F2400 X89.473 Y82.423
G1 F1200 X90.001 Y81.988 E23.26854
G1 X90.576 Y81.617 E23.28561
G1 X91.19 Y81.317 E23.30266
G1 X91.835 Y81.09 E23.31972
G1 X92.502 Y80.939 E23.33678
G1 X93.182 Y80.868 E23.35383
G1 X93.834 Y80.875 E23.3701
G1 X108.615 Y81.846 E23.73961
G1 X109.294 Y81.93 E23.75667
G1 X109.958 Y82.093 E23.77373
G1 X110.599 Y82.333 E23.7908
G1 X111.207 Y82.646 E23.80786
G1 X111.774 Y83.027 E23.8249
G1 X112.293 Y83.472 E23.84195
G1 X112.757 Y83.975 E23.85903
G1 X113.159 Y84.528 E23.87608
G1 X113.479 Y85.097 E23.89236
G1 X120.028 Y98.385 E24.26191
G1 X120.294 Y99.015 E24.27896
G1 X120.485 Y99.672 E24.29603
G1 X120.598 Y100.346 E24.31308
G1 X120.631 Y101.029 E24.33014
G1 X120.584 Y101.711 E24.34719
G1 X120.458 Y102.383 E24.36425
G1 X120.254 Y103.036 E24.38131
G1 X119.976 Y103.661 E24.39837
G1 X119.645 Y104.222 E24.41462
G1 X111.413 Y116.539 E24.78418
G1 X111 Y117.084 E24.80123
G1 X110.527 Y117.577 E24.81828
G1 X109.999 Y118.012 E24.83534
G1 X109.424 Y118.383 E24.85241
G1 X108.81 Y118.683 E24.86946
G1 X108.165 Y118.91 E24.88652
G1 X107.498 Y119.061 E24.90357
G1 X106.818 Y119.132 E24.92063
G1 X106.166 Y119.125 E24.93689
G1 X91.385 Y118.154 E25.3064
G1 X90.706 Y118.07 E25.32347
G1 X90.042 Y117.907 E25.34053
G1 X89.401 Y117.667 E25.3576
G1 X88.793 Y117.354 E25.37466
G1 X88.226 Y116.973 E25.3917
G1 X87.707 Y116.528 E25.40875
G1 X87.243 Y116.025 E25.42582
G1 X86.841 Y115.472 E25.44288
G1 X86.521 Y114.903 E25.45916
G1 X79.972 Y101.615 E25.8287
G1 X79.706 Y100.985 E25.84576
G1 X79.515 Y100.328 E25.86283
G1 X79.402 Y99.654 E25.87988
G1 X79.369 Y98.971 E25.89693
G1 X79.416 Y98.289 E25.91399
G1 X79.542 Y97.617 E25.93104
G1 X79.746 Y96.964 E25.94811
G1 X80.024 Y96.339 E25.96517
G1 X80.355 Y95.778 E25.98142
G1 X88.587 Y83.461 E26.35097
G1 X89 Y82.916 E26.36803
G1 X89.473 Y82.423 E26.38507
G0 F2400 X89.703 Y82.619
G1 F1200 X90.22 Y82.199 E26.40169
G1 X90.784 Y81.845 E26.4183
G1 X91.386 Y81.56 E26.43491
G1 X92.018 Y81.35 E26.45153
G1 X92.671 Y81.217 E26.46815
