;FLAVOR:Marlin
;TIME:2475
;Filament used: 1.68762m
;Layer height: 0.2
;Generated with Cura_SteamEngine 3.4.1
M190 S75
M104 S220
M109 S220
M82 ;absolute extrusion mode
G21 ;metric values
G90 ;absolute positioning
M82 ;set extruder to absolute mode
M107 ;start with the fan off
G28 X0 Y0 ;move X/Y to min endstops
G28 Z0 ;move Z to min endstops
G1 Z15.0 F9000 ;move the platform down 15mm
G92 E0 ;zero the extruded length
G1 F200 E3 ;extrude 3mm of feed stock
G92 E0 ;zero the extruded length again
G1 F9000
;Put printing message on LCD screen
M117 Printing...
G92 E0
G1 F1500 E-6.5
;LAYER_COUNT:101
;LAYER:0
M107
G0 F3000 X29.963 Y26.279 Z0.2
;TYPE:SKIRT
G1 F1500 E0
G1 F1200 X30.508 Y25.697 E0.01989
G1 X31.108 Y25.172 E0.03978
G1 X31.758 Y24.71 E0.05967
G1 X32.451 Y24.316 E0.07956
G1 X33.18 Y23.993 E0.09945
G1 X33.938 Y23.745 E0.11934
G1 X34.716 Y23.574 E0.13921
G1 X35.508 Y23.481 E0.1591
G1 X36.032 Y23.464 E0.17218
G1 X56.032 Y23.464 E0.67108
G1 X56.828 Y23.504 E0.69096
G1 X57.616 Y23.623 E0.71084
G1 X58.389 Y23.821 E0.73075
G1 X59.137 Y24.096 E0.75063
G1 X59.855 Y24.443 E0.77052
G1 X60.534 Y24.861 E0.79041
G1 X61.167 Y25.345 E0.81029
G1 X61.749 Y25.89 E0.83018
G1 X62.274 Y26.49 E0.85007
G1 X62.736 Y27.14 E0.86996
G1 X63.13 Y27.833 E0.88984
G1 X63.453 Y28.562 E0.90973
G1 X63.701 Y29.32 E0.92963
G1 X63.872 Y30.098 E0.9495
G1 X63.965 Y30.89 E0.96939
G1 X63.982 Y31.414 E0.98247
G1 X63.982 Y51.414 E1.48137
G1 X63.942 Y52.21 E1.50125
G1 X63.823 Y52.998 E1.52113
G1 X63.625 Y53.771 E1.54104
G1 X63.35 Y54.519 E1.56092
G1 X63.003 Y55.237 E1.58081
G1 X62.585 Y55.916 E1.6007
G1 X62.101 Y56.549 E1.62058
G1 X61.556 Y57.131 E1.64047
G1 X60.956 Y57.656 E1.66036
G1 X60.306 Y58.118 E1.68025
G1 X59.613 Y58.512 E1.70013
G1 X58.884 Y58.835 E1.72002
G1 X58.126 Y59.083 E1.73992
G1 X57.348 Y59.254 E1.75979
G1 X56.556 Y59.347 E1.77968
G1 X56.032 Y59.364 E1.79276
G1 X36.032 Y59.364 E2.29166
G1 X35.236 Y59.324 E2.31154
G1 X34.448 Y59.205 E2.33142
G1 X33.675 Y59.007 E2.35133
G1 X32.927 Y58.732 E2.37121
G1 X32.209 Y58.385 E2.3911
G1 X31.53 Y57.967 E2.41099
G1 X30.897 Y57.483 E2.43087
G1 X30.315 Y56.938 E2.45076
G1 X29.79 Y56.338 E2.47064
G1 X29.328 Y55.688 E2.49054
G1 X28.934 Y54.995 E2.51042
G1 X28.611 Y54.266 E2.53031
G1 X28.363 Y53.508 E2.55021
G1 X28.192 Y52.73 E2.57008
G1 X28.099 Y51.938 E2.58997
G1 X28.082 Y51.414 E2.60305
G1 X28.082 Y31.414 E3.10195
G1 X28.122 Y30.618 E3.12183
G1 X28.241 Y29.83 E3.14171
G1 X28.439 Y29.057 E3.16162
G1 X28.714 Y28.309 E3.1815
G1 X29.061 Y27.591 E3.20139
G1 X29.479 Y26.912 E3.22128
G1 X29.963 Y26.279 E3.24116
G0 F3000 X30.26 Y26.393
G1 F1200 X30.803 Y25.83 E3.26067
G1 X31.4 Y25.326 E3.28016
G1 X32.046 Y24.884 E3.29968
G1 X32.734 Y24.512 E3.31919
G1 X33.455 Y24.211 E3.33868
G1 X34.204 Y23.986 E3.35819
G1 X34.972 Y23.838 E3.3777
G1 X36.032 Y23.764 E3.40421
G1 X56.032 Y23.764 E3.90311
G1 X56.813 Y23.804 E3.92262
G1 X57.586 Y23.923 E3.94213
G1 X58.343 Y24.121 E3.96165
G1 X59.075 Y24.395 E3.98114
G1 X59.776 Y24.743 E4.00067
G1 X60.437 Y25.16 E4.02016
G1 X61.053 Y25.642 E4.03967
G1 X61.616 Y26.185 E4.05918
G1 X62.12 Y26.782 E4.07867
G1 X62.562 Y27.428 E4.0982
G1 X62.934 Y28.116 E4.11771
G1 X63.235 Y28.837 E4.1372
G1 X63.46 Y29.586 E4.15671
G1 X63.608 Y30.354 E4.17622
G1 X63.682 Y31.414 E4.20273
G1 X63.682 Y51.414 E4.70163
G1 X63.642 Y52.195 E4.72113
G1 X63.523 Y52.968 E4.74064
G1 X63.325 Y53.725 E4.76016
G1 X63.051 Y54.457 E4.77966
G1 X62.703 Y55.158 E4.79918
G1 X62.286 Y55.819 E4.81868
G1 X61.804 Y56.435 E4.83819
G1 X61.261 Y56.998 E4.8577
G1 X60.664 Y57.502 E4.87719
G1 X60.018 Y57.944 E4.89672
G1 X59.33 Y58.316 E4.91623
G1 X58.609 Y58.617 E4.93572
G1 X57.86 Y58.842 E4.95523
G1 X57.092 Y58.99 E4.97474
G1 X56.032 Y59.064 E5.00124
G1 X36.032 Y59.064 E5.50014
G1 X35.251 Y59.024 E5.51965
G1 X34.478 Y58.905 E5.53916
G1 X33.721 Y58.707 E5.55868
G1 X32.989 Y58.433 E5.57818
G1 X32.288 Y58.085 E5.5977
G1 X31.627 Y57.668 E5.6172
G1 X31.011 Y57.186 E5.63671
G1 X30.448 Y56.643 E5.65622
G1 X29.944 Y56.046 E5.67571
G1 X29.502 Y55.4 E5.69523
G1 X29.13 Y54.712 E5.71474
G1 X28.829 Y53.991 E5.73423
G1 X28.604 Y53.242 E5.75374
G1 X28.456 Y52.474 E5.77325
G1 X28.382 Y51.414 E5.79976
G1 X28.382 Y31.414 E6.29866
G1 X28.422 Y30.633 E6.31817
G1 X28.541 Y29.86 E6.33768
G1 X28.739 Y29.103 E6.3572
G1 X29.013 Y28.371 E6.37669
G1 X29.361 Y27.67 E6.39622
G1 X29.778 Y27.009 E6.41571
G1 X30.26 Y26.393 E6.43522
G0 F3000 X30.557 Y26.51
G1 F1200 X31.097 Y25.967 E6.45433
G1 X31.691 Y25.483 E6.47344
G1 X32.333 Y25.063 E6.49258
G1 X33.014 Y24.712 E6.51169
G1 X33.729 Y24.434 E6.53083
G1 X34.468 Y24.232 E6.54994
G1 X35.225 Y24.108 E6.56907
G1 X36.032 Y24.064 E6.58923
G1 X56.032 Y24.064 E7.08813
G1 X56.798 Y24.104 E7.10727
G1 X57.555 Y24.223 E7.12638
G1 X58.295 Y24.421 E7.14549
G1 X59.011 Y24.695 E7.16462
G1 X59.695 Y25.042 E7.18375
G1 X60.339 Y25.458 E7.20287
G1 X60.936 Y25.939 E7.222
G1 X61.479 Y26.479 E7.2411
G1 X61.963 Y27.073 E7.26021
G1 X62.383 Y27.715 E7.27935
G1 X62.734 Y28.396 E7.29846
G1 X63.012 Y29.111 E7.3176
G1 X63.214 Y29.85 E7.33671
G1 X63.338 Y30.607 E7.35584
G1 X63.382 Y31.414 E7.37601
G1 X63.382 Y51.414 E7.87491
G1 X63.342 Y52.18 E7.89404
G1 X63.223 Y52.937 E7.91316
G1 X63.025 Y53.677 E7.93227
G1 X62.751 Y54.393 E7.95139
G1 X62.404 Y55.077 E7.97052
G1 X61.988 Y55.721 E7.98965
G1 X61.507 Y56.318 E8.00877
G1 X60.967 Y56.861 E8.02787
G1 X60.373 Y57.345 E8.04699
G1 X59.731 Y57.765 E8.06612
G1 X59.05 Y58.116 E8.08524
G1 X58.335 Y58.394 E8.10437
G1 X57.596 Y58.596 E8.12348
G1 X56.839 Y58.72 E8.14262
G1 X56.032 Y58.764 E8.16278
G1 X36.032 Y58.764 E8.66168
G1 X35.266 Y58.724 E8.68081
G1 X34.509 Y58.605 E8.69993
G1 X33.769 Y58.407 E8.71904
G1 X33.053 Y58.133 E8.73816
G1 X32.369 Y57.786 E8.7573
G1 X31.725 Y57.37 E8.77642
G1 X31.128 Y56.889 E8.79554
G1 X30.585 Y56.349 E8.81465
G1 X30.101 Y55.755 E8.83376
G1 X29.681 Y55.113 E8.8529
G1 X29.33 Y54.432 E8.87201
G1 X29.052 Y53.717 E8.89115
G1 X28.85 Y52.978 E8.91026
G1 X28.726 Y52.221 E8.92939
G1 X28.682 Y51.414 E8.94955
G1 X28.682 Y31.414 E9.44845
G1 X28.722 Y30.648 E9.46759
G1 X28.841 Y29.891 E9.4867
G1 X29.039 Y29.151 E9.50581
G1 X29.313 Y28.435 E9.52494
G1 X29.66 Y27.751 E9.54407
G1 X30.076 Y27.107 E9.56319
G1 X30.557 Y26.51 E9.58232
G0 F3000 X30.853 Y26.63
G1 F1200 X31.391 Y26.107 E9.60103
G1 X31.982 Y25.643 E9.61978
G1 X32.619 Y25.245 E9.63851
G1 X33.294 Y24.917 E9.65724
G1 X34 Y24.663 E9.67595
G1 X34.73 Y24.485 E9.6947
G1 X35.474 Y24.386 E9.71342
G1 X36.032 Y24.364 E9.72735
G1 X56.032 Y24.364 E10.22625
G1 X56.782 Y24.404 E10.24499
G1 X57.523 Y24.523 E10.26371
G1 X58.247 Y24.721 E10.28243
G1 X58.946 Y24.995 E10.30116
G1 X59.612 Y25.341 E10.31988
G1 X60.238 Y25.756 E10.33862
G1 X60.816 Y26.235 E10.35734
G1 X61.339 Y26.773 E10.37606
G1 X61.803 Y27.364 E10.3948
G1 X62.201 Y28.001 E10.41354
G1 X62.529 Y28.676 E10.43226
G1 X62.783 Y29.382 E10.45097
G1 X62.961 Y30.112 E10.46972
G1 X63.06 Y30.856 E10.48844
G1 X63.082 Y31.414 E10.50237
G1 X63.082 Y51.414 E11.00127
G1 X63.042 Y52.164 E11.02001
G1 X62.923 Y52.905 E11.03873
G1 X62.725 Y53.629 E11.05745
G1 X62.451 Y54.328 E11.07618
G1 X62.105 Y54.994 E11.0949
G1 X61.69 Y55.62 E11.11364
G1 X61.211 Y56.198 E11.13236
G1 X60.673 Y56.721 E11.15108
G1 X60.082 Y57.185 E11.16982
G1 X59.445 Y57.583 E11.18856
G1 X58.77 Y57.911 E11.20728
G1 X58.064 Y58.165 E11.226
G1 X57.334 Y58.343 E11.24474
G1 X56.59 Y58.442 E11.26346
G1 X56.032 Y58.464 E11.27739
G1 X36.032 Y58.464 E11.7763
G1 X35.282 Y58.424 E11.79503
G1 X34.541 Y58.305 E11.81375
G1 X33.817 Y58.107 E11.83248
G1 X33.118 Y57.833 E11.85121
G1 X32.452 Y57.487 E11.86993
G1 X31.826 Y57.072 E11.88866
G1 X31.248 Y56.593 E11.90739
G1 X30.725 Y56.055 E11.9261
G1 X30.261 Y55.464 E11.94485
G1 X29.863 Y54.827 E11.96358
G1 X29.535 Y54.152 E11.98231
G1 X29.281 Y53.446 E12.00102
G1 X29.103 Y52.716 E12.01977
G1 X29.004 Y51.972 E12.03849
G1 X28.982 Y51.414 E12.05242
G1 X28.982 Y31.414 E12.55132
G1 X29.022 Y30.664 E12.57006
G1 X29.141 Y29.923 E12.58878
G1 X29.339 Y29.199 E12.6075
G1 X29.613 Y28.5 E12.62623
G1 X29.959 Y27.834 E12.64495
G1 X30.374 Y27.208 E12.66369
G1 X30.853 Y26.63 E12.68241
G0 F3000 X30.672 Y27.311
G1 F1200 X31.149 Y26.753 E12.70072
G1 X31.685 Y26.25 E12.71906
G1 X32.272 Y25.808 E12.73739
G1 X32.903 Y25.433 E12.7557
G1 X33.571 Y25.128 E12.77402
G1 X34.269 Y24.898 E12.79235
G1 X34.988 Y24.745 E12.81069
G1 X36.032 Y24.664 E12.83681
G1 X56.032 Y24.664 E13.33571
G1 X56.765 Y24.704 E13.35402
G1 X57.49 Y24.823 E13.37235
G1 X58.198 Y25.021 E13.39069
G1 X58.88 Y25.294 E13.40901
G1 X59.528 Y25.64 E13.42734
G1 X60.135 Y26.054 E13.44567
G1 X60.693 Y26.531 E13.46398
G1 X61.196 Y27.067 E13.48231
G1 X61.638 Y27.654 E13.50064
G1 X62.013 Y28.285 E13.51895
G1 X62.318 Y28.953 E13.53727
G1 X62.548 Y29.651 E13.5556
G1 X62.701 Y30.37 E13.57394
G1 X62.782 Y31.414 E13.60006
G1 X62.782 Y51.414 E14.09896
G1 X62.742 Y52.147 E14.11728
G1 X62.623 Y52.872 E14.1356
G1 X62.425 Y53.58 E14.15394
G1 X62.152 Y54.262 E14.17227
G1 X61.806 Y54.91 E14.19059
G1 X61.392 Y55.517 E14.20892
G1 X60.915 Y56.075 E14.22723
G1 X60.379 Y56.578 E14.24557
G1 X59.792 Y57.02 E14.2639
G1 X59.161 Y57.395 E14.28221
G1 X58.493 Y57.7 E14.30053
G1 X57.795 Y57.93 E14.31886
G1 X57.076 Y58.083 E14.3372
G1 X56.032 Y58.164 E14.36332
G1 X36.032 Y58.164 E14.86222
G1 X35.299 Y58.124 E14.88053
G1 X34.574 Y58.005 E14.89886
G1 X33.866 Y57.807 E14.9172
G1 X33.184 Y57.534 E14.93552
G1 X32.536 Y57.188 E14.95385
G1 X31.929 Y56.774 E14.97217
G1 X31.371 Y56.297 E14.99049
G1 X30.868 Y55.761 E15.00882
G1 X30.426 Y55.174 E15.02715
G1 X30.051 Y54.543 E15.04546
G1 X29.746 Y53.875 E15.06378
G1 X29.516 Y53.177 E15.08211
G1 X29.363 Y52.458 E15.10045
G1 X29.282 Y51.414 E15.12657
G1 X29.282 Y31.414 E15.62547
G1 X29.322 Y30.681 E15.64378
G1 X29.441 Y29.956 E15.66211
G1 X29.639 Y29.248 E15.68045
G1 X29.912 Y28.566 E15.69878
G1 X30.258 Y27.918 E15.7171
G1 X30.672 Y27.311 E15.73543
G0 F3000 X30.97 Y27.417
G1 F1200 X31.445 Y26.879 E15.75333
G1 X31.978 Y26.398 E15.77124
G1 X32.56 Y25.978 E15.78914
G1 X33.186 Y25.626 E15.80706
G1 X33.847 Y25.345 E15.82498
G1 X34.535 Y25.14 E15.84288
G1 X35.242 Y25.013 E15.8608
G1 X36.032 Y24.964 E15.88055
G1 X56.032 Y24.964 E16.37945
G1 X56.749 Y25.004 E16.39736
G1 X57.457 Y25.123 E16.41527
G1 X58.147 Y25.321 E16.43318
G1 X58.812 Y25.594 E16.45111
G1 X59.441 Y25.939 E16.46901
G1 X60.029 Y26.352 E16.48693
G1 X60.567 Y26.827 E16.50483
G1 X61.048 Y27.36 E16.52274
G1 X61.468 Y27.942 E16.54065
G1 X61.82 Y28.568 E16.55856
G1 X62.101 Y29.229 E16.57648
G1 X62.306 Y29.917 E16.59438
G1 X62.433 Y30.624 E16.6123
G1 X62.482 Y31.414 E16.63205
G1 X62.482 Y51.414 E17.13095
G1 X62.442 Y52.131 E17.14886
G1 X62.323 Y52.839 E17.16677
G1 X62.125 Y53.529 E17.18468
G1 X61.852 Y54.194 E17.20261
G1 X61.507 Y54.823 E17.22051
G1 X61.094 Y55.411 E17.23843
G1 X60.619 Y55.949 E17.25633
G1 X60.086 Y56.43 E17.27424
G1 X59.504 Y56.85 E17.29215
G1 X58.878 Y57.202 E17.31006
G1 X58.217 Y57.483 E17.32798
G1 X57.529 Y57.688 E17.34589
G1 X56.822 Y57.815 E17.3638
G1 X56.032 Y57.864 E17.38355
G1 X36.032 Y57.864 E17.88245
G1 X35.315 Y57.824 E17.90036
G1 X34.607 Y57.705 E17.91827
G1 X33.917 Y57.507 E17.93618
G1 X33.252 Y57.234 E17.95411
G1 X32.623 Y56.889 E17.97201
G1 X32.035 Y56.476 E17.98993
G1 X31.497 Y56.001 E18.00783
G1 X31.016 Y55.468 E18.02574
G1 X30.596 Y54.886 E18.04365
G1 X30.244 Y54.26 E18.06156
G1 X29.963 Y53.599 E18.07948
G1 X29.758 Y52.911 E18.09739
G1 X29.631 Y52.204 E18.11531
G1 X29.582 Y51.414 E18.13505
G1 X29.582 Y31.414 E18.63395
G1 X29.622 Y30.697 E18.65187
G1 X29.741 Y29.989 E18.66977
G1 X29.939 Y29.299 E18.68768
G1 X30.212 Y28.634 E18.70561
G1 X30.557 Y28.005 E18.72351
G1 X30.97 Y27.417 E18.74143
G0 F3000 X31.267 Y27.526
G1 F1200 X31.741 Y27.009 E18.75893
G1 X32.27 Y26.549 E18.77642
G1 X32.848 Y26.152 E18.79391
G1 X33.468 Y25.824 E18.81141
G1 X34.121 Y25.569 E18.82889
G1 X34.798 Y25.389 E18.84637
G1 X35.492 Y25.288 E18.86386
G1 X36.032 Y25.264 E18.87735
G1 X56.032 Y25.264 E19.37625
G1 X56.732 Y25.304 E19.39374
G1 X57.423 Y25.423 E19.41123
G1 X58.096 Y25.621 E19.42873
G1 X58.742 Y25.893 E19.44621
G1 X59.353 Y26.237 E19.4637
G1 X59.92 Y26.649 E19.48119
G1 X60.437 Y27.123 E19.49868
G1 X60.897 Y27.652 E19.51617
G1 X61.294 Y28.23 E19.53366
G1 X61.622 Y28.85 E19.55116
G1 X61.877 Y29.503 E19.56865
G1 X62.057 Y30.18 E19.58612
G1 X62.158 Y30.874 E19.60362
G1 X62.182 Y31.414 E19.6171
G1 X62.182 Y51.414 E20.116
G1 X62.142 Y52.114 E20.13349
G1 X62.023 Y52.805 E20.15098
G1 X61.825 Y53.478 E20.16848
G1 X61.553 Y54.124 E20.18597
G1 X61.209 Y54.735 E20.20346
G1 X60.797 Y55.302 E20.22094
G1 X60.323 Y55.819 E20.23844
G1 X59.794 Y56.279 E20.25592
G1 X59.216 Y56.676 E20.27342
G1 X58.596 Y57.004 E20.29091
G1 X57.943 Y57.259 E20.3084
G1 X57.266 Y57.439 E20.32587
G1 X56.572 Y57.54 E20.34337
G1 X56.032 Y57.564 E20.35685
G1 X36.032 Y57.564 E20.85575
G1 X35.332 Y57.524 E20.87324
G1 X34.641 Y57.405 E20.89074
G1 X33.968 Y57.207 E20.90824
G1 X33.322 Y56.935 E20.92572
G1 X32.711 Y56.591 E20.94321
G1 X32.144 Y56.179 E20.96069
G1 X31.627 Y55.705 E20.97819
G1 X31.167 Y55.176 E20.99568
G1 X30.77 Y54.598 E21.01317
G1 X30.442 Y53.978 E21.03067
G1 X30.187 Y53.325 E21.04815
G1 X30.007 Y52.648 E21.06563
G1 X29.906 Y51.954 E21.08312
G1 X29.882 Y51.414 E21.09661
G1 X29.882 Y31.414 E21.59551
G1 X29.922 Y30.714 E21.613
G1 X30.041 Y30.023 E21.63049
G1 X30.239 Y29.35 E21.64799
G1 X30.511 Y28.704 E21.66547
G1 X30.855 Y28.093 E21.68296
G1 X31.267 Y27.526 E21.70045
G0 F3000 X31.564 Y27.638
G1 F1200 X32.035 Y27.142 E21.71751
G1 X32.561 Y26.705 E21.73457
G1 X33.135 Y26.332 E21.75165
G1 X33.747 Y26.029 E21.76868
G1 X34.391 Y25.799 E21.78574
G1 X35.058 Y25.646 E21.80281
G1 X36.032 Y25.564 E21.82719
G1 X56.032 Y25.564 E22.32609
G1 X56.715 Y25.604 E22.34316
G1 X57.388 Y25.723 E22.36021
G1 X58.043 Y25.92 E22.37727
G1 X58.67 Y26.193 E22.39433
G1 X59.261 Y26.536 E22.41138
G1 X59.808 Y26.946 E22.42843
G1 X60.304 Y27.417 E22.44549
G1 X60.741 Y27.943 E22.46255
G1 X61.114 Y28.517 E22.47962
G1 X61.417 Y29.129 E22.49666
G1 X61.647 Y29.773 E22.51372
G1 X61.8 Y30.44 E22.53079
G1 X61.882 Y31.414 E22.55517
G1 X61.882 Y51.414 E23.05407
G1 X61.842 Y52.097 E23.07114
G1 X61.723 Y52.77 E23.08819
G1 X61.526 Y53.425 E23.10525
G1 X61.253 Y54.052 E23.12231
G1 X60.91 Y54.643 E23.13936
G1 X60.5 Y55.19 E23.15641
G1 X60.029 Y55.686 E23.17347
G1 X59.503 Y56.123 E23.19053
G1 X58.929 Y56.496 E23.2076
G1 X58.317 Y56.799 E23.22464
G1 X57.673 Y57.029 E23.2417
G1 X57.006 Y57.182 E23.25877
G1 X56.032 Y57.264 E23.28315
G1 X36.032 Y57.264 E23.78205
G1 X35.349 Y57.224 E23.79912
G1 X34.676 Y57.105 E23.81617
G1 X34.021 Y56.908 E23.83323
G1 X33.394 Y56.635 E23.85029
G1 X32.803 Y56.292 E23.86733
G1 X32.256 Y55.882 E23.88439
G1 X31.76 Y55.411 E23.90145
G1 X31.323 Y54.885 E23.91851
G1 X30.95 Y54.311 E23.93558
G1 X30.647 Y53.699 E23.95262
G1 X30.417 Y53.055 E23.96968
G1 X30.264 Y52.388 E23.98675
G1 X30.182 Y51.414 E24.01113
G1 X30.182 Y31.414 E24.51003
G1 X30.222 Y30.731 E24.5271
G1 X30.341 Y30.058 E24.54415
G1 X30.538 Y29.403 E24.56121
G1 X30.811 Y28.776 E24.57827
G1 X31.154 Y28.185 E24.59531
G1 X31.564 Y27.638 E24.61237
G0 F3000 X31.861 Y27.752
G1 F1200 X32.33 Y27.279 E24.62898
G1 X32.852 Y26.865 E24.6456
G1 X33.42 Y26.517 E24.66222
G1 X34.025 Y26.24 E24.67882
G1 X34.659 Y26.036 E24.69543
G1 X35.313 Y25.911 E24.71204
G1 X36.032 Y25.864 E24.73001
G1 X56.032 Y25.864 E25.22892
G1 X56.697 Y25.904 E25.24553
G1 X57.352 Y26.023 E25.26214
G1 X57.988 Y26.22 E25.27875
G1 X58.596 Y26.492 E25.29537
G1 X59.168 Y26.835 E25.312
G1 X59.694 Y27.243 E25.32861
G1 X60.167 Y27.712 E25.34522
G1 X60.581 Y28.234 E25.36184
G1 X60.929 Y28.802 E25.37846
G1 X61.206 Y29.407 E25.39506
G1 X61.41 Y30.041 E25.41167
G1 X61.535 Y30.695 E25.42828
G1 X61.582 Y31.414 E25.44626
G1 X61.582 Y51.414 E25.94516
G1 X61.542 Y52.079 E25.96178
G1 X61.423 Y52.734 E25.97838
G1 X61.226 Y53.37 E25.99499
G1 X60.954 Y53.978 E26.01161
G1 X60.611 Y54.55 E26.02824
G1 X60.203 Y55.076 E26.04485
G1 X59.734 Y55.549 E26.06147
G1 X59.212 Y55.963 E26.07809
G1 X58.644 Y56.311 E26.0947
G1 X58.039 Y56.588 E26.1113
G1 X57.405 Y56.792 E26.12791
G1 X56.751 Y56.917 E26.14452
G1 X56.032 Y56.964 E26.1625
G1 X36.032 Y56.964 E26.6614
