;FLAVOR:Marlin
;TIME:1661
;Filament used: 1.13852m
;Layer height: 0.2
;Generated with Cura_SteamEngine 3.4.1
M190 S60
M104 S200
M109 S200
M82 ;absolute extrusion mode
G21 ;metric values
G90 ;absolute positioning
M82 ;set extruder to absolute mode
M107 ;start with the fan off
G28 X0 Y0 ;move X/Y to min endstops
G28 Z0 ;move Z to min endstops
G1 Z15.0 F9000 ;move the platform down 15mm
G92 E0 ;zero the extruded length
G1 F200 E3 ;extrude 3mm of feed stock
G92 E0 ;zero the extruded length again
G1 F9000
;Put printing message on LCD screen
M117 Printing...
G92 E0
G1 F1500 E-6.5
;LAYER_COUNT:236
;LAYER:0
M107
G0 F3600 X23.546 Y25.131 Z0.3
;TYPE:SKIRT
G1 F1500 E0
G1 F1800 X24.123 Y24.591 E0.03943
G1 X24.751 Y24.112 E0.07883
G1 X25.142 Y23.861 E0.10201
G1 X28.887 Y21.611 E0.31998
G1 X29.584 Y21.239 E0.35939
G1 X30.314 Y20.939 E0.39877
G1 X30.756 Y20.799 E0.4219
G1 X34.958 Y19.595 E0.63998
G1 X35.727 Y19.416 E0.67937
G1 X36.51 Y19.316 E0.71875
G1 X36.969 Y19.294 E0.74167
G1 X41.339 Y19.217 E0.95973
G1 X42.128 Y19.243 E0.99911
G1 X42.91 Y19.349 E1.03848
G1 X43.362 Y19.447 E1.06156
G1 X47.6 Y20.503 E1.27946
G1 X48.356 Y20.733 E1.31888
G1 X49.084 Y21.038 E1.35826
G1 X49.497 Y21.251 E1.38144
G1 X53.32 Y23.371 E1.59954
G1 X53.99 Y23.788 E1.63891
G1 X54.615 Y24.271 E1.67832
G1 X54.953 Y24.579 E1.70113
G1 X58.098 Y27.614 E1.91918
G1 X58.638 Y28.191 E1.95861
G1 X59.117 Y28.819 E1.99801
G1 X59.368 Y29.211 E2.02124
G1 X61.617 Y32.955 E2.23913
G1 X61.989 Y33.651 E2.27851
G1 X62.289 Y34.382 E2.31793
G1 X62.429 Y34.821 E2.34092
G1 X63.634 Y39.023 E2.559
G1 X63.813 Y39.792 E2.5984
G1 X63.913 Y40.575 E2.63778
G1 X63.935 Y41.036 E2.6608
G1 X64.012 Y45.408 E2.87896
G1 X63.986 Y46.197 E2.91834
G1 X63.88 Y46.979 E2.95771
G1 X63.781 Y47.431 E2.9808
G1 X62.725 Y51.668 E3.19865
G1 X62.496 Y52.424 E3.23806
G1 X62.191 Y53.152 E3.27744
G1 X61.978 Y53.565 E3.30062
G1 X59.858 Y57.388 E3.51871
G1 X59.441 Y58.058 E3.55808
G1 X58.958 Y58.683 E3.59749
G1 X58.65 Y59.021 E3.62031
G1 X55.615 Y62.166 E3.83836
G1 X55.038 Y62.706 E3.87778
G1 X54.41 Y63.185 E3.91719
G1 X54.018 Y63.437 E3.94044
G1 X50.273 Y65.686 E4.15838
G1 X49.576 Y66.058 E4.19779
G1 X48.845 Y66.357 E4.2372
G1 X48.408 Y66.497 E4.26009
G1 X44.207 Y67.702 E4.47813
G1 X43.437 Y67.881 E4.51757
G1 X42.654 Y67.981 E4.55695
G1 X42.193 Y68.003 E4.57998
G1 X37.822 Y68.08 E4.79808
G1 X37.033 Y68.054 E4.83747
G1 X36.251 Y67.948 E4.87684
G1 X35.799 Y67.85 E4.89991
G1 X31.561 Y66.794 E5.11781
G1 X30.805 Y66.564 E5.15724
G1 X30.077 Y66.259 E5.19661
G1 X29.664 Y66.046 E5.2198
G1 X25.841 Y63.926 E5.43789
G1 X25.171 Y63.509 E5.47726
G1 X24.546 Y63.026 E5.51667
G1 X24.208 Y62.718 E5.53948
G1 X21.063 Y59.683 E5.75753
G1 X20.523 Y59.106 E5.79696
G1 X20.044 Y58.478 E5.83637
G1 X19.791 Y58.084 E5.85973
G1 X17.543 Y54.339 E6.07764
G1 X17.172 Y53.643 E6.11699
G1 X16.872 Y52.912 E6.15641
G1 X16.734 Y52.477 E6.17918
G1 X15.528 Y48.275 E6.39728
G1 X15.349 Y47.506 E6.43667
G1 X15.248 Y46.722 E6.47611
G1 X15.226 Y46.26 E6.49919
G1 X15.149 Y41.889 E6.71729
G1 X15.175 Y41.1 E6.75667
G1 X15.281 Y40.318 E6.79605
G1 X15.38 Y39.866 E6.81913
G1 X16.436 Y35.629 E7.03698
G1 X16.665 Y34.873 E7.07639
G1 X16.97 Y34.145 E7.11577
G1 X17.183 Y33.732 E7.13895
G1 X19.303 Y29.909 E7.35705
G1 X19.72 Y29.239 E7.39642
G1 X20.203 Y28.614 E7.43583
G1 X20.511 Y28.276 E7.45864
G1 X23.546 Y25.131 E7.67669
G0 F3600 X23.834 Y25.408
G1 F1800 X24.396 Y24.883 E7.71506
G1 X25.01 Y24.42 E7.75343
G1 X25.348 Y24.204 E7.77344
G1 X29.093 Y21.954 E7.9914
G1 X29.772 Y21.592 E8.02979
G1 X30.485 Y21.304 E8.06816
G1 X30.866 Y21.183 E8.0881
G1 X35.068 Y19.979 E8.30618
G1 X35.817 Y19.806 E8.34453
G1 X36.58 Y19.712 E8.38288
G1 X36.976 Y19.694 E8.40266
G1 X41.346 Y19.617 E8.62071
G1 X42.114 Y19.644 E8.65905
G1 X42.876 Y19.75 E8.69743
G1 X43.265 Y19.836 E8.71731
G1 X47.503 Y20.892 E8.93521
G1 X48.239 Y21.116 E8.97359
G1 X48.947 Y21.416 E9.01195
G1 X49.303 Y21.6 E9.03195
G1 X53.126 Y23.72 E9.25004
G1 X53.778 Y24.128 E9.28841
G1 X54.385 Y24.601 E9.3268
G1 X54.676 Y24.867 E9.34647
G1 X57.821 Y27.902 E9.56452
G1 X58.346 Y28.464 E9.60289
G1 X58.809 Y29.078 E9.64126
G1 X59.026 Y29.416 E9.6613
G1 X61.275 Y33.16 E9.8792
G1 X61.636 Y33.84 E9.91761
G1 X61.925 Y34.552 E9.95594
G1 X62.044 Y34.931 E9.97576
G1 X63.249 Y39.133 E10.19385
G1 X63.423 Y39.883 E10.23226
G1 X63.517 Y40.646 E10.27062
G1 X63.535 Y41.043 E10.29044
G1 X63.612 Y45.415 E10.5086
G1 X63.585 Y46.183 E10.54694
G1 X63.479 Y46.945 E10.58532
G1 X63.393 Y47.335 E10.60524
G1 X62.337 Y51.572 E10.82309
G1 X62.113 Y52.307 E10.86143
G1 X61.813 Y53.016 E10.89984
G1 X61.629 Y53.371 E10.91978
G1 X59.509 Y57.194 E11.13788
G1 X59.101 Y57.846 E11.17625
G1 X58.628 Y58.453 E11.21464
G1 X58.362 Y58.744 E11.23431
G1 X55.327 Y61.889 E11.45236
G1 X54.765 Y62.414 E11.49073
G1 X54.151 Y62.877 E11.5291
G1 X53.812 Y63.094 E11.54918
G1 X50.067 Y65.343 E11.76712
G1 X49.388 Y65.704 E11.80549
G1 X48.675 Y65.993 E11.84387
G1 X48.297 Y66.112 E11.86364
G1 X44.096 Y67.317 E12.08168
G1 X43.347 Y67.491 E12.12004
G1 X42.584 Y67.585 E12.1584
G1 X42.186 Y67.603 E12.17827
G1 X37.815 Y67.68 E12.39638
G1 X37.047 Y67.653 E12.43472
G1 X36.285 Y67.547 E12.4731
G1 X35.896 Y67.461 E12.49297
G1 X31.658 Y66.405 E12.71087
G1 X30.922 Y66.181 E12.74926
G1 X30.214 Y65.881 E12.78762
G1 X29.858 Y65.697 E12.80761
G1 X26.035 Y63.577 E13.0257
G1 X25.383 Y63.169 E13.06408
G1 X24.776 Y62.696 E13.10247
G1 X24.485 Y62.43 E13.12214
G1 X21.34 Y59.395 E13.34019
G1 X20.815 Y58.833 E13.37856
G1 X20.352 Y58.219 E13.41692
G1 X20.134 Y57.879 E13.43707
G1 X17.886 Y54.134 E13.65499
G1 X17.525 Y53.454 E13.6934
G1 X17.237 Y52.741 E13.73176
G1 X17.118 Y52.366 E13.75139
G1 X15.912 Y48.164 E13.96949
G1 X15.739 Y47.415 E14.00784
G1 X15.644 Y46.652 E14.0462
G1 X15.626 Y46.253 E14.06613
G1 X15.549 Y41.882 E14.28424
G1 X15.576 Y41.114 E14.32257
G1 X15.682 Y40.352 E14.36096
G1 X15.768 Y39.962 E14.38088
G1 X16.824 Y35.725 E14.59873
G1 X17.048 Y34.99 E14.63707
G1 X17.348 Y34.281 E14.67548
G1 X17.532 Y33.926 E14.69542
G1 X19.652 Y30.103 E14.91352
G1 X20.06 Y29.451 E14.95189
G1 X20.533 Y28.844 E14.99028
G1 X20.799 Y28.553 E15.00995
G1 X23.834 Y25.408 E15.228
G0 F3600 X24.122 Y25.686
G1 F1800 X24.669 Y25.176 E15.26531
G1 X25.554 Y24.547 E15.31948
G1 X29.299 Y22.297 E15.53745
G1 X29.96 Y21.946 E15.57479
G1 X30.976 Y21.568 E15.62887
G1 X35.178 Y20.364 E15.84694
G1 X35.907 Y20.196 E15.88427
G1 X36.983 Y20.094 E15.93819
G1 X41.353 Y20.017 E16.15624
G1 X42.1 Y20.044 E16.19354
G1 X43.168 Y20.224 E16.24757
G1 X47.406 Y21.28 E16.46547
G1 X48.122 Y21.499 E16.50283
G1 X49.109 Y21.95 E16.55696
G1 X52.932 Y24.07 E16.77506
G1 X53.566 Y24.467 E16.81238
G1 X54.398 Y25.155 E16.86624
G1 X57.543 Y28.19 E17.08429
G1 X58.053 Y28.737 E17.1216
G1 X58.683 Y29.622 E17.1758
G1 X60.932 Y33.366 E17.3937
G1 X61.282 Y34.027 E17.43101
G1 X61.66 Y35.041 E17.485
G1 X62.865 Y39.243 E17.70309
G1 X63.032 Y39.972 E17.7404
G1 X63.135 Y41.05 E17.79443
G1 X63.212 Y45.422 E18.01258
G1 X63.185 Y46.169 E18.04988
G1 X63.005 Y47.238 E18.10396
G1 X61.949 Y51.475 E18.32181
G1 X61.73 Y52.19 E18.35912
G1 X61.279 Y53.177 E18.41326
G1 X59.159 Y57 E18.63135
G1 X58.762 Y57.634 E18.66867
G1 X58.074 Y58.466 E18.72253
G1 X55.039 Y61.611 E18.94058
G1 X54.492 Y62.121 E18.97789
G1 X53.606 Y62.751 E19.03213
G1 X49.861 Y65 E19.25007
G1 X49.2 Y65.35 E19.28739
G1 X48.187 Y65.728 E19.34133
G1 X43.986 Y66.933 E19.55937
G1 X43.257 Y67.1 E19.59668
G1 X42.179 Y67.203 E19.65071
G1 X37.808 Y67.28 E19.86881
G1 X37.061 Y67.253 E19.90611
G1 X35.993 Y67.073 E19.96014
G1 X31.755 Y66.017 E20.17804
G1 X31.039 Y65.798 E20.21539
G1 X30.052 Y65.347 E20.26953
G1 X26.229 Y63.227 E20.48763
G1 X25.595 Y62.83 E20.52495
G1 X24.763 Y62.142 E20.57881
G1 X21.618 Y59.107 E20.79686
G1 X21.108 Y58.56 E20.83417
G1 X20.477 Y57.673 E20.88848
G1 X18.229 Y53.928 E21.10639
G1 X17.879 Y53.267 E21.14371
G1 X17.503 Y52.256 E21.19752
G1 X16.297 Y48.054 E21.41563
G1 X16.129 Y47.325 E21.45295
G1 X16.026 Y46.246 E21.50702
G1 X15.949 Y41.875 E21.72513
G1 X15.976 Y41.128 E21.76242
G1 X16.156 Y40.059 E21.8165
G1 X17.212 Y35.822 E22.03436
G1 X17.431 Y35.107 E22.07166
G1 X17.882 Y34.12 E22.1258
G1 X20.002 Y30.297 E22.34389
G1 X20.399 Y29.663 E22.38121
G1 X21.087 Y28.831 E22.43508
G1 X24.122 Y25.686 E22.65313
G0 F3600 X24.41 Y25.964
G1 F1800 X24.942 Y25.47 E22.68935
G1 X25.76 Y24.89 E22.73938
G1 X29.505 Y22.64 E22.95734
G1 X30.147 Y22.3 E22.99359
G1 X31.086 Y21.952 E23.04355
G1 X35.288 Y20.748 E23.26162
G1 X35.996 Y20.587 E23.29784
G1 X36.99 Y20.494 E23.34765
G1 X41.36 Y20.417 E23.56571
G1 X42.086 Y20.444 E23.60195
G1 X43.072 Y20.612 E23.65185
G1 X47.31 Y21.668 E23.86975
G1 X48.004 Y21.882 E23.90598
G1 X48.915 Y22.3 E23.95599
G1 X52.738 Y24.42 E24.17408
G1 X53.353 Y24.807 E24.21034
G1 X54.12 Y25.443 E24.26005
G1 X57.265 Y28.478 E24.4781
G1 X57.759 Y29.01 E24.51432
G1 X58.34 Y29.828 E24.56437
G1 X60.589 Y33.572 E24.78227
G1 X60.928 Y34.215 E24.81854
G1 X61.275 Y35.152 E24.86839
G1 X62.48 Y39.354 E25.08647
G1 X62.642 Y40.062 E25.12271
G1 X62.735 Y41.057 E25.17257
G1 X62.812 Y45.429 E25.39072
G1 X62.785 Y46.155 E25.42696
G1 X62.617 Y47.141 E25.47687
G1 X61.561 Y51.378 E25.69472
G1 X61.347 Y52.072 E25.73095
G1 X60.929 Y52.983 E25.78096
G1 X58.809 Y56.806 E25.99905
G1 X58.422 Y57.421 E26.0353
G1 X57.786 Y58.188 E26.08501
G1 X54.751 Y61.333 E26.30306
G1 X54.219 Y61.827 E26.33928
G1 X53.4 Y62.408 E26.38938
G1 X49.655 Y64.657 E26.60732
G1 X49.013 Y64.996 E26.64354
G1 X48.077 Y65.343 E26.69334
G1 X43.876 Y66.548 E26.91138
G1 X43.168 Y66.71 E26.94762
G1 X42.172 Y66.803 E26.99752
G1 X37.801 Y66.88 E27.21563
G1 X37.075 Y66.853 E27.25187
G1 X36.089 Y66.685 E27.30177
G1 X31.851 Y65.629 E27.51967
G1 X31.157 Y65.415 E27.55591
G1 X30.246 Y64.997 E27.60591
G1 X26.423 Y62.877 E27.82401
G1 X25.808 Y62.49 E27.86026
G1 X25.041 Y61.854 E27.90997
G1 X21.896 Y58.819 E28.12802
G1 X21.402 Y58.287 E28.16424
G1 X20.82 Y57.467 E28.21441
G1 X18.572 Y53.722 E28.43232
G1 X18.233 Y53.079 E28.46859
G1 X17.887 Y52.146 E28.51823
G1 X16.681 Y47.944 E28.73633
G1 X16.519 Y47.236 E28.77257
G1 X16.426 Y46.239 E28.82252
G1 X16.349 Y41.868 E29.04063
G1 X16.376 Y41.142 E29.07687
G1 X16.544 Y40.156 E29.12677
G1 X17.6 Y35.919 E29.34463
G1 X17.814 Y35.225 E29.38086
G1 X18.232 Y34.314 E29.43086
G1 X20.352 Y30.491 E29.64896
G1 X20.739 Y29.876 E29.68521
G1 X21.375 Y29.109 E29.73492
G1 X24.41 Y25.964 E29.95297
G0 F3600 X24.698 Y26.242
G1 F1800 X25.214 Y25.764 E29.98806
G1 X25.966 Y25.232 E30.03402
G1 X29.711 Y22.982 E30.25198
G1 X30.334 Y22.655 E30.28709
G1 X31.196 Y22.337 E30.33293
G1 X35.398 Y21.133 E30.551
G1 X36.085 Y20.978 E30.58614
G1 X36.997 Y20.894 E30.63183
G1 X41.367 Y20.817 E30.84988
G1 X42.07 Y20.845 E30.88498
G1 X42.975 Y21 E30.93079
G1 X47.213 Y22.056 E31.14869
G1 X47.885 Y22.265 E31.1838
G1 X48.721 Y22.65 E31.22972
G1 X52.544 Y24.77 E31.44781
G1 X53.139 Y25.146 E31.48293
G1 X53.842 Y25.731 E31.52856
G1 X56.987 Y28.766 E31.74661
G1 X57.465 Y29.282 E31.7817
G1 X57.997 Y30.034 E31.82766
G1 X60.246 Y33.778 E32.04555
G1 X60.573 Y34.402 E32.0807
G1 X60.891 Y35.262 E32.12645
G1 X62.096 Y39.464 E32.34453
G1 X62.251 Y40.151 E32.37967
G1 X62.335 Y41.064 E32.42541
G1 X62.412 Y45.436 E32.64357
G1 X62.384 Y46.139 E32.67867
G1 X62.229 Y47.044 E32.72447
G1 X61.173 Y51.281 E32.94233
G1 X60.964 Y51.954 E32.97748
G1 X60.579 Y52.789 E33.02336
G1 X58.459 Y56.612 E33.24145
G1 X58.083 Y57.207 E33.27657
G1 X57.498 Y57.91 E33.32219
G1 X54.463 Y61.055 E33.54024
G1 X53.947 Y61.533 E33.57534
G1 X53.194 Y62.065 E33.62133
G1 X49.449 Y64.314 E33.83927
G1 X48.826 Y64.642 E33.8744
G1 X47.966 Y64.959 E33.92013
G1 X43.765 Y66.164 E34.13817
G1 X43.079 Y66.319 E34.17326
G1 X42.165 Y66.403 E34.21905
G1 X37.794 Y66.48 E34.43715
G1 X37.091 Y66.452 E34.47225
G1 X36.186 Y66.297 E34.51806
G1 X31.948 Y65.241 E34.73596
G1 X31.276 Y65.032 E34.77107
G1 X30.44 Y64.647 E34.81699
G1 X26.617 Y62.527 E35.03508
G1 X26.022 Y62.151 E35.0702
G1 X25.319 Y61.566 E35.11582
G1 X22.174 Y58.531 E35.33388
G1 X21.696 Y58.015 E35.36897
G1 X21.163 Y57.261 E35.41503
G1 X18.915 Y53.516 E35.63295
G1 X18.588 Y52.893 E35.66805
G1 X18.272 Y52.035 E35.71367
G1 X17.066 Y47.833 E35.93177
G1 X16.91 Y47.147 E35.96687
G1 X16.826 Y46.232 E36.01271
G1 X16.749 Y41.861 E36.23082
G1 X16.777 Y41.158 E36.26592
G1 X16.932 Y40.253 E36.31172
G1 X17.988 Y36.016 E36.52957
G1 X18.197 Y35.343 E36.56473
G1 X18.582 Y34.508 E36.61061
G1 X20.702 Y30.685 E36.8287
G1 X21.078 Y30.09 E36.86381
G1 X21.663 Y29.387 E36.90944
G1 X24.698 Y26.242 E37.12749
G0 F3600 X24.985 Y26.519
G1 F1800 X25.486 Y26.058 E37.16146
G1 X26.172 Y25.575 E37.20332
G1 X29.917 Y23.325 E37.42128
G1 X30.52 Y23.01 E37.45522
G1 X31.306 Y22.721 E37.497
G1 X35.508 Y21.517 E37.71508
G1 X36.173 Y21.369 E37.74907
G1 X37.004 Y21.294 E37.7907
G1 X41.374 Y21.217 E38.00875
G1 X42.054 Y21.245 E38.0427
G1 X42.878 Y21.388 E38.08443
G1 X47.116 Y22.444 E38.30233
G1 X47.766 Y22.647 E38.3363
G1 X48.527 Y23 E38.37815
G1 X52.35 Y25.12 E38.59625
G1 X52.925 Y25.484 E38.6302
G1 X53.565 Y26.018 E38.67178
G1 X56.71 Y29.053 E38.88983
G1 X57.171 Y29.554 E38.9238
G1 X57.654 Y30.24 E38.96566
G1 X59.903 Y33.984 E39.18355
G1 X60.219 Y34.588 E39.21756
G1 X60.506 Y35.372 E39.25922
G1 X61.711 Y39.574 E39.4773
G1 X61.86 Y40.239 E39.5113
G1 X61.935 Y41.071 E39.55298
G1 X62.012 Y45.443 E39.77113
G1 X61.984 Y46.123 E39.80509
G1 X61.841 Y46.948 E39.84686
G1 X60.785 Y51.185 E40.06471
G1 X60.582 Y51.835 E40.09869
G1 X60.229 Y52.595 E40.14049
G1 X58.109 Y56.418 E40.35859
G1 X57.745 Y56.993 E40.39254
G1 X57.211 Y57.633 E40.43412
G1 X54.176 Y60.778 E40.65217
G1 X53.675 Y61.239 E40.68614
G1 X52.988 Y61.722 E40.72804
G1 X49.243 Y63.971 E40.94598
G1 X48.64 Y64.287 E40.97994
G1 X47.856 Y64.574 E41.02159
G1 X43.655 Y65.779 E41.23964
G1 X42.991 Y65.928 E41.27359
G1 X42.158 Y66.003 E41.31531
G1 X37.787 Y66.08 E41.53342
G1 X37.107 Y66.052 E41.56737
G1 X36.283 Y65.909 E41.60909
G1 X32.045 Y64.853 E41.82699
G1 X31.395 Y64.65 E41.86097
G1 X30.634 Y64.297 E41.90282
G1 X26.811 Y62.177 E42.12091
G1 X26.236 Y61.813 E42.15486
G1 X25.596 Y61.279 E42.19645
G1 X22.451 Y58.244 E42.4145
G1 X21.99 Y57.743 E42.44847
G1 X21.506 Y57.055 E42.49043
G1 X19.258 Y53.31 E42.70835
G1 X18.943 Y52.707 E42.74229
G1 X18.656 Y51.925 E42.78385
G1 X17.45 Y47.723 E43.00195
G1 X17.301 Y47.059 E43.0359
G1 X17.226 Y46.225 E43.07768
G1 X17.149 Y41.854 E43.29578
G1 X17.177 Y41.174 E43.32974
G1 X17.32 Y40.349 E43.37151
G1 X18.376 Y36.112 E43.58936
G1 X18.579 Y35.462 E43.62333
G1 X18.932 Y34.702 E43.66514
G1 X21.052 Y30.879 E43.88323
G1 X21.416 Y30.304 E43.91719
G1 X21.95 Y29.664 E43.95877
G1 X24.985 Y26.519 E44.17682
G0 F3600 X25.273 Y26.797
G1 F1800 X25.757 Y26.353 E44.20959
G1 X26.378 Y25.918 E44.24742
G1 X30.123 Y23.668 E44.46538
G1 X30.706 Y23.365 E44.49816
G1 X31.417 Y23.106 E44.53591
G1 X35.619 Y21.902 E44.75399
G1 X36.26 Y21.76 E44.78674
G1 X37.011 Y21.694 E44.82436
G1 X41.381 Y21.617 E45.04241
G1 X42.037 Y21.645 E45.07517
G1 X42.782 Y21.776 E45.11291
G1 X47.02 Y22.832 E45.33081
G1 X47.646 Y23.03 E45.36356
G1 X48.333 Y23.35 E45.40137
G1 X52.156 Y25.47 E45.61947
G1 X52.71 Y25.822 E45.65221
G1 X53.287 Y26.306 E45.68979
G1 X56.432 Y29.341 E45.90784
G1 X56.876 Y29.825 E45.9406
G1 X57.311 Y30.446 E45.97843
G1 X59.56 Y34.19 E46.19633
G1 X59.863 Y34.773 E46.22911
G1 X60.122 Y35.482 E46.26677
G1 X61.327 Y39.684 E46.48486
G1 X61.469 Y40.326 E46.51766
G1 X61.535 Y41.078 E46.55532
G1 X61.612 Y45.45 E46.77347
G1 X61.584 Y46.106 E46.80623
G1 X61.453 Y46.851 E46.84397
G1 X60.397 Y51.088 E47.06182
G1 X60.199 Y51.715 E47.09463
G1 X59.879 Y52.401 E47.13239
G1 X57.759 Y56.224 E47.35048
G1 X57.407 Y56.778 E47.38323
G1 X56.923 Y57.355 E47.4208
G1 X53.888 Y60.5 E47.63885
G1 X53.404 Y60.944 E47.67162
G1 X52.782 Y61.379 E47.70949
G1 X49.037 Y63.628 E47.92743
G1 X48.454 Y63.932 E47.96023
G1 X47.746 Y64.19 E47.99783
G1 X43.545 Y65.395 E48.21587
G1 X42.904 Y65.537 E48.24862
G1 X42.151 Y65.603 E48.28634
G1 X37.78 Y65.68 E48.50444
G1 X37.124 Y65.652 E48.5372
G1 X36.379 Y65.521 E48.57494
G1 X32.141 Y64.465 E48.79283
G1 X31.515 Y64.267 E48.82559
G1 X30.828 Y63.947 E48.8634
G1 X27.005 Y61.827 E49.08149
G1 X26.451 Y61.475 E49.11424
