;FLAVOR:Marlin
;TIME:746
;Filament used: 0.332493m
;Layer height: 0.2
;Generated with Cura_SteamEngine 3.4.1
M190 S75
M104 S220
M109 S220
M82 ;absolute extrusion mode
G21 ;metric values
G90 ;absolute positioning
M82 ;set extruder to absolute mode
M107 ;start with the fan off
G28 X0 Y0 ;move X/Y to min endstops
G28 Z0 ;move Z to min endstops
G1 Z15.0 F9000 ;move the platform down 15mm
G92 E0 ;zero the extruded length
G1 F200 E3 ;extrude 3mm of feed stock
G92 E0 ;zero the extruded length again
G1 F9000
;Put printing message on LCD screen
M117 Printing...
G92 E0
G1 F1500 E-6.5
;LAYER_COUNT:52
;LAYER:0
M107
G0 F3000 X17.262 Y17.002 Z0.2
;TYPE:SKIRT
G1 F1500 E0
G1 F1200 X17.788 Y16.565 E0.01706
G1 X18.362 Y16.192 E0.03413
G1 X18.974 Y15.889 E0.05117
G1 X19.618 Y15.659 E0.06823
G1 X20.285 Y15.506 E0.0853
G1 X21.259 Y15.424 E0.10968
G1 X35.011 Y15.424 E0.45273
G1 X35.694 Y15.464 E0.46979
G1 X36.367 Y15.583 E0.48684
G1 X37.022 Y15.78 E0.5039
G1 X37.649 Y16.053 E0.52096
G1 X38.24 Y16.396 E0.53801
G1 X38.787 Y16.806 E0.55506
G1 X39.283 Y17.277 E0.57212
G1 X39.72 Y17.803 E0.58918
G1 X40.093 Y18.377 E0.60626
G1 X40.208 Y18.609 E0.61272
G1 X40.623 Y18.794 E0.62405
G1 X41.341 Y19.18 E0.64439
G1 X41.923 Y19.539 E0.66144
G1 X42.46 Y19.963 E0.67851
G1 X42.809 Y20.301 E0.69063
G1 X43.377 Y20.898 E0.71119
G1 X43.819 Y21.42 E0.72825
G1 X44.196 Y21.99 E0.7453
G1 X44.408 Y22.389 E0.75657
G1 X44.773 Y23.146 E0.77753
G1 X45.034 Y23.779 E0.79461
G1 X45.219 Y24.437 E0.81166
G1 X45.288 Y24.809 E0.8211
G1 X45.415 Y25.646 E0.84222
G1 X45.478 Y26.327 E0.85928
G1 X45.461 Y27.011 E0.87634
G1 X45.415 Y27.402 E0.88617
G1 X45.288 Y28.239 E0.90728
G1 X45.146 Y28.908 E0.92434
G1 X44.927 Y29.555 E0.94138
G1 X44.773 Y29.902 E0.95085
G1 X44.408 Y30.659 E0.97182
G1 X44.076 Y31.256 E0.98886
G1 X43.676 Y31.811 E1.00592
G1 X43.377 Y32.15 E1.0172
G1 X42.809 Y32.747 E1.03775
G1 X42.31 Y33.214 E1.0548
G1 X41.759 Y33.62 E1.07187
G1 X41.341 Y33.868 E1.084
G1 X40.623 Y34.254 E1.10433
G1 X40.213 Y34.444 E1.11561
G1 X39.889 Y35.003 E1.13172
G1 X39.479 Y35.55 E1.14878
G1 X39.008 Y36.046 E1.16584
G1 X38.482 Y36.483 E1.1829
G1 X37.908 Y36.856 E1.19997
G1 X37.296 Y37.159 E1.21701
G1 X36.652 Y37.389 E1.23407
G1 X35.985 Y37.542 E1.25114
G1 X35.011 Y37.624 E1.27552
G1 X21.259 Y37.624 E1.61856
G1 X20.576 Y37.584 E1.63563
G1 X19.903 Y37.465 E1.65268
G1 X19.248 Y37.268 E1.66974
G1 X18.621 Y36.995 E1.6868
G1 X18.03 Y36.652 E1.70385
G1 X17.483 Y36.242 E1.7209
G1 X16.987 Y35.771 E1.73796
G1 X16.55 Y35.245 E1.75502
G1 X16.177 Y34.671 E1.7721
G1 X16.064 Y34.443 E1.77844
G1 X15.639 Y34.254 E1.79005
G1 X14.921 Y33.868 E1.81038
G1 X14.339 Y33.509 E1.82744
G1 X13.802 Y33.085 E1.84451
G1 X13.453 Y32.747 E1.85663
G1 X12.885 Y32.15 E1.87718
G1 X12.443 Y31.628 E1.89424
G1 X12.066 Y31.058 E1.91129
G1 X11.854 Y30.659 E1.92256
G1 X11.489 Y29.902 E1.94353
G1 X11.228 Y29.269 E1.96061
G1 X11.043 Y28.611 E1.97766
G1 X10.974 Y28.239 E1.98709
G1 X10.847 Y27.402 E2.00821
G1 X10.784 Y26.721 E2.02527
G1 X10.801 Y26.037 E2.04234
G1 X10.847 Y25.646 E2.05216
G1 X10.974 Y24.809 E2.07328
G1 X11.116 Y24.14 E2.09034
G1 X11.335 Y23.493 E2.10738
G1 X11.489 Y23.146 E2.11685
G1 X11.854 Y22.389 E2.13781
G1 X12.186 Y21.792 E2.15485
G1 X12.586 Y21.237 E2.17192
G1 X12.885 Y20.898 E2.18319
G1 X13.453 Y20.301 E2.20375
G1 X13.952 Y19.834 E2.2208
G1 X14.503 Y19.428 E2.23787
G1 X14.921 Y19.18 E2.24999
G1 X15.639 Y18.794 E2.27033
G1 X16.06 Y18.599 E2.2819
G1 X16.381 Y18.045 E2.29787
G1 X16.791 Y17.498 E2.31493
G1 X17.262 Y17.002 E2.33199
G0 F3000 X17.557 Y17.139
G1 F1200 X18.079 Y16.725 E2.34861
G1 X18.647 Y16.377 E2.36523
G1 X19.252 Y16.1 E2.38182
G1 X19.886 Y15.896 E2.39844
G1 X20.54 Y15.771 E2.41505
G1 X21.259 Y15.724 E2.43302
G1 X35.011 Y15.724 E2.77607
G1 X35.676 Y15.764 E2.79268
G1 X36.331 Y15.883 E2.80929
G1 X36.967 Y16.08 E2.8259
G1 X37.575 Y16.352 E2.84252
G1 X38.147 Y16.695 E2.85915
G1 X38.673 Y17.103 E2.87576
G1 X39.146 Y17.572 E2.89237
G1 X39.56 Y18.094 E2.90899
G1 X39.908 Y18.662 E2.92561
G1 X39.989 Y18.838 E2.93044
G1 X40.481 Y19.059 E2.9439
G1 X41.199 Y19.445 E2.96423
G1 X41.766 Y19.795 E2.98085
G1 X42.286 Y20.21 E2.99745
G1 X42.592 Y20.507 E3.00809
G1 X43.16 Y21.104 E3.02864
G1 X43.589 Y21.614 E3.04527
G1 X43.954 Y22.171 E3.06188
G1 X44.138 Y22.52 E3.07172
G1 X44.503 Y23.277 E3.09268
G1 X44.756 Y23.893 E3.1093
G1 X44.991 Y24.854 E3.13397
G1 X45.118 Y25.691 E3.15509
G1 X45.178 Y26.355 E3.17172
G1 X45.159 Y27.02 E3.18832
G1 X45.118 Y27.357 E3.19679
G1 X44.991 Y28.194 E3.21791
G1 X44.852 Y28.845 E3.23451
G1 X44.503 Y29.771 E3.2592
G1 X44.138 Y30.528 E3.28016
G1 X43.813 Y31.11 E3.29679
G1 X43.421 Y31.648 E3.31339
G1 X43.16 Y31.944 E3.32324
G1 X42.592 Y32.541 E3.34379
G1 X42.105 Y32.995 E3.3604
G1 X41.567 Y33.387 E3.37701
G1 X41.199 Y33.603 E3.38765
G1 X40.481 Y33.989 E3.40799
G1 X39.987 Y34.218 E3.42157
G1 X39.933 Y34.338 E3.42485
G1 X39.59 Y34.91 E3.44149
G1 X39.182 Y35.436 E3.45809
G1 X38.713 Y35.909 E3.47471
G1 X38.191 Y36.323 E3.49133
G1 X37.623 Y36.671 E3.50795
G1 X37.018 Y36.948 E3.52454
G1 X36.384 Y37.152 E3.54116
G1 X35.73 Y37.277 E3.55777
G1 X35.011 Y37.324 E3.57574
G1 X21.259 Y37.324 E3.91879
G1 X20.594 Y37.284 E3.9354
G1 X19.939 Y37.165 E3.95201
G1 X19.303 Y36.968 E3.96862
G1 X18.695 Y36.696 E3.98524
G1 X18.123 Y36.353 E4.00187
G1 X17.597 Y35.945 E4.01848
G1 X17.124 Y35.476 E4.03509
G1 X16.71 Y34.954 E4.05171
G1 X16.362 Y34.386 E4.06833
G1 X16.283 Y34.214 E4.07305
G1 X15.781 Y33.989 E4.08677
G1 X15.063 Y33.603 E4.10711
G1 X14.496 Y33.253 E4.12373
G1 X13.976 Y32.838 E4.14033
G1 X13.67 Y32.541 E4.15096
G1 X13.102 Y31.944 E4.17152
G1 X12.673 Y31.434 E4.18814
G1 X12.308 Y30.877 E4.20476
G1 X12.124 Y30.528 E4.2146
G1 X11.759 Y29.771 E4.23556
G1 X11.506 Y29.155 E4.25217
G1 X11.271 Y28.194 E4.27685
G1 X11.144 Y27.357 E4.29797
G1 X11.084 Y26.693 E4.3146
G1 X11.103 Y26.028 E4.3312
G1 X11.144 Y25.691 E4.33966
G1 X11.271 Y24.854 E4.36078
G1 X11.41 Y24.203 E4.37739
G1 X11.759 Y23.277 E4.40207
G1 X12.124 Y22.52 E4.42304
G1 X12.449 Y21.938 E4.43967
G1 X12.841 Y21.4 E4.45627
G1 X13.102 Y21.104 E4.46612
G1 X13.67 Y20.507 E4.48667
G1 X14.157 Y20.053 E4.50328
G1 X14.695 Y19.661 E4.51988
G1 X15.063 Y19.445 E4.53053
G1 X15.781 Y19.059 E4.55086
G1 X16.285 Y18.825 E4.56472
G1 X16.337 Y18.71 E4.56787
G1 X16.68 Y18.138 E4.58451
G1 X17.088 Y17.612 E4.60112
G1 X17.557 Y17.139 E4.61773
G0 F3000 X17.851 Y17.281
G1 F1200 X18.368 Y16.892 E4.63387
G1 X18.93 Y16.569 E4.65004
G1 X19.527 Y16.318 E4.6662
G1 X20.151 Y16.142 E4.68237
G1 X20.791 Y16.045 E4.69852
G1 X21.259 Y16.024 E4.7102
G1 X35.011 Y16.024 E5.05325
G1 X35.658 Y16.064 E5.06942
G1 X36.294 Y16.183 E5.08556
G1 X36.911 Y16.38 E5.10171
G1 X37.5 Y16.651 E5.11789
G1 X38.05 Y16.993 E5.13404
G1 X38.554 Y17.4 E5.1502
G1 X39.004 Y17.866 E5.16636
G1 X39.393 Y18.383 E5.1825
G1 X39.716 Y18.945 E5.19867
G1 X39.766 Y19.064 E5.20189
G1 X40.339 Y19.323 E5.21758
G1 X41.057 Y19.709 E5.23791
G1 X41.607 Y20.05 E5.25406
G1 X42.112 Y20.457 E5.27023
G1 X42.375 Y20.714 E5.27941
G1 X42.943 Y21.311 E5.29996
G1 X43.359 Y21.807 E5.31611
G1 X43.712 Y22.351 E5.33229
G1 X43.868 Y22.65 E5.3407
G1 X44.233 Y23.407 E5.36166
G1 X44.478 Y24.007 E5.37783
G1 X44.695 Y24.899 E5.40073
G1 X44.822 Y25.736 E5.42185
G1 X44.879 Y26.382 E5.43803
G1 X44.822 Y27.312 E5.46127
G1 X44.695 Y28.149 E5.48239
G1 X44.558 Y28.782 E5.49854
G1 X44.233 Y29.641 E5.52145
G1 X43.868 Y30.398 E5.54242
G1 X43.551 Y30.963 E5.55858
G1 X43.167 Y31.485 E5.57474
G1 X42.943 Y31.737 E5.58315
G1 X42.375 Y32.334 E5.60371
G1 X41.9 Y32.775 E5.61988
G1 X41.375 Y33.154 E5.63603
G1 X41.057 Y33.339 E5.64521
G1 X40.339 Y33.725 E5.66554
G1 X39.758 Y33.993 E5.6815
G1 X39.634 Y34.263 E5.68891
G1 X39.292 Y34.813 E5.70507
G1 X38.885 Y35.317 E5.72123
G1 X38.419 Y35.767 E5.73739
G1 X37.902 Y36.156 E5.75353
G1 X37.34 Y36.479 E5.7697
G1 X36.743 Y36.73 E5.78585
G1 X36.119 Y36.906 E5.80203
G1 X35.479 Y37.003 E5.81817
G1 X35.011 Y37.024 E5.82986
G1 X21.259 Y37.024 E6.1729
G1 X20.612 Y36.984 E6.18908
G1 X19.976 Y36.865 E6.20522
G1 X19.359 Y36.668 E6.22137
G1 X18.77 Y36.397 E6.23755
G1 X18.22 Y36.055 E6.2537
G1 X17.716 Y35.648 E6.26986
G1 X17.266 Y35.182 E6.28602
G1 X16.877 Y34.665 E6.30216
G1 X16.554 Y34.103 E6.31833
G1 X16.506 Y33.989 E6.32142
G1 X15.923 Y33.725 E6.33738
G1 X15.205 Y33.339 E6.35771
G1 X14.655 Y32.998 E6.37386
G1 X14.15 Y32.591 E6.39004
G1 X13.887 Y32.334 E6.39921
G1 X13.319 Y31.737 E6.41977
G1 X12.903 Y31.241 E6.43591
G1 X12.55 Y30.697 E6.45209
G1 X12.394 Y30.398 E6.4605
G1 X12.029 Y29.641 E6.48147
G1 X11.784 Y29.041 E6.49763
G1 X11.567 Y28.149 E6.52053
G1 X11.44 Y27.312 E6.54165
G1 X11.383 Y26.666 E6.55783
G1 X11.44 Y25.736 E6.58107
G1 X11.567 Y24.899 E6.60219
G1 X11.704 Y24.266 E6.61835
G1 X12.029 Y23.407 E6.64126
G1 X12.394 Y22.65 E6.66222
G1 X12.711 Y22.085 E6.67838
G1 X13.095 Y21.563 E6.69455
G1 X13.319 Y21.311 E6.70296
G1 X13.887 Y20.714 E6.72351
G1 X14.362 Y20.273 E6.73968
G1 X14.887 Y19.894 E6.75583
G1 X15.205 Y19.709 E6.76501
G1 X15.923 Y19.323 E6.78534
G1 X16.511 Y19.052 E6.80149
G1 X16.514 Y19.051 E6.80157
G1 X16.636 Y18.785 E6.80887
G1 X16.978 Y18.235 E6.82503
G1 X17.385 Y17.731 E6.84119
G1 X17.851 Y17.281 E6.85735
G0 F3000 X17.681 Y17.853
G1 F1200 X18.144 Y17.427 E6.87304
G1 X18.657 Y17.063 E6.88873
G1 X19.211 Y16.767 E6.9044
G1 X19.799 Y16.544 E6.92009
G1 X20.411 Y16.397 E6.93579
G1 X21.259 Y16.324 E6.95702
G1 X35.011 Y16.324 E7.30007
G1 X35.639 Y16.364 E7.31576
G1 X36.256 Y16.483 E7.33144
G1 X36.854 Y16.68 E7.34715
G1 X37.421 Y16.951 E7.36282
G1 X37.95 Y17.291 E7.37851
G1 X38.432 Y17.696 E7.39421
G1 X38.858 Y18.159 E7.40991
G1 X39.222 Y18.672 E7.4256
G1 X39.518 Y19.226 E7.44127
G1 X39.546 Y19.3 E7.44324
G1 X39.619 Y19.323 E7.44515
G1 X40.197 Y19.587 E7.461
G1 X40.915 Y19.973 E7.48134
G1 X41.449 Y20.306 E7.49703
G1 X42.157 Y20.921 E7.52043
G1 X42.725 Y21.518 E7.54098
G1 X43.129 Y22 E7.55667
G1 X43.598 Y22.78 E7.57938
G1 X43.963 Y23.537 E7.60034
G1 X44.199 Y24.12 E7.61603
G1 X44.398 Y24.944 E7.63717
G1 X44.525 Y25.781 E7.65829
G1 X44.58 Y26.408 E7.67399
G1 X44.525 Y27.267 E7.69546
G1 X44.398 Y28.104 E7.71658
G1 X44.264 Y28.718 E7.73226
G1 X43.963 Y29.511 E7.75342
G1 X43.598 Y30.268 E7.77438
G1 X43.289 Y30.816 E7.79007
G1 X42.725 Y31.53 E7.81277
G1 X42.157 Y32.127 E7.83333
G1 X41.696 Y32.554 E7.849
G1 X40.915 Y33.075 E7.87242
G1 X40.197 Y33.461 E7.89276
G1 X39.625 Y33.723 E7.90845
G1 X39.542 Y33.749 E7.91062
G1 X39.334 Y34.184 E7.92265
G1 X38.994 Y34.713 E7.93833
G1 X38.589 Y35.195 E7.95404
G1 X38.126 Y35.621 E7.96973
G1 X37.613 Y35.985 E7.98542
G1 X37.059 Y36.281 E8.00109
G1 X36.471 Y36.504 E8.01678
G1 X35.859 Y36.651 E8.03248
G1 X35.011 Y36.724 E8.05371
G1 X21.259 Y36.724 E8.39676
G1 X20.631 Y36.684 E8.41245
G1 X20.014 Y36.565 E8.42813
G1 X19.416 Y36.368 E8.44384
G1 X18.849 Y36.097 E8.45951
G1 X18.32 Y35.757 E8.4752
G1 X17.838 Y35.352 E8.4909
G1 X17.412 Y34.889 E8.5066
G1 X17.048 Y34.376 E8.52229
G1 X16.752 Y33.822 E8.53796
G1 X16.725 Y33.75 E8.53987
G1 X16.643 Y33.725 E8.54201
G1 X16.065 Y33.461 E8.55786
G1 X15.347 Y33.075 E8.5782
G1 X14.813 Y32.742 E8.5939
G1 X14.105 Y32.127 E8.61729
G1 X13.537 Y31.53 E8.63785
G1 X13.133 Y31.048 E8.65354
G1 X12.664 Y30.268 E8.67624
G1 X12.299 Y29.511 E8.6972
G1 X12.063 Y28.928 E8.71289
G1 X11.864 Y28.104 E8.73404
G1 X11.737 Y27.267 E8.75516
G1 X11.682 Y26.64 E8.77086
G1 X11.737 Y25.781 E8.79233
G1 X11.864 Y24.944 E8.81345
G1 X11.998 Y24.33 E8.82912
G1 X12.299 Y23.537 E8.85028
G1 X12.664 Y22.78 E8.87125
G1 X12.973 Y22.232 E8.88694
G1 X13.537 Y21.518 E8.90964
G1 X14.105 Y20.921 E8.93019
G1 X14.566 Y20.494 E8.94587
G1 X15.347 Y19.973 E8.96929
G1 X16.065 Y19.587 E8.98962
G1 X16.637 Y19.325 E9.00531
G1 X16.729 Y19.296 E9.00772
G1 X16.936 Y18.864 E9.01967
G1 X17.276 Y18.335 E9.03536
G1 X17.681 Y17.853 E9.05106
G0 F3000 X17.977 Y17.98
G1 F1200 X18.436 Y17.579 E9.06627
G1 X18.943 Y17.242 E9.08145
G1 X19.491 Y16.973 E9.09668
G1 X20.068 Y16.779 E9.11186
G1 X20.667 Y16.662 E9.12709
G1 X21.259 Y16.624 E9.14189
G1 X35.011 Y16.624 E9.48493
G1 X35.619 Y16.664 E9.50013
G1 X36.217 Y16.783 E9.51534
G1 X36.794 Y16.98 E9.53055
G1 X37.341 Y17.25 E9.54577
G1 X37.847 Y17.589 E9.56096
G1 X38.305 Y17.992 E9.57618
G1 X38.706 Y18.451 E9.59138
G1 X39.043 Y18.958 E9.60657
G1 X39.312 Y19.506 E9.6218
G1 X39.325 Y19.546 E9.62285
G1 X39.547 Y19.616 E9.62865
G1 X40.055 Y19.851 E9.64261
G1 X40.773 Y20.237 E9.66295
G1 X41.29 Y20.561 E9.67817
G1 X41.94 Y21.128 E9.69969
G1 X42.508 Y21.725 E9.72024
G1 X42.898 Y22.193 E9.73544
G1 X43.328 Y22.91 E9.75629
G1 X43.693 Y23.667 E9.77726
G1 X43.921 Y24.233 E9.79248
G1 X44.101 Y24.989 E9.81186
G1 X44.228 Y25.826 E9.83298
G1 X44.28 Y26.434 E9.8482
G1 X44.228 Y27.222 E9.8679
G1 X44.101 Y28.059 E9.88902
G1 X43.971 Y28.654 E9.90421
G1 X43.693 Y29.381 E9.92363
G1 X43.328 Y30.138 E9.94459
G1 X43.027 Y30.668 E9.9598
G1 X42.508 Y31.323 E9.98064
G1 X41.94 Y31.92 E10.0012
G1 X41.492 Y32.333 E10.0164
G1 X40.773 Y32.811 E10.03794
G1 X40.055 Y33.197 E10.05827
G1 X39.5 Y33.449 E10.07348
G1 X39.323 Y33.503 E10.07809
G1 X39.305 Y33.557 E10.07951
G1 X39.035 Y34.104 E10.09473
G1 X38.696 Y34.61 E10.10992
G1 X38.293 Y35.068 E10.12514
G1 X37.834 Y35.469 E10.14034
G1 X37.327 Y35.806 E10.15553
G1 X36.779 Y36.075 E10.17076
G1 X36.202 Y36.269 E10.18594
G1 X35.603 Y36.386 E10.20117
G1 X35.011 Y36.424 E10.21597
G1 X21.259 Y36.424 E10.55901
G1 X20.651 Y36.384 E10.57421
G1 X20.053 Y36.265 E10.58942
G1 X19.476 Y36.068 E10.60463
G1 X18.929 Y35.798 E10.61985
G1 X18.423 Y35.459 E10.63504
G1 X17.965 Y35.056 E10.65026
G1 X17.564 Y34.597 E10.66546
G1 X17.227 Y34.09 E10.68065
G1 X16.958 Y33.542 E10.69588
G1 X16.946 Y33.505 E10.69685
G1 X16.715 Y33.432 E10.70289
G1 X16.207 Y33.197 E10.71685
G1 X15.489 Y32.811 E10.73719
G1 X14.972 Y32.487 E10.75241
G1 X14.322 Y31.92 E10.77392
G1 X13.754 Y31.323 E10.79448
G1 X13.364 Y30.855 E10.80967
G1 X12.934 Y30.138 E10.83053
G1 X12.569 Y29.381 E10.85149
G1 X12.341 Y28.815 E10.86672
G1 X12.161 Y28.059 E10.8861
G1 X12.034 Y27.222 E10.90722
G1 X11.982 Y26.614 E10.92244
G1 X12.034 Y25.826 E10.94214
G1 X12.161 Y24.989 E10.96326
G1 X12.291 Y24.394 E10.97845
G1 X12.569 Y23.667 E10.99787
G1 X12.934 Y22.91 E11.01883
G1 X13.235 Y22.38 E11.03403
G1 X13.754 Y21.725 E11.05488
G1 X14.322 Y21.128 E11.07544
G1 X14.77 Y20.715 E11.09064
G1 X15.489 Y20.237 E11.11217
G1 X16.207 Y19.851 E11.13251
G1 X16.762 Y19.599 E11.14771
G1 X16.948 Y19.542 E11.15257
G1 X16.965 Y19.491 E11.15391
G1 X17.235 Y18.944 E11.16912
G1 X17.574 Y18.438 E11.18432
G1 X17.977 Y17.98 E11.19953
G0 F3000 X18.272 Y18.112
G1 F1200 X18.727 Y17.737 E11.21424
G1 X19.228 Y17.427 E11.22894
G1 X19.767 Y17.188 E11.24365
G1 X20.333 Y17.024 E11.25835
G1 X20.917 Y16.937 E11.27308
G1 X21.259 Y16.924 E11.28161
G1 X35.011 Y16.924 E11.62466
G1 X35.599 Y16.964 E11.63936
G1 X36.177 Y17.083 E11.65408
G1 X36.733 Y17.279 E11.66879
G1 X37.257 Y17.549 E11.68349
G1 X37.74 Y17.887 E11.6982
G1 X38.173 Y18.287 E11.7129
G1 X38.548 Y18.742 E11.72761
G1 X38.858 Y19.243 E11.74231
G1 X39.097 Y19.782 E11.75701
G1 X39.099 Y19.788 E11.75717
G1 X39.473 Y19.91 E11.76698
G1 X39.913 Y20.116 E11.7791
G1 X40.631 Y20.502 E11.79944
G1 X41.13 Y20.815 E11.81413
G1 X41.723 Y21.335 E11.83381
G1 X42.291 Y21.932 E11.85436
G1 X42.667 Y22.385 E11.86905
G1 X43.057 Y23.041 E11.88809
G1 X43.422 Y23.798 E11.90905
G1 X43.642 Y24.345 E11.92376
G1 X43.805 Y25.034 E11.94142
G1 X43.932 Y25.871 E11.96254
G1 X43.981 Y26.459 E11.97725
G1 X43.932 Y27.177 E11.99521
G1 X43.805 Y28.014 E12.01632
G1 X43.677 Y28.589 E12.03102
G1 X43.422 Y29.25 E12.04869
G1 X43.057 Y30.007 E12.06966
G1 X42.766 Y30.52 E12.08437
G1 X42.291 Y31.116 E12.10338
G1 X41.723 Y31.713 E12.12394
G1 X41.288 Y32.112 E12.13866
G1 X40.631 Y32.546 E12.1583
G1 X39.913 Y32.932 E12.17864
G1 X39.376 Y33.176 E12.19335
G1 X39.089 Y33.261 E12.20082
G1 X39.006 Y33.496 E12.20703
G1 X38.736 Y34.02 E12.22174
G1 X38.398 Y34.503 E12.23644
G1 X37.998 Y34.936 E12.25115
G1 X37.543 Y35.311 E12.26586
G1 X37.042 Y35.621 E12.28055
G1 X36.503 Y35.86 E12.29526
G1 X35.937 Y36.024 E12.30996
G1 X35.353 Y36.111 E12.32469
G1 X35.011 Y36.124 E12.33323
G1 X21.259 Y36.124 E12.67627
G1 X20.671 Y36.084 E12.69097
G1 X20.093 Y35.965 E12.70569
