;FLAVOR:Marlin
;TIME:6445
;Filament used: 7.64698m
;Layer height: 0.2
;Generated with Cura_SteamEngine 3.4.1
M190 S75
M104 S220
M109 S220
M82 ;absolute extrusion mode
G21 ;metric values
G90 ;absolute positioning
M82 ;set extruder to absolute mode
M107 ;start with the fan off
G28 X0 Y0 ;move X/Y to min endstops
G28 Z0 ;move Z to min endstops
G1 Z15.0 F9000 ;move the platform down 15mm
G92 E0 ;zero the extruded length
G1 F200 E3 ;extrude 3mm of feed stock
G92 E0 ;zero the extruded length again
G1 F9000
;Put printing message on LCD screen
M117 Printing...
G92 E0
G1 F1500 E-6.5
;LAYER_COUNT:86
;LAYER:0
M107
G0 F3600 X17.775 Y32.143 Z0.2
;TYPE:SKIRT
G1 F1500 E0
G1 F1800 X18.203 Y31.905 E0.01629
G1 X18.663 Y31.739 E0.03255
G1 X19.144 Y31.65 E0.04882
G1 X19.446 Y31.635 E0.05888
G1 X84.446 Y31.635 E2.22079
G1 X84.934 Y31.675 E2.23707
G1 X85.409 Y31.794 E2.25336
G1 X85.858 Y31.988 E2.26963
G1 X86.27 Y32.253 E2.28592
G1 X86.633 Y32.581 E2.30219
G1 X86.938 Y32.964 E2.31848
G1 X87.176 Y33.392 E2.33477
G1 X87.342 Y33.852 E2.35103
G1 X87.431 Y34.333 E2.3673
G1 X87.446 Y34.635 E2.37736
G1 X87.446 Y70.635 E3.57472
G1 X87.406 Y71.123 E3.59101
G1 X87.287 Y71.598 E3.6073
G1 X87.093 Y72.047 E3.62356
G1 X86.828 Y72.459 E3.63986
G1 X86.5 Y72.822 E3.65613
G1 X86.117 Y73.127 E3.67241
G1 X85.689 Y73.365 E3.6887
G1 X85.229 Y73.531 E3.70497
G1 X84.748 Y73.62 E3.72124
G1 X84.446 Y73.635 E3.73129
G1 X19.446 Y73.635 E5.8932
G1 X18.958 Y73.595 E5.90949
G1 X18.483 Y73.476 E5.92577
G1 X18.034 Y73.282 E5.94204
G1 X17.622 Y73.017 E5.95834
G1 X17.259 Y72.689 E5.97461
G1 X16.954 Y72.306 E5.99089
G1 X16.716 Y71.878 E6.00718
G1 X16.55 Y71.418 E6.02345
G1 X16.461 Y70.937 E6.03972
G1 X16.446 Y70.635 E6.04977
G1 X16.446 Y34.635 E7.24714
G1 X16.486 Y34.147 E7.26342
G1 X16.605 Y33.672 E7.27971
G1 X16.799 Y33.223 E7.29598
G1 X17.064 Y32.811 E7.31227
G1 X17.392 Y32.448 E7.32854
G1 X17.775 Y32.143 E7.34483
G0 F3600 X18.159 Y32.376
G1 F1800 X18.573 Y32.186 E7.35998
G1 X19.014 Y32.071 E7.37514
G1 X19.446 Y32.035 E7.38955
G1 X84.446 Y32.035 E9.55146
G1 X84.9 Y32.075 E9.56662
G1 X85.34 Y32.193 E9.58177
G1 X85.752 Y32.387 E9.59692
G1 X86.125 Y32.65 E9.6121
G1 X86.446 Y32.973 E9.62725
G1 X86.705 Y33.348 E9.6424
G1 X86.895 Y33.762 E9.65755
G1 X87.01 Y34.203 E9.67271
G1 X87.046 Y34.635 E9.68713
G1 X87.046 Y70.635 E10.8845
G1 X87.006 Y71.089 E10.89965
G1 X86.888 Y71.529 E10.91481
G1 X86.694 Y71.941 E10.92995
G1 X86.431 Y72.314 E10.94513
G1 X86.108 Y72.635 E10.96028
G1 X85.733 Y72.894 E10.97544
G1 X85.319 Y73.084 E10.99059
G1 X84.878 Y73.199 E11.00574
G1 X84.446 Y73.235 E11.02016
G1 X19.446 Y73.235 E13.18207
G1 X18.992 Y73.195 E13.19723
G1 X18.552 Y73.077 E13.21238
G1 X18.14 Y72.883 E13.22753
G1 X17.767 Y72.62 E13.24271
G1 X17.446 Y72.297 E13.25785
G1 X17.187 Y71.922 E13.27301
G1 X16.997 Y71.508 E13.28816
G1 X16.882 Y71.067 E13.30332
G1 X16.846 Y70.635 E13.31774
G1 X16.846 Y34.635 E14.5151
G1 X16.886 Y34.181 E14.53026
G1 X17.004 Y33.741 E14.54541
G1 X17.198 Y33.329 E14.56056
G1 X17.461 Y32.956 E14.57574
G1 X17.784 Y32.635 E14.59089
G1 X18.159 Y32.376 E14.60604
G0 F3600 X18.173 Y32.841
G1 F1800 X18.536 Y32.632 E14.61998
G1 X18.933 Y32.496 E14.63393
G1 X19.446 Y32.435 E14.65112
G1 X84.446 Y32.435 E16.81303
G1 X84.863 Y32.475 E16.82696
G1 X85.265 Y32.593 E16.84089
G1 X85.637 Y32.786 E16.85483
G1 X85.966 Y33.045 E16.86876
G1 X86.24 Y33.362 E16.88269
G1 X86.449 Y33.725 E16.89663
G1 X86.585 Y34.122 E16.91058
G1 X86.646 Y34.635 E16.92777
G1 X86.646 Y70.635 E18.12513
G1 X86.606 Y71.052 E18.13906
G1 X86.488 Y71.454 E18.153
G1 X86.295 Y71.826 E18.16694
G1 X86.036 Y72.155 E18.18086
G1 X85.719 Y72.429 E18.1948
G1 X85.356 Y72.638 E18.20873
G1 X84.959 Y72.774 E18.22269
G1 X84.446 Y72.835 E18.23987
G1 X19.446 Y72.835 E20.40178
G1 X19.029 Y72.795 E20.41571
G1 X18.627 Y72.677 E20.42965
G1 X18.255 Y72.484 E20.44359
G1 X17.926 Y72.225 E20.45751
G1 X17.652 Y71.908 E20.47145
G1 X17.443 Y71.545 E20.48538
G1 X17.307 Y71.148 E20.49934
G1 X17.246 Y70.635 E20.51652
G1 X17.246 Y34.635 E21.71389
G1 X17.286 Y34.218 E21.72782
G1 X17.404 Y33.816 E21.74176
G1 X17.597 Y33.444 E21.75569
G1 X17.856 Y33.115 E21.76962
G1 X18.173 Y32.841 E21.78356
G0 F3600 X18.558 Y33.07
G1 F1800 X18.905 Y32.918 E21.79616
G1 X19.446 Y32.835 E21.81436
G1 X84.446 Y32.835 E23.97627
G1 X84.823 Y32.875 E23.98888
G1 X85.183 Y32.993 E24.00148
G1 X85.51 Y33.183 E24.01406
G1 X85.791 Y33.438 E24.02668
G1 X86.011 Y33.747 E24.0393
G1 X86.163 Y34.094 E24.0519
G1 X86.246 Y34.635 E24.0701
G1 X86.246 Y70.635 E25.26746
G1 X86.206 Y71.012 E25.28007
G1 X86.088 Y71.372 E25.29267
G1 X85.898 Y71.699 E25.30525
G1 X85.643 Y71.98 E25.31787
G1 X85.334 Y72.2 E25.33049
G1 X84.987 Y72.352 E25.34309
G1 X84.446 Y72.435 E25.36129
G1 X19.446 Y72.435 E27.5232
G1 X19.069 Y72.395 E27.53581
G1 X18.709 Y72.277 E27.54841
G1 X18.382 Y72.087 E27.56099
G1 X18.101 Y71.832 E27.57361
G1 X17.881 Y71.523 E27.58623
G1 X17.729 Y71.176 E27.59883
G1 X17.646 Y70.635 E27.61703
G1 X17.646 Y34.635 E28.8144
G1 X17.686 Y34.258 E28.82701
G1 X17.804 Y33.898 E28.83961
G1 X17.994 Y33.571 E28.85219
G1 X18.249 Y33.29 E28.86481
G1 X18.558 Y33.07 E28.87742
G0 F3600 X18.639 Y33.491
G1 F1800 X18.933 Y33.332 E28.88854
G1 X19.257 Y33.248 E28.89967
G1 X19.446 Y33.235 E28.90597
G1 X84.446 Y33.235 E31.06788
G1 X84.778 Y33.275 E31.079
G1 X85.09 Y33.392 E31.09009
G1 X85.367 Y33.58 E31.10122
G1 X85.59 Y33.828 E31.11231
G1 X85.749 Y34.122 E31.12343
G1 X85.833 Y34.446 E31.13456
G1 X85.846 Y34.635 E31.14086
G1 X85.846 Y70.635 E32.33823
G1 X85.806 Y70.967 E32.34935
G1 X85.689 Y71.279 E32.36043
G1 X85.501 Y71.556 E32.37157
G1 X85.253 Y71.779 E32.38266
G1 X84.959 Y71.938 E32.39378
G1 X84.635 Y72.022 E32.40491
G1 X84.446 Y72.035 E32.41121
G1 X19.446 Y72.035 E34.57312
G1 X19.114 Y71.995 E34.58424
G1 X18.802 Y71.878 E34.59533
G1 X18.525 Y71.69 E34.60646
G1 X18.302 Y71.442 E34.61755
G1 X18.143 Y71.148 E34.62867
G1 X18.059 Y70.824 E34.6398
G1 X18.046 Y70.635 E34.6461
G1 X18.046 Y34.635 E35.84347
G1 X18.086 Y34.303 E35.85459
G1 X18.203 Y33.991 E35.86567
G1 X18.391 Y33.714 E35.87681
G1 X18.639 Y33.491 E35.8879
G0 F3600 X18.785 Y33.884
G1 F1800 X19.021 Y33.73 E35.89727
G1 X19.291 Y33.647 E35.90667
G1 X19.446 Y33.635 E35.91184
G1 X84.446 Y33.635 E38.07375
G1 X84.725 Y33.675 E38.08312
G1 X84.982 Y33.791 E38.0925
G1 X85.197 Y33.974 E38.10189
G1 X85.351 Y34.21 E38.11126
G1 X85.434 Y34.48 E38.12066
G1 X85.446 Y34.635 E38.12583
G1 X85.446 Y70.635 E39.3232
G1 X85.406 Y70.914 E39.33257
G1 X85.29 Y71.171 E39.34195
G1 X85.107 Y71.386 E39.35134
G1 X84.871 Y71.54 E39.36071
G1 X84.601 Y71.623 E39.37011
G1 X84.446 Y71.635 E39.37528
G1 X19.446 Y71.635 E41.53719
G1 X19.167 Y71.595 E41.54656
G1 X18.91 Y71.479 E41.55594
G1 X18.695 Y71.296 E41.56533
G1 X18.541 Y71.06 E41.5747
G1 X18.458 Y70.79 E41.5841
G1 X18.446 Y70.635 E41.58927
G1 X18.446 Y34.635 E42.78663
G1 X18.486 Y34.356 E42.79601
G1 X18.602 Y34.099 E42.80539
G1 X18.785 Y33.884 E42.81478
G0 F3600 X19.172 Y34.101
G1 F1800 X19.446 Y34.035 E42.82415
G1 X84.446 Y34.035 E44.98606
G1 X84.661 Y34.075 E44.99333
G1 X84.847 Y34.188 E45.00057
G1 X84.98 Y34.361 E45.00783
G1 X85.046 Y34.635 E45.0172
G1 X85.046 Y70.635 E46.21457
G1 X85.006 Y70.85 E46.22184
G1 X84.893 Y71.036 E46.22908
G1 X84.72 Y71.169 E46.23634
G1 X84.446 Y71.235 E46.24571
G1 X19.446 Y71.235 E48.40762
G1 X19.231 Y71.195 E48.41489
G1 X19.045 Y71.082 E48.42213
G1 X18.912 Y70.909 E48.42939
G1 X18.846 Y70.635 E48.43876
G1 X18.846 Y34.635 E49.63613
G1 X18.886 Y34.42 E49.6434
G1 X18.999 Y34.234 E49.65064
G1 X19.172 Y34.101 E49.6579
G0 F3600 X19.285 Y34.516
G1 F1800 X19.446 Y34.435 E49.66389
G1 X84.446 Y34.435 E51.8258
G1 X84.565 Y34.474 E51.82997
G1 X84.646 Y34.635 E51.83596
G1 X84.646 Y70.635 E53.03333
G1 X84.607 Y70.754 E53.03749
G1 X84.446 Y70.835 E53.04349
G1 X19.446 Y70.835 E55.20539
G1 X19.327 Y70.796 E55.20956
G1 X19.246 Y70.635 E55.21555
G1 X19.246 Y34.635 E56.41292
G1 X19.285 Y34.516 E56.41708
G1 F1500 E49.91708
G0 F3600 X20.06 Y35.249
G0 X83.776 Y69.965
G0 X84.246 Y70.435
;TYPE:WALL-OUTER
G1 F1500 E56.41708
G1 F1800 X19.646 Y70.435 E58.56569
G1 X19.646 Y34.835 E59.74975
G1 X84.246 Y34.835 E61.89835
G1 X84.246 Y70.435 E63.08242
G0 F3600 X84.046 Y70.435
G0 X83.846 Y70.035
;TYPE:WALL-INNER
G1 F1800 X20.046 Y70.035 E65.20441
G1 X20.046 Y35.235 E66.36186
G1 X83.846 Y35.235 E68.48386
G1 X83.846 Y70.035 E69.64131
G0 F3600 X83.446 Y69.635
G1 F1800 X20.446 Y69.635 E71.7367
G1 X20.446 Y35.635 E72.86755
G1 X83.446 Y35.635 E74.96294
G1 X83.446 Y69.635 E76.09378
G0 F3600 X83.056 Y69.245
;TYPE:SKIN
G1 F1800 X20.836 Y69.245 E78.16323
G1 X20.836 Y36.025 E79.26813
G1 X83.056 Y36.025 E81.33757
G1 X83.056 Y69.245 E82.44247
G0 F3600 X82.875 Y36.488
G1 F1800 X82.59 Y36.204 E82.45586
G0 F3600 X82.025 Y36.204
G1 F1800 X82.875 Y37.054 E82.49584
G1 X82.945 Y37.124
G0 F3600 X82.875 Y37.62
G1 F1800 X81.459 Y36.204 E82.56244
G1 X81.389 Y36.134
G0 F3600 X80.893 Y36.204
G1 F1800 X82.875 Y38.185 E82.65565
G1 X82.945 Y38.255
G0 F3600 X82.875 Y38.751
G1 F1800 X80.328 Y36.204 E82.77545
G1 X80.258 Y36.134
G0 F3600 X79.762 Y36.204
G1 F1800 X82.875 Y39.317 E82.92188
G1 X82.945 Y39.387
G0 F3600 X82.875 Y39.882
G1 F1800 X79.196 Y36.204 E83.0949
G1 X79.126 Y36.134
G0 F3600 X78.63 Y36.204
G1 F1800 X82.875 Y40.448 E83.29455
G1 X82.945 Y40.518
G0 F3600 X82.875 Y41.014
G1 F1800 X78.065 Y36.204 E83.5208
G1 X77.995 Y36.134
G0 F3600 X77.499 Y36.204
G1 F1800 X82.875 Y41.58 E83.77367
G1 X82.945 Y41.65
G0 F3600 X82.875 Y42.145
G1 F1800 X76.933 Y36.204 E84.05314
G1 X76.863 Y36.134
G0 F3600 X76.368 Y36.204
G1 F1800 X82.875 Y42.711 E84.35921
G1 X82.945 Y42.781
G0 F3600 X82.875 Y43.277
G1 F1800 X75.802 Y36.204 E84.6919
G1 X75.732 Y36.134
G0 F3600 X75.236 Y36.204
G1 F1800 X82.875 Y43.842 E85.05119
G1 X82.945 Y43.912
G0 F3600 X82.875 Y44.408
G1 F1800 X74.671 Y36.204 E85.43708
G1 X74.601 Y36.134
G0 F3600 X74.105 Y36.204
G1 F1800 X82.875 Y44.974 E85.8496
G1 X82.945 Y45.044
G0 F3600 X82.875 Y45.539
G1 F1800 X73.539 Y36.204 E86.28871
G1 X73.469 Y36.134
G0 F3600 X72.974 Y36.204
G1 F1800 X82.875 Y46.105 E86.75442
G1 X82.945 Y46.175
G0 F3600 X82.875 Y46.671
G1 F1800 X72.408 Y36.204 E87.24676
G1 X72.338 Y36.134
G0 F3600 X71.842 Y36.204
G1 F1800 X82.875 Y47.236 E87.76569
G1 X82.945 Y47.306
G0 F3600 X82.875 Y47.802
G1 F1800 X71.277 Y36.204 E88.31123
G1 X71.207 Y36.134
G0 F3600 X70.711 Y36.204
G1 F1800 X82.875 Y48.368 E88.88338
G1 X82.945 Y48.438
G0 F3600 X82.875 Y48.933
G1 F1800 X70.145 Y36.204 E89.48214
G1 X70.075 Y36.134
G0 F3600 X69.58 Y36.204
G1 F1800 X82.875 Y49.499 E90.1075
G1 X82.945 Y49.569
G0 F3600 X82.875 Y50.065
G1 F1800 X69.014 Y36.204 E90.75948
G1 X68.944 Y36.134
G0 F3600 X68.448 Y36.204
G1 F1800 X82.875 Y50.63 E91.43805
G1 X82.945 Y50.7
G0 F3600 X82.875 Y51.196
G1 F1800 X67.882 Y36.204 E92.14325
G1 X67.812 Y36.134
G0 F3600 X67.317 Y36.204
G1 F1800 X82.875 Y51.762 E92.87506
G1 X82.945 Y51.832
G0 F3600 X82.875 Y52.328
G1 F1800 X66.751 Y36.204 E93.63348
G1 X66.681 Y36.134
G0 F3600 X66.185 Y36.204
G1 F1800 X82.875 Y52.893 E94.4185
G1 X82.945 Y52.963
G0 F3600 X82.875 Y53.459
G1 F1800 X65.62 Y36.204 E95.23012
G1 X65.55 Y36.134
G0 F3600 X65.054 Y36.204
G1 F1800 X82.875 Y54.025 E96.06837
G1 X82.945 Y54.095
G0 F3600 X82.875 Y54.59
G1 F1800 X64.488 Y36.204 E96.93321
G1 X64.418 Y36.134
G0 F3600 X63.923 Y36.204
G1 F1800 X82.875 Y55.156 E97.82466
G1 X82.945 Y55.226
G0 F3600 X82.875 Y55.722
G1 F1800 X63.357 Y36.204 E98.74272
G1 X63.287 Y36.134
G0 F3600 X62.791 Y36.204
G1 F1800 X82.875 Y56.287 E99.68739
G1 X82.945 Y56.357
G0 F3600 X82.875 Y56.853
G1 F1800 X62.226 Y36.204 E100.65866
G1 X62.156 Y36.134
G0 F3600 X61.66 Y36.204
G1 F1800 X82.875 Y57.419 E101.65655
G1 X82.945 Y57.489
G0 F3600 X82.875 Y57.984
G1 F1800 X61.094 Y36.204 E102.68103
G1 X61.024 Y36.134
G0 F3600 X60.529 Y36.204
G1 F1800 X82.875 Y58.55 E103.73212
G1 X82.945 Y58.62
G0 F3600 X82.875 Y59.116
G1 F1800 X59.963 Y36.204 E104.80983
G1 X59.893 Y36.134
G0 F3600 X59.397 Y36.204
G1 F1800 X82.875 Y59.681 E105.91414
G1 X82.945 Y59.751
G0 F3600 X82.875 Y60.247
G1 F1800 X58.831 Y36.204 E107.04507
G1 X58.761 Y36.134
G0 F3600 X58.266 Y36.204
G1 F1800 X82.875 Y60.813 E108.2026
G1 X82.945 Y60.883
G0 F3600 X82.875 Y61.378
G1 F1800 X57.7 Y36.204 E109.38674
G1 X57.63 Y36.134
G0 F3600 X57.134 Y36.204
G1 F1800 X82.875 Y61.944 E110.59749
G1 X82.945 Y62.014
G0 F3600 X82.875 Y62.51
G1 F1800 X56.569 Y36.204 E111.83484
G1 X56.499 Y36.134
G0 F3600 X56.003 Y36.204
G1 F1800 X82.875 Y63.076 E113.09882
G1 X82.945 Y63.146
G0 F3600 X82.875 Y63.641
G1 F1800 X55.437 Y36.204 E114.3894
G1 X55.367 Y36.134
G0 F3600 X54.872 Y36.204
G1 F1800 X82.875 Y64.207 E115.70657
G1 X82.945 Y64.277
G0 F3600 X82.875 Y64.773
G1 F1800 X54.306 Y36.204 E117.05037
G1 X54.236 Y36.134
G0 F3600 X53.74 Y36.204
G1 F1800 X82.875 Y65.338 E118.42077
G1 X82.945 Y65.408
G0 F3600 X82.875 Y65.904
G1 F1800 X53.175 Y36.204 E119.81776
G1 X53.105 Y36.134
G0 F3600 X52.609 Y36.204
G1 F1800 X82.875 Y66.47 E121.24138
G1 X82.945 Y66.54
G0 F3600 X82.875 Y67.035
G1 F1800 X52.043 Y36.204 E122.6916
G1 X51.973 Y36.134
G0 F3600 X51.478 Y36.204
G1 F1800 X82.875 Y67.601 E124.16842
G1 X82.945 Y67.671
G0 F3600 X82.875 Y68.167
G1 F1800 X50.912 Y36.204 E125.67186
G1 X50.842 Y36.134
G0 F3600 X50.346 Y36.204
G1 F1800 X82.875 Y68.732 E127.2019
G1 X82.945 Y68.802
G0 F3600 X82.64 Y69.064
G1 F1800 X49.781 Y36.204 E128.74751
G1 X49.711 Y36.134
G0 F3600 X49.215 Y36.204
G1 F1800 X82.075 Y69.064 E130.29315
G1 X82.145 Y69.134
G0 F3600 X81.509 Y69.064
G1 F1800 X48.649 Y36.204 E131.83878
G1 X48.579 Y36.134
G0 F3600 X48.083 Y36.204
G1 F1800 X80.943 Y69.064 E133.38442
G1 X81.013 Y69.134
G0 F3600 X80.378 Y69.064
G1 F1800 X47.518 Y36.204 E134.93005
G1 X47.448 Y36.134
G0 F3600 X46.952 Y36.204
G1 F1800 X79.812 Y69.064 E136.47568
G1 X79.882 Y69.134
G0 F3600 X79.246 Y69.064
G1 F1800 X46.386 Y36.204 E138.02132
G1 X46.316 Y36.134
G0 F3600 X45.821 Y36.204
G1 F1800 X78.681 Y69.064 E139.56695
G1 X78.751 Y69.134
G0 F3600 X78.115 Y69.064
G1 F1800 X45.255 Y36.204 E141.11258
G1 X45.185 Y36.134
G0 F3600 X44.689 Y36.204
G1 F1800 X77.549 Y69.064 E142.65822
G1 X77.619 Y69.134
G0 F3600 X76.984 Y69.064
G1 F1800 X44.124 Y36.204 E144.20385
G1 X44.054 Y36.134
G0 F3600 X43.558 Y36.204
G1 F1800 X76.418 Y69.064 E145.74948
G1 X76.488 Y69.134
G0 F3600 X75.852 Y69.064
G1 F1800 X42.992 Y36.204 E147.29512
G1 X42.922 Y36.134
G0 F3600 X42.427 Y36.204
G1 F1800 X75.287 Y69.064 E148.84075
G1 X75.357 Y69.134
G0 F3600 X74.721 Y69.064
G1 F1800 X41.861 Y36.204 E150.38639
G1 X41.791 Y36.134
G0 F3600 X41.295 Y36.204
G1 F1800 X74.155 Y69.064 E151.93202
G1 X74.225 Y69.134
G0 F3600 X73.59 Y69.064
G1 F1800 X40.73 Y36.204 E153.47765
G1 X40.66 Y36.134
G0 F3600 X40.164 Y36.204
G1 F1800 X73.024 Y69.064 E155.02329
G1 X73.094 Y69.134
G0 F3600 X72.458 Y69.064
G1 F1800 X39.598 Y36.204 E156.56892
G1 X39.528 Y36.134
G0 F3600 X39.033 Y36.204
G1 F1800 X71.892 Y69.064 E158.11453
G1 X71.962 Y69.134
G0 F3600 X71.327 Y69.064
G1 F1800 X38.467 Y36.204 E159.66016
G1 X38.397 Y36.134
G0 F3600 X37.901 Y36.204
G1 F1800 X70.761 Y69.064 E161.2058
G1 X70.831 Y69.134
G0 F3600 X70.195 Y69.064
G1 F1800 X37.335 Y36.204 E162.75143
G1 X37.265 Y36.134
G0 F3600 X36.77 Y36.204
G1 F1800 X69.63 Y69.064 E164.29706
G1 X69.7 Y69.134
G0 F3600 X69.064 Y69.064
G1 F1800 X36.204 Y36.204 E165.8427
G1 X36.134 Y36.134
G0 F3600 X35.638 Y36.204
G1 F1800 X68.498 Y69.064 E167.38833
G1 X68.568 Y69.134
G0 F3600 X67.933 Y69.064
G1 F1800 X35.073 Y36.204 E168.93397
G1 X35.003 Y36.134
G0 F3600 X34.507 Y36.204
G1 F1800 X67.367 Y69.064 E170.4796
G1 X67.437 Y69.134
G0 F3600 X66.801 Y69.064
G1 F1800 X33.941 Y36.204 E172.02523
G1 X33.871 Y36.134
G0 F3600 X33.376 Y36.204
G1 F1800 X66.236 Y69.064 E173.57087
G1 X66.306 Y69.134
G0 F3600 X65.67 Y69.064
G1 F1800 X32.81 Y36.204 E175.1165
G1 X32.74 Y36.134
G0 F3600 X32.244 Y36.204
G1 F1800 X65.104 Y69.064 E176.66213
G1 X65.174 Y69.134
G0 F3600 X64.539 Y69.064
G1 F1800 X31.679 Y36.204 E178.20777
G1 X31.609 Y36.134
G0 F3600 X31.113 Y36.204
G1 F1800 X63.973 Y69.064 E179.7534
G1 X64.043 Y69.134
G0 F3600 X63.407 Y69.064
G1 F1800 X30.547 Y36.204 E181.29904
G1 X30.477 Y36.134
G0 F3600 X29.982 Y36.204
G1 F1800 X62.841 Y69.064 E182.84465
G1 X62.911 Y69.134
