;FLAVOR:Marlin
;TIME:11389
;Filament used: 12.5358m
;Layer height: 0.2
;Generated with Cura_SteamEngine 3.6.0
M140 S60
M105
M190 S60
M104 S195
M105
M109 S195
M82 ;absolute extrusion mode
G21 ;metric values
G90 ;absolute positioning
M82 ;set extruder to absolute mode
M107 ;start with the fan off
G28 X0 Y0 ;move X/Y to min endstops
G28 Z0 ;move Z to min endstops
G1 Z15.0 F9000 ;move the platform down 15mm
G92 E0 ;zero the extruded length
G1 F200 E3 ;extrude 3mm of feed stock
G92 E0 ;zero the extruded length again
G1 F9000
;Put printing message on LCD screen
M117 Printing...
G92 E0
G1 F900 E-4
;LAYER_COUNT:496
;LAYER:0
M107
G0 F4000 X51.483 Y86.332 Z0.2
;TYPE:SKIRT
G1 F900 E0
G1 F3000 X52.021 Y86.093 E0.01469
G1 X52.587 Y85.928 E0.02939
G1 X53.171 Y85.841 E0.04412
G1 X53.469 Y85.827 E0.05156
G1 X57.891 Y85.777 E0.16188
G1 X58.031 Y85.778 E0.16537
G1 X63.691 Y85.896 E0.30659
G1 X97.382 Y85.856 E1.14701
G1 X102.788 Y85.55 E1.28208
G1 X108.166 Y84.939 E1.4171
G1 X113.488 Y84.027 E1.55179
G1 X118.78 Y82.809 E1.68726
G1 X121.338 Y82.106 E1.75343
G1 X126.531 Y80.435 E1.88951
G1 X131.569 Y78.495 E2.02418
G1 X136.536 Y76.251 E2.16014
G1 X138.903 Y75.059 E2.22625
G1 X143.624 Y72.423 E2.36113
G1 X148.241 Y69.493 E2.49754
G1 X151.159 Y67.454 E2.58634
G1 X151.451 Y67.267 E2.59499
G1 X171.32 Y55.625 E3.16943
G1 X171.848 Y55.362 E3.18415
G1 X172.406 Y55.173 E3.19885
G1 X172.985 Y55.061 E3.21356
G1 X173.574 Y55.028 E3.22827
G1 X174.161 Y55.076 E3.24296
G1 X174.737 Y55.202 E3.25767
G1 X175.291 Y55.405 E3.27239
G1 X175.812 Y55.681 E3.2871
G1 X176.29 Y56.025 E3.30179
G1 X176.718 Y56.431 E3.3165
G1 X177.087 Y56.89 E3.33119
G1 X177.391 Y57.396 E3.34592
G1 X177.624 Y57.938 E3.36064
G1 X177.781 Y58.506 E3.37534
G1 X177.869 Y59.378 E3.3972
G1 X177.875 Y125.378 E5.04358
G1 X177.835 Y125.966 E5.05828
G1 X177.716 Y126.543 E5.07297
G1 X177.52 Y127.099 E5.08768
G1 X177.251 Y127.624 E5.1024
G1 X176.913 Y128.107 E5.1171
G1 X176.513 Y128.54 E5.13181
G1 X176.058 Y128.915 E5.14651
G1 X175.556 Y129.225 E5.16123
G1 X175.017 Y129.464 E5.17594
G1 X174.451 Y129.628 E5.19064
G1 X173.868 Y129.714 E5.20534
G1 X173.278 Y129.721 E5.22006
G1 X172.693 Y129.648 E5.23476
G1 X172.123 Y129.496 E5.24948
G1 X171.326 Y129.131 E5.27135
G1 X151.325 Y117.41 E5.84963
G1 X151.141 Y117.296 E5.85503
G1 X145.248 Y113.437 E6.03075
G1 X140.559 Y110.774 E6.16526
G1 X135.711 Y108.373 E6.30022
G1 X130.68 Y106.225 E6.43667
G1 X128.216 Y105.296 E6.50236
G1 X123.072 Y103.6 E6.63747
G1 X117.801 Y102.188 E6.7736
G1 X115.166 Y101.598 E6.84095
G1 X112.581 Y101.1 E6.90662
G1 X107.198 Y100.292 E7.04241
G1 X101.769 Y99.79 E7.17841
G1 X99.09 Y99.657 E7.24532
G1 X95.669 Y99.596 E7.33067
G1 X63.515 Y99.596 E8.13276
G1 X58.928 Y99.701 E8.24721
G1 X58.804 Y99.702 E8.2503
G1 X53.5 Y99.673 E8.38261
G1 X52.912 Y99.63 E8.39732
G1 X52.335 Y99.507 E8.41204
G1 X51.781 Y99.308 E8.42672
G1 X51.258 Y99.036 E8.44143
G1 X50.776 Y98.695 E8.45616
G1 X50.346 Y98.293 E8.47084
G1 X49.973 Y97.836 E8.48555
G1 X49.666 Y97.333 E8.50025
G1 X49.43 Y96.792 E8.51498
G1 X49.269 Y96.225 E8.52968
G1 X49.186 Y95.642 E8.54437
G1 X49.174 Y95.328 E8.55221
G1 X49.168 Y90.182 E8.68058
G1 X49.207 Y89.594 E8.69528
G1 X49.326 Y89.016 E8.71
G1 X49.521 Y88.46 E8.72469
G1 X49.79 Y87.935 E8.73941
G1 X50.127 Y87.452 E8.7541
G1 X50.527 Y87.018 E8.76882
G1 X50.982 Y86.643 E8.78353
G1 X51.483 Y86.332 E8.79824
G0 F4000 X51.766 Y86.526
G1 F3000 X52.295 Y86.316 E8.81244
G1 X52.848 Y86.183 E8.82663
G1 X53.472 Y86.127 E8.84226
G1 X57.894 Y86.077 E8.95257
G1 X58.024 Y86.078 E8.95581
G1 X63.685 Y86.196 E9.09706
G1 X97.381 Y86.156 E9.93761
G1 X102.822 Y85.848 E10.07355
G1 X108.196 Y85.238 E10.20847
G1 X113.557 Y84.318 E10.34415
G1 X118.855 Y83.099 E10.47977
G1 X121.437 Y82.39 E10.54656
G1 X126.626 Y80.72 E10.68254
G1 X131.673 Y78.777 E10.81744
G1 X136.679 Y76.515 E10.95447
G1 X139.04 Y75.326 E11.02042
G1 X143.79 Y72.674 E11.15612
G1 X148.397 Y69.75 E11.29224
G1 X151.331 Y67.7 E11.38152
G1 X151.603 Y67.526 E11.38958
G1 X171.472 Y55.884 E11.96402
G1 X171.981 Y55.631 E11.9782
G1 X172.521 Y55.453 E11.99239
G1 X173.081 Y55.352 E12.00658
G1 X173.65 Y55.33 E12.02079
G1 X174.216 Y55.388 E12.03498
G1 X174.768 Y55.525 E12.04917
G1 X175.295 Y55.738 E12.06335
G1 X175.788 Y56.023 E12.07755
G1 X176.235 Y56.374 E12.09173
G1 X176.629 Y56.784 E12.10591
G1 X176.962 Y57.246 E12.12012
G1 X177.227 Y57.749 E12.1343
G1 X177.419 Y58.285 E12.1485
G1 X177.533 Y58.842 E12.16269
G1 X177.569 Y59.378 E12.17609
G1 X177.575 Y125.378 E13.82246
G1 X177.535 Y125.945 E13.83664
G1 X177.416 Y126.501 E13.85083
G1 X177.22 Y127.035 E13.86502
G1 X176.952 Y127.537 E13.87921
G1 X176.615 Y127.996 E13.89341
G1 X176.218 Y128.403 E13.9076
G1 X175.768 Y128.75 E13.92177
G1 X175.273 Y129.031 E13.93597
G1 X174.744 Y129.24 E13.95016
G1 X174.191 Y129.373 E13.96435
G1 X173.624 Y129.427 E13.97856
G1 X173.056 Y129.401 E13.99274
G1 X172.497 Y129.295 E14.00693
G1 X171.958 Y129.113 E14.02112
G1 X171.477 Y128.872 E14.03454
G1 X151.476 Y117.151 E14.61283
G1 X151.305 Y117.045 E14.61785
G1 X145.407 Y113.182 E14.79372
G1 X140.687 Y110.501 E14.92913
G1 X135.843 Y108.102 E15.06397
G1 X130.788 Y105.945 E15.20107
G1 X128.321 Y105.015 E15.26684
G1 X123.154 Y103.312 E15.40255
G1 X117.872 Y101.896 E15.53896
G1 X115.256 Y101.311 E15.60583
G1 X112.613 Y100.801 E15.67298
G1 X107.233 Y99.994 E15.80868
G1 X101.789 Y99.49 E15.94506
G1 X99.11 Y99.358 E16.01197
G1 X95.674 Y99.296 E16.0977
G1 X63.508 Y99.296 E16.90008
G1 X58.921 Y99.401 E17.01454
G1 X58.806 Y99.402 E17.0174
G1 X53.502 Y99.373 E17.14972
G1 X52.935 Y99.33 E17.1639
G1 X52.379 Y99.208 E17.1781
G1 X51.846 Y99.009 E17.19229
G1 X51.346 Y98.738 E17.20648
G1 X50.889 Y98.399 E17.22067
G1 X50.484 Y97.999 E17.23487
G1 X50.139 Y97.547 E17.24906
G1 X49.861 Y97.051 E17.26324
G1 X49.655 Y96.52 E17.27745
G1 X49.525 Y95.967 E17.29162
G1 X49.474 Y95.328 E17.30761
G1 X49.468 Y90.182 E17.43598
G1 X49.507 Y89.614 E17.45018
G1 X49.626 Y89.058 E17.46436
G1 X49.821 Y88.524 E17.47854
G1 X50.089 Y88.022 E17.49274
G1 X50.425 Y87.563 E17.50693
G1 X50.822 Y87.155 E17.52113
G1 X51.272 Y86.807 E17.53532
G1 X51.766 Y86.526 E17.5495
G0 F4000 X51.56 Y86.979
G1 F3000 X52.047 Y86.728 E17.56316
G1 X52.564 Y86.55 E17.5768
G1 X53.102 Y86.45 E17.59045
G1 X53.476 Y86.427 E17.5998
G1 X57.898 Y86.377 E17.71011
G1 X58.018 Y86.378 E17.71311
G1 X63.679 Y86.496 E17.85435
G1 X97.399 Y86.456 E18.6955
G1 X102.837 Y86.148 E18.83137
G1 X108.245 Y85.534 E18.96714
G1 X113.62 Y84.612 E19.10318
G1 X118.906 Y83.396 E19.23848
G1 X121.519 Y82.678 E19.30608
G1 X126.73 Y81.002 E19.44263
G1 X131.806 Y79.047 E19.57832
G1 X136.784 Y76.797 E19.71459
G1 X139.187 Y75.587 E19.7817
G1 X143.935 Y72.937 E19.91734
G1 X148.568 Y69.996 E20.05423
G1 X151.502 Y67.946 E20.14351
G1 X151.754 Y67.785 E20.15097
G1 X171.623 Y56.143 E20.72542
G1 X172.114 Y55.901 E20.73908
G1 X172.636 Y55.734 E20.75275
G1 X173.175 Y55.644 E20.76638
G1 X173.723 Y55.634 E20.78005
G1 X174.266 Y55.703 E20.79371
G1 X174.793 Y55.851 E20.80736
G1 X175.293 Y56.074 E20.82102
G1 X175.755 Y56.367 E20.83466
G1 X176.169 Y56.725 E20.84832
G1 X176.527 Y57.139 E20.86197
G1 X176.821 Y57.601 E20.87563
G1 X177.045 Y58.1 E20.88927
G1 X177.193 Y58.627 E20.90293
G1 X177.269 Y59.378 E20.92176
G1 X177.275 Y125.378 E22.56814
G1 X177.235 Y125.924 E22.58179
G1 X177.116 Y126.458 E22.59544
G1 X176.921 Y126.969 E22.60908
G1 X176.653 Y127.446 E22.62273
G1 X176.318 Y127.88 E22.63641
G1 X175.925 Y128.26 E22.65004
G1 X175.479 Y128.578 E22.66371
G1 X174.993 Y128.829 E22.67735
G1 X174.475 Y129.006 E22.69101
G1 X173.937 Y129.105 E22.70465
G1 X173.39 Y129.126 E22.71831
G1 X172.845 Y129.066 E22.73199
G1 X172.316 Y128.928 E22.74562
G1 X171.629 Y128.613 E22.76448
G1 X151.628 Y116.892 E23.34276
G1 X151.47 Y116.794 E23.3474
G1 X145.568 Y112.929 E23.52339
G1 X140.827 Y110.236 E23.6594
G1 X135.967 Y107.829 E23.79469
G1 X130.896 Y105.665 E23.93222
G1 X128.426 Y104.734 E23.99806
G1 X123.241 Y103.024 E24.13426
G1 X117.942 Y101.604 E24.2711
G1 X115.306 Y101.014 E24.33849
G1 X112.689 Y100.51 E24.40497
G1 X107.253 Y99.694 E24.54209
G1 X101.81 Y99.191 E24.67844
G1 X99.129 Y99.058 E24.7454
G1 X95.68 Y98.996 E24.83145
G1 X63.501 Y98.996 E25.63416
G1 X58.914 Y99.101 E25.74861
G1 X58.807 Y99.102 E25.75128
G1 X53.503 Y99.073 E25.88359
G1 X52.958 Y99.03 E25.89723
G1 X52.424 Y98.908 E25.9109
G1 X51.914 Y98.71 E25.92454
G1 X51.438 Y98.439 E25.93821
G1 X51.007 Y98.103 E25.95184
G1 X50.629 Y97.706 E25.96551
G1 X50.313 Y97.26 E25.97915
G1 X50.065 Y96.772 E25.9928
G1 X49.891 Y96.253 E26.00646
G1 X49.794 Y95.714 E26.02012
G1 X49.774 Y95.327 E26.02979
G1 X49.768 Y90.181 E26.15815
G1 X49.807 Y89.635 E26.17181
G1 X49.926 Y89.101 E26.18546
G1 X50.121 Y88.59 E26.1991
G1 X50.388 Y88.112 E26.21276
G1 X50.722 Y87.678 E26.22642
G1 X51.115 Y87.298 E26.24005
G1 X51.56 Y86.979 E26.25371
G0 F4000 X51.847 Y87.159
G1 F3000 X52.324 Y86.94 E26.26681
G1 X52.829 Y86.797 E26.2799
G1 X53.479 Y86.727 E26.29621
G1 X57.901 Y86.677 E26.40652
G1 X58.012 Y86.678 E26.40929
G1 X63.674 Y86.796 E26.55056
G1 X97.416 Y86.756 E27.39226
G1 X102.853 Y86.448 E27.5281
G1 X108.295 Y85.83 E27.66473
G1 X113.665 Y84.909 E27.80064
G1 X118.986 Y83.685 E27.93684
G1 X121.611 Y82.964 E28.00474
G1 X126.814 Y81.29 E28.14108
G1 X131.925 Y79.321 E28.27771
G1 X136.928 Y77.061 E28.41465
G1 X139.325 Y75.854 E28.4816
G1 X144.087 Y73.195 E28.61765
G1 X148.74 Y70.242 E28.75512
G1 X151.674 Y68.192 E28.84441
G1 X151.906 Y68.043 E28.85129
G1 X171.775 Y56.401 E29.42574
G1 X172.247 Y56.171 E29.43883
G1 X172.748 Y56.015 E29.45192
G1 X173.267 Y55.937 E29.46501
G1 X173.792 Y55.939 E29.47811
G1 X174.311 Y56.02 E29.49121
G1 X174.811 Y56.179 E29.5043
G1 X175.281 Y56.412 E29.51739
G1 X175.711 Y56.714 E29.5305
G1 X176.09 Y57.077 E29.54359
G1 X176.409 Y57.494 E29.55668
G1 X176.662 Y57.954 E29.56978
G1 X176.841 Y58.448 E29.58289
G1 X176.944 Y58.963 E29.59599
G1 X176.969 Y59.378 E29.60636
G1 X176.975 Y125.378 E31.25274
G1 X176.935 Y125.901 E31.26582
G1 X176.816 Y126.412 E31.27891
G1 X176.621 Y126.9 E31.29202
G1 X176.354 Y127.352 E31.30511
G1 X176.022 Y127.758 E31.31819
G1 X175.632 Y128.11 E31.3313
G1 X175.193 Y128.398 E31.3444
G1 X174.716 Y128.616 E31.35748
G1 X174.211 Y128.759 E31.37057
G1 X173.69 Y128.824 E31.38367
G1 X173.165 Y128.809 E31.39677
G1 X172.648 Y128.715 E31.40988
G1 X172.152 Y128.543 E31.42297
G1 X171.781 Y128.355 E31.43335
G1 X151.78 Y116.634 E32.01164
G1 X151.634 Y116.543 E32.01593
G1 X145.721 Y112.671 E32.19224
G1 X140.981 Y109.978 E32.32823
G1 X136.077 Y107.549 E32.46474
G1 X131.012 Y105.388 E32.60211
G1 X128.544 Y104.458 E32.6679
G1 X123.307 Y102.731 E32.80546
G1 X118.035 Y101.318 E32.94161
G1 X115.363 Y100.72 E33.00991
G1 X112.721 Y100.211 E33.07703
G1 X107.29 Y99.396 E33.21402
G1 X101.851 Y98.893 E33.35028
G1 X99.118 Y98.758 E33.41854
G1 X95.685 Y98.696 E33.50419
G1 X63.494 Y98.696 E34.30719
G1 X58.907 Y98.801 E34.42165
G1 X58.809 Y98.802 E34.42409
G1 X53.505 Y98.773 E34.5564
G1 X52.982 Y98.73 E34.56949
G1 X52.471 Y98.608 E34.5826
G1 X51.985 Y98.411 E34.59568
G1 X51.534 Y98.141 E34.60879
G1 X51.13 Y97.807 E34.62187
G1 X50.781 Y97.415 E34.63496
G1 X50.495 Y96.974 E34.64807
G1 X50.279 Y96.496 E34.66116
G1 X50.139 Y95.99 E34.67425
G1 X50.074 Y95.327 E34.69087
G1 X50.068 Y90.181 E34.81924
G1 X50.107 Y89.658 E34.83232
G1 X50.226 Y89.146 E34.84543
G1 X50.42 Y88.658 E34.85853
G1 X50.686 Y88.206 E34.87162
G1 X51.018 Y87.799 E34.88472
G1 X51.408 Y87.447 E34.89782
G1 X51.847 Y87.159 E34.91092
G0 F4000 X52.131 Y87.349
G1 F3000 X52.597 Y87.165 E34.92342
G1 X53.087 Y87.057 E34.93593
G1 X53.482 Y87.027 E34.94582
G1 X57.904 Y86.977 E35.05613
G1 X58.006 Y86.978 E35.05867
G1 X63.668 Y87.096 E35.19994
G1 X97.415 Y87.056 E36.04177
G1 X102.886 Y86.746 E36.17846
G1 X108.328 Y86.128 E36.31508
G1 X113.732 Y85.202 E36.45185
G1 X119.077 Y83.972 E36.58867
G1 X121.673 Y83.258 E36.65583
G1 X126.924 Y81.569 E36.79343
G1 X132.037 Y79.6 E36.9301
G1 X137.062 Y77.329 E37.06766
G1 X139.472 Y76.115 E37.13497
G1 X144.246 Y73.451 E37.27135
G1 X148.896 Y70.499 E37.40874
G1 X151.846 Y68.438 E37.49851
G1 X152.058 Y68.302 E37.50479
G1 X171.927 Y56.66 E38.07924
G1 X172.378 Y56.442 E38.09174
G1 X172.859 Y56.298 E38.10426
G1 X173.356 Y56.232 E38.11677
G1 X173.857 Y56.246 E38.12927
G1 X174.35 Y56.34 E38.14179
G1 X174.822 Y56.51 E38.15431
G1 X175.261 Y56.753 E38.16682
G1 X175.655 Y57.063 E38.17933
G1 X175.996 Y57.431 E38.19184
G1 X176.273 Y57.849 E38.20435
G1 X176.481 Y58.306 E38.21688
G1 X176.614 Y58.789 E38.22937
G1 X176.669 Y59.378 E38.24413
G1 X176.675 Y125.378 E39.89051
G1 X176.635 Y125.878 E39.90302
G1 X176.516 Y126.365 E39.91553
G1 X176.322 Y126.827 E39.92802
G1 X176.056 Y127.253 E39.94055
G1 X175.727 Y127.631 E39.95305
G1 X175.341 Y127.952 E39.96558
G1 X174.909 Y128.207 E39.97809
G1 X174.443 Y128.391 E39.99059
G1 X173.953 Y128.499 E40.0031
G1 X173.452 Y128.527 E40.01562
G1 X172.953 Y128.476 E40.02813
G1 X172.469 Y128.346 E40.04064
G1 X171.932 Y128.096 E40.05541
G1 X151.931 Y116.375 E40.6337
G1 X151.798 Y116.292 E40.63761
G1 X145.875 Y112.413 E40.81422
G1 X141.121 Y109.713 E40.9506
G1 X136.207 Y107.279 E41.0874
G1 X131.132 Y105.113 E41.22504
G1 X128.628 Y104.169 E41.2918
G1 X123.406 Y102.448 E41.42895
G1 X118.088 Y101.023 E41.56629
G1 X115.42 Y100.425 E41.63449
G1 X112.769 Y99.914 E41.70184
G1 X107.345 Y99.101 E41.83865
G1 X101.847 Y98.592 E41.97639
G1 X99.139 Y98.458 E42.04402
G1 X95.69 Y98.396 E42.13007
G1 X63.487 Y98.396 E42.93338
G1 X58.9 Y98.501 E43.04783
G1 X58.811 Y98.502 E43.05005
G1 X53.507 Y98.473 E43.18236
G1 X53.007 Y98.43 E43.19488
G1 X52.52 Y98.309 E43.2074
G1 X52.059 Y98.112 E43.21991
G1 X51.635 Y97.844 E43.23242
G1 X51.259 Y97.512 E43.24493
G1 X50.94 Y97.125 E43.25744
G1 X50.687 Y96.692 E43.26995
G1 X50.506 Y96.224 E43.28247
G1 X50.401 Y95.733 E43.29499
G1 X50.374 Y95.327 E43.30514
G1 X50.368 Y90.181 E43.43351
G1 X50.407 Y89.681 E43.44602
G1 X50.526 Y89.193 E43.45855
G1 X50.72 Y88.731 E43.47105
G1 X50.985 Y88.305 E43.48357
G1 X51.314 Y87.926 E43.49608
G1 X51.699 Y87.605 E43.50859
G1 X52.131 Y87.349 E43.52112
G1 F900 E39.52112
;MESH:single-lightsaber-stand-no-text.stl
G0 F4000 X53.964 Y89.493
G0 X53.972 Y90.621
G0 X57.948 Y94.496
;TYPE:WALL-INNER
G1 F900 E43.52112
G1 F2400 X57.946 Y94.613 E43.52403
G1 X54.258 Y94.587 E43.61603
G1 X54.258 Y90.905 E43.70788
G1 X57.963 Y90.877 E43.80031
G1 X57.968 Y90.996 E43.80328
G1 X138.558 Y90.996 E45.8136
G1 X140.433 Y90.882 E45.86046
G1 X142.305 Y90.54 E45.90793
G1 X144.122 Y89.973 E45.95541
G1 X145.856 Y89.192 E46.00285
G1 X147.484 Y88.207 E46.05032
G1 X148.981 Y87.034 E46.09776
G1 X150.335 Y85.679 E46.14554
G1 X151.495 Y84.198 E46.19247
G1 X152.477 Y82.573 E46.23983
G1 X153.257 Y80.842 E46.28719
G1 X153.824 Y79.028 E46.3346
G1 X154.169 Y77.159 E46.38201
G1 X154.283 Y75.286 E46.42882
G1 X154.285 Y71.513 E46.52294
G1 X172.56 Y60.799 E47.05138
G1 X172.785 Y60.667 E47.05789
G1 X172.785 Y60.927 E47.06156
G1 X172.785 Y60.928 E47.06158
G1 X172.785 Y123.832 E48.63073
G1 X172.785 Y123.833 E48.63076
G1 X172.785 Y124.093 E48.63724
G1 X172.56 Y123.961 E48.64093
G1 X154.285 Y113.247 E49.16937
G1 X154.285 Y110.224 E49.24477
G1 X154.173 Y108.353 E49.29153
G1 X153.832 Y106.484 E49.33892
G1 X153.267 Y104.673 E49.38625
G1 X152.49 Y102.942 E49.43358
G1 X151.486 Y101.282 E49.48197
G1 X150.324 Y99.8 E49.52895
G1 X148.994 Y98.468 E49.5759
G1 X147.452 Y97.264 E49.6247
G1 X145.822 Y96.283 E49.67216
G1 X144.085 Y95.507 E49.71962
G1 X142.267 Y94.944 E49.76709
G1 X140.397 Y94.607 E49.81449
G1 X138.558 Y94.496 E49.86045
G1 X57.948 Y94.496 E51.87127
G0 F4000 X58.243 Y94.796
G1 F2400 X58.241 Y94.915 E51.87424
G1 X53.958 Y94.885 E51.98108
G1 X53.958 Y90.607 E52.0878
G1 X58.251 Y90.575 E52.19489
G1 X58.256 Y90.696 E52.19791
G1 X138.549 Y90.696 E54.20083
G1 X140.397 Y90.584 E54.24701
G1 X142.233 Y90.248 E54.29357
G1 X144.015 Y89.692 E54.34014
G1 X145.716 Y88.926 E54.38667
G1 X147.313 Y87.96 E54.43323
G1 X148.782 Y86.809 E54.47978
G1 X150.11 Y85.48 E54.52665
G1 X151.248 Y84.027 E54.57269
G1 X152.211 Y82.433 E54.61915
G1 X152.976 Y80.735 E54.6656
G1 X153.532 Y78.956 E54.7121
G1 X153.871 Y77.123 E54.7586
G1 X153.983 Y75.277 E54.80473
G1 X153.985 Y71.341 E54.90291
