;FLAVOR:Marlin
;TIME:7580
;Filament used: 9.08456m
;Layer height: 0.2
;Generated with Cura_SteamEngine 3.6.0
M140 S60
M105
M190 S60
M104 S200
M105
M109 S200
M82 ;absolute extrusion mode
G21 ;metric values
G90 ;absolute positioning
M82 ;set extruder to absolute mode
M107 ;start with the fan off
G28 X0 Y0 ;move X/Y to min endstops
G28 Z0 ;move Z to min endstops
G1 Z15.0 F9000 ;move the platform down 15mm
G92 E0 ;zero the extruded length
G1 F200 E3 ;extrude 3mm of feed stock
G92 E0 ;zero the extruded length again
G1 F9000
;Put printing message on LCD screen
M117 Printing...
G92 E0
G1 F1500 E-6.5
;LAYER_COUNT:90
;LAYER:0
M107
G0 F6000 X55.593 Y51.562 Z0.2
;TYPE:SKIRT
G1 F1500 E0
G1 F3000 X58.472 Y48.702 E0.12822
G1 X58.679 Y48.511 E0.13712
G1 X61.499 Y46.083 E0.2547
G1 X61.679 Y45.937 E0.26203
G1 X62.948 Y44.968 E0.31248
G1 X63.129 Y44.837 E0.31954
G1 X66.06 Y42.851 E0.43141
G1 X66.26 Y42.724 E0.43889
G1 X69.555 Y40.768 E0.55997
G1 X69.782 Y40.643 E0.56816
G1 X71.329 Y39.857 E0.62298
G1 X71.494 Y39.778 E0.62876
G1 X75.076 Y38.162 E0.75293
G1 X75.358 Y38.048 E0.76254
G1 X77.984 Y37.099 E0.85077
G1 X78.252 Y37.013 E0.85966
G1 X82.958 Y35.683 E1.01418
G1 X83.256 Y35.611 E1.02387
G1 X85.751 Y35.111 E1.10427
G1 X85.997 Y35.07 E1.11215
G1 X89.77 Y34.559 E1.23245
G1 X90.047 Y34.531 E1.24125
G1 X93.316 Y34.321 E1.34475
G1 X93.562 Y34.313 E1.35253
G1 X96.803 Y34.307 E1.45494
G1 X97.207 Y34.327 E1.46772
G1 X103.905 Y35.004 E1.68043
G1 X104.342 Y35.073 E1.69441
G1 X108.415 Y35.953 E1.82608
G1 X108.77 Y36.047 E1.83768
G1 X113.906 Y37.668 E2.00786
G1 X114.268 Y37.802 E2.02005
G1 X118.424 Y39.576 E2.16283
G1 X118.77 Y39.744 E2.17499
G1 X123.139 Y42.136 E2.33237
G1 X123.346 Y42.258 E2.33996
G1 X124.625 Y43.063 E2.38771
G1 X124.894 Y43.248 E2.39803
G1 X129.939 Y47.038 E2.59741
G1 X130.208 Y47.26 E2.60843
G1 X131.984 Y48.858 E2.68392
G1 X132.143 Y49.009 E2.69084
G1 X134.622 Y51.503 E2.80195
G1 X134.838 Y51.738 E2.81204
G1 X137.741 Y55.172 E2.95412
G1 X137.932 Y55.418 E2.96396
G1 X139.619 Y57.767 E3.05534
G1 X139.761 Y57.978 E3.06338
G1 X141.886 Y61.379 E3.19009
G1 X142.004 Y61.58 E3.19745
G1 X142.891 Y63.206 E3.25598
G1 X143.019 Y63.464 E3.26508
G1 X145.24 Y68.351 E3.43469
G1 X145.346 Y68.607 E3.44345
G1 X145.985 Y70.324 E3.50134
G1 X146.06 Y70.544 E3.50868
G1 X147.137 Y74.057 E3.62478
G1 X147.196 Y74.274 E3.63189
G1 X147.68 Y76.247 E3.69607
G1 X147.723 Y76.443 E3.70241
G1 X148.311 Y79.506 E3.80096
G1 X148.355 Y79.794 E3.81017
G1 X148.842 Y83.974 E3.94314
G1 X148.862 Y84.204 E3.95043
G1 X148.987 Y86.379 E4.01927
G1 X148.994 Y86.643 E4.02762
G1 X148.955 Y90.812 E4.15935
G1 X148.942 Y91.095 E4.1683
G1 X148.798 Y92.867 E4.22448
G1 X148.77 Y93.117 E4.23242
G1 X147.916 Y98.973 E4.41941
G1 X147.851 Y99.311 E4.43029
G1 X147.232 Y101.931 E4.51535
G1 X147.163 Y102.184 E4.52364
G1 X146.025 Y105.884 E4.64595
G1 X145.943 Y106.124 E4.65397
G1 X145.079 Y108.401 E4.73092
G1 X145 Y108.594 E4.73751
G1 X143.87 Y111.157 E4.82601
G1 X143.736 Y111.432 E4.83568
G1 X141.324 Y115.924 E4.99678
G1 X141.16 Y116.202 E5.00698
G1 X139.724 Y118.42 E5.09047
G1 X139.622 Y118.569 E5.09617
G1 X138.087 Y120.718 E5.17962
G1 X137.917 Y120.939 E5.18843
G1 X135.407 Y123.974 E5.31287
G1 X135.255 Y124.147 E5.32015
G1 X134.003 Y125.493 E5.37823
G1 X133.873 Y125.627 E5.38413
G1 X132.111 Y127.35 E5.462
G1 X131.951 Y127.498 E5.46889
G1 X129.444 Y129.693 E5.57417
G1 X129.233 Y129.865 E5.58277
G1 X126.289 Y132.104 E5.69964
G1 X126.085 Y132.249 E5.70755
G1 X123.189 Y134.175 E5.81744
G1 X122.903 Y134.349 E5.82802
G1 X119.398 Y136.273 E5.95436
G1 X119.147 Y136.399 E5.96323
G1 X115.979 Y137.855 E6.0734
G1 X115.692 Y137.973 E6.0832
G1 X111.807 Y139.401 E6.21399
G1 X111.542 Y139.488 E6.2228
G1 X108.605 Y140.338 E6.31941
G1 X108.358 Y140.401 E6.32746
G1 X105.275 Y141.081 E6.42722
G1 X105.004 Y141.131 E6.43593
G1 X101.256 Y141.687 E6.55565
G1 X101.047 Y141.713 E6.5623
G1 X98.61 Y141.943 E6.63965
G1 X98.349 Y141.958 E6.64791
G1 X95.343 Y142.042 E6.74293
G1 X95.095 Y142.042 E6.75076
G1 X91.093 Y141.902 E6.87729
G1 X90.744 Y141.874 E6.88835
G1 X86.542 Y141.352 E7.02215
G1 X86.239 Y141.302 E7.03185
G1 X84.612 Y140.97 E7.08432
G1 X84.446 Y140.933 E7.08969
G1 X79.277 Y139.644 E7.25802
G1 X78.946 Y139.545 E7.26893
G1 X75.894 Y138.493 E7.37094
G1 X75.573 Y138.367 E7.38183
G1 X70.917 Y136.292 E7.5429
G1 X70.632 Y136.151 E7.55294
G1 X67.982 Y134.704 E7.64835
G1 X67.731 Y134.555 E7.65757
G1 X64.069 Y132.189 E7.79533
G1 X63.804 Y132.002 E7.80558
G1 X60.886 Y129.757 E7.92191
G1 X60.64 Y129.551 E7.93204
G1 X57.308 Y126.527 E8.07422
G1 X57.082 Y126.305 E8.08423
G1 X54.665 Y123.729 E8.19584
G1 X54.492 Y123.531 E8.20415
G1 X52.387 Y120.964 E8.30904
G1 X52.223 Y120.75 E8.31756
G1 X50.335 Y118.098 E8.42043
G1 X50.176 Y117.855 E8.4296
G1 X48.046 Y114.343 E8.55938
G1 X47.915 Y114.11 E8.56783
G1 X46.641 Y111.647 E8.65545
G1 X46.549 Y111.458 E8.66209
G1 X45.518 Y109.175 E8.74124
G1 X45.423 Y108.946 E8.74908
G1 X44.213 Y105.747 E8.85714
G1 X44.137 Y105.527 E8.8645
G1 X43.216 Y102.576 E8.96218
G1 X43.134 Y102.269 E8.97222
G1 X42.253 Y98.369 E9.09855
G1 X42.213 Y98.17 E9.10496
G1 X41.802 Y95.785 E9.18143
G1 X41.765 Y95.513 E9.19011
G1 X41.373 Y91.653 E9.3127
G1 X41.353 Y91.311 E9.32352
G1 X41.284 Y86.526 E9.47473
G1 X41.293 Y86.201 E9.48501
G1 X41.524 Y82.798 E9.59278
G1 X41.552 Y82.526 E9.60142
G1 X42.038 Y79.006 E9.71369
G1 X42.096 Y78.683 E9.72406
G1 X43.103 Y74.184 E9.86974
G1 X43.18 Y73.895 E9.87919
G1 X44.057 Y71.019 E9.97419
G1 X44.119 Y70.832 E9.98042
G1 X44.806 Y68.925 E10.04446
G1 X44.904 Y68.679 E10.05283
G1 X46.727 Y64.519 E10.19634
G1 X46.855 Y64.254 E10.20564
G1 X48.138 Y61.834 E10.29219
G1 X48.282 Y61.585 E10.30128
G1 X50.872 Y57.455 E10.45531
G1 X51.069 Y57.169 E10.46628
G1 X53.233 Y54.312 E10.57953
G1 X53.38 Y54.13 E10.58692
G1 X55.375 Y51.797 E10.68391
G1 X55.593 Y51.562 E10.69404
G0 F6000 X55.861 Y51.831
G1 F3000 X58.74 Y48.971 E10.82227
G1 X58.927 Y48.799 E10.83029
G1 X61.747 Y46.371 E10.94787
G1 X61.909 Y46.239 E10.95448
G1 X63.178 Y45.27 E11.00493
G1 X63.342 Y45.152 E11.01131
G1 X66.273 Y43.166 E11.12318
G1 X66.454 Y43.051 E11.12996
G1 X69.749 Y41.095 E11.25103
G1 X69.954 Y40.982 E11.25843
G1 X71.501 Y40.196 E11.31325
G1 X71.65 Y40.125 E11.31847
G1 X75.232 Y38.509 E11.44264
G1 X75.487 Y38.406 E11.45133
G1 X78.113 Y37.457 E11.53955
G1 X78.355 Y37.379 E11.54759
G1 X83.061 Y36.049 E11.70211
G1 X83.331 Y35.984 E11.71088
G1 X85.826 Y35.484 E11.79128
G1 X86.048 Y35.446 E11.7984
G1 X89.821 Y34.935 E11.9187
G1 X90.071 Y34.91 E11.92664
G1 X93.34 Y34.7 E12.03015
G1 X93.562 Y34.693 E12.03716
G1 X96.803 Y34.687 E12.13957
G1 X97.169 Y34.705 E12.15115
G1 X103.867 Y35.382 E12.36387
G1 X104.262 Y35.445 E12.3765
G1 X108.335 Y36.325 E12.50817
G1 X108.655 Y36.41 E12.51863
G1 X113.791 Y38.031 E12.6888
G1 X114.119 Y38.152 E12.69985
G1 X118.275 Y39.926 E12.84263
G1 X118.587 Y40.078 E12.8536
G1 X122.956 Y42.47 E13.01098
G1 X123.144 Y42.58 E13.01786
G1 X124.423 Y43.385 E13.06561
G1 X124.665 Y43.552 E13.0749
G1 X129.71 Y47.342 E13.27428
G1 X129.954 Y47.542 E13.28425
G1 X131.73 Y49.14 E13.35974
G1 X131.874 Y49.277 E13.36602
G1 X134.353 Y51.771 E13.47713
G1 X134.547 Y51.983 E13.48621
G1 X137.45 Y55.417 E13.62829
G1 X137.624 Y55.64 E13.63723
G1 X139.311 Y57.989 E13.72861
G1 X139.439 Y58.179 E13.73585
G1 X141.564 Y61.58 E13.86256
G1 X141.67 Y61.762 E13.86922
G1 X142.557 Y63.388 E13.92774
G1 X142.673 Y63.621 E13.93596
G1 X144.894 Y68.508 E14.10558
G1 X144.99 Y68.74 E14.11351
G1 X145.629 Y70.457 E14.1714
G1 X145.696 Y70.656 E14.17803
G1 X146.773 Y74.169 E14.29413
G1 X146.827 Y74.364 E14.30053
G1 X147.311 Y76.337 E14.36472
G1 X147.35 Y76.515 E14.37047
G1 X147.938 Y79.578 E14.46902
G1 X147.978 Y79.838 E14.47733
G1 X148.465 Y84.018 E14.6103
G1 X148.483 Y84.226 E14.6169
G1 X148.608 Y86.401 E14.68574
G1 X148.614 Y86.639 E14.69326
G1 X148.575 Y90.808 E14.82499
G1 X148.563 Y91.064 E14.83309
G1 X148.419 Y92.836 E14.88927
G1 X148.394 Y93.062 E14.89645
G1 X147.54 Y98.918 E15.08344
G1 X147.481 Y99.224 E15.09329
G1 X146.862 Y101.844 E15.17835
G1 X146.8 Y102.072 E15.18582
G1 X145.662 Y105.772 E15.30813
G1 X145.588 Y105.99 E15.31541
G1 X144.724 Y108.267 E15.39236
G1 X144.653 Y108.44 E15.39827
G1 X143.523 Y111.003 E15.48677
G1 X143.401 Y111.252 E15.49553
G1 X140.989 Y115.744 E15.65663
G1 X140.841 Y115.995 E15.66584
G1 X139.405 Y118.213 E15.74933
G1 X139.313 Y118.348 E15.75449
G1 X137.778 Y120.497 E15.83794
G1 X137.624 Y120.697 E15.84591
G1 X135.114 Y123.732 E15.97036
G1 X134.977 Y123.888 E15.97692
G1 X133.725 Y125.234 E16.035
G1 X133.607 Y125.355 E16.04034
G1 X131.845 Y127.078 E16.11821
G1 X131.701 Y127.212 E16.12442
G1 X129.194 Y129.407 E16.22971
G1 X129.003 Y129.563 E16.2375
G1 X126.059 Y131.802 E16.35437
G1 X125.875 Y131.933 E16.36151
G1 X122.979 Y133.859 E16.4714
G1 X122.72 Y134.016 E16.48097
G1 X119.215 Y135.94 E16.60731
G1 X118.988 Y136.054 E16.61533
G1 X115.82 Y137.51 E16.7255
G1 X115.561 Y137.617 E16.73435
G1 X111.676 Y139.045 E16.86514
G1 X111.436 Y139.123 E16.87311
G1 X108.499 Y139.973 E16.96972
G1 X108.276 Y140.03 E16.97699
G1 X105.193 Y140.71 E17.07675
G1 X104.948 Y140.755 E17.08462
G1 X101.2 Y141.311 E17.20434
G1 X101.011 Y141.334 E17.21036
G1 X98.574 Y141.564 E17.2877
G1 X98.339 Y141.579 E17.29514
G1 X95.333 Y141.663 E17.39016
G1 X95.108 Y141.662 E17.39727
G1 X91.106 Y141.522 E17.5238
G1 X90.791 Y141.497 E17.53378
G1 X86.589 Y140.975 E17.66757
G1 X86.315 Y140.93 E17.67635
G1 X84.688 Y140.598 E17.72882
G1 X84.538 Y140.564 E17.73368
G1 X79.369 Y139.275 E17.902
G1 X79.07 Y139.186 E17.91186
G1 X76.018 Y138.134 E18.01386
G1 X75.728 Y138.02 E18.02371
G1 X71.072 Y135.945 E18.18477
G1 X70.814 Y135.817 E18.19387
G1 X68.164 Y134.37 E18.28928
G1 X67.938 Y134.236 E18.29758
G1 X64.276 Y131.87 E18.43534
G1 X64.036 Y131.7 E18.44463
G1 X61.118 Y129.455 E18.56096
G1 X60.896 Y129.27 E18.57009
G1 X57.564 Y126.246 E18.71227
G1 X57.36 Y126.045 E18.72131
G1 X54.943 Y123.469 E18.83293
G1 X54.785 Y123.29 E18.84047
G1 X52.68 Y120.723 E18.94537
G1 X52.533 Y120.529 E18.95306
G1 X50.645 Y117.877 E19.05592
G1 X50.501 Y117.658 E19.0642
G1 X48.371 Y114.146 E19.19398
G1 X48.252 Y113.935 E19.20164
G1 X46.978 Y111.472 E19.28925
G1 X46.895 Y111.301 E19.29526
G1 X45.864 Y109.018 E19.37441
G1 X45.779 Y108.812 E19.38145
G1 X44.569 Y105.613 E19.48952
G1 X44.5 Y105.414 E19.49618
G1 X43.579 Y102.463 E19.59386
G1 X43.505 Y102.186 E19.60291
G1 X42.624 Y98.286 E19.72925
G1 X42.588 Y98.105 E19.73508
G1 X42.177 Y95.72 E19.81155
G1 X42.143 Y95.475 E19.81936
G1 X41.751 Y91.615 E19.94196
G1 X41.733 Y91.305 E19.95177
G1 X41.664 Y86.52 E20.10298
G1 X41.672 Y86.227 E20.11224
G1 X41.903 Y82.824 E20.22001
G1 X41.929 Y82.578 E20.22783
G1 X42.415 Y79.058 E20.3401
G1 X42.467 Y78.766 E20.34948
G1 X43.474 Y74.267 E20.49515
G1 X43.543 Y74.006 E20.50368
G1 X44.42 Y71.13 E20.59868
G1 X44.476 Y70.961 E20.60431
G1 X45.163 Y69.054 E20.66835
G1 X45.252 Y68.831 E20.67594
G1 X47.075 Y64.671 E20.81945
G1 X47.191 Y64.432 E20.82785
G1 X48.474 Y62.012 E20.91439
G1 X48.604 Y61.787 E20.9226
G1 X51.194 Y57.657 E21.07664
G1 X51.372 Y57.398 E21.08657
G1 X53.536 Y54.541 E21.19981
G1 X53.669 Y54.377 E21.20649
G1 X55.664 Y52.044 E21.30348
G1 X55.861 Y51.831 E21.31265
G0 F6000 X56.129 Y52.101
G1 F3000 X59.008 Y49.241 E21.44087
G1 X59.175 Y49.087 E21.44805
G1 X61.995 Y46.659 E21.56563
G1 X62.14 Y46.541 E21.57154
G1 X63.409 Y45.572 E21.62199
G1 X63.556 Y45.466 E21.62771
G1 X66.487 Y43.48 E21.73958
G1 X66.648 Y43.378 E21.7456
G1 X69.943 Y41.422 E21.86668
G1 X70.126 Y41.321 E21.87328
G1 X71.673 Y40.535 E21.92811
G1 X71.806 Y40.471 E21.93277
G1 X75.388 Y38.855 E22.05694
G1 X75.616 Y38.763 E22.06471
G1 X78.242 Y37.814 E22.15293
G1 X78.458 Y37.744 E22.16011
G1 X83.164 Y36.414 E22.31463
G1 X83.405 Y36.356 E22.32246
G1 X85.9 Y35.856 E22.40286
G1 X86.099 Y35.823 E22.40924
G1 X89.872 Y35.312 E22.52954
G1 X90.095 Y35.29 E22.53662
G1 X93.364 Y35.08 E22.64013
G1 X93.563 Y35.073 E22.64642
G1 X96.804 Y35.067 E22.74882
G1 X97.131 Y35.083 E22.75917
G1 X103.829 Y35.76 E22.97188
G1 X104.182 Y35.816 E22.98318
G1 X108.255 Y36.696 E23.11484
G1 X108.541 Y36.772 E23.12419
G1 X113.677 Y38.393 E23.29437
G1 X113.969 Y38.501 E23.3042
G1 X118.125 Y40.275 E23.44698
G1 X118.405 Y40.411 E23.45682
G1 X122.774 Y42.803 E23.6142
G1 X122.941 Y42.901 E23.62032
G1 X124.22 Y43.706 E23.66807
G1 X124.437 Y43.856 E23.67641
G1 X129.482 Y47.646 E23.87579
G1 X129.7 Y47.825 E23.8847
G1 X131.476 Y49.423 E23.96019
G1 X131.604 Y49.545 E23.96577
G1 X134.083 Y52.039 E24.07688
G1 X134.257 Y52.229 E24.08503
G1 X137.16 Y55.663 E24.22711
G1 X137.315 Y55.861 E24.23505
G1 X139.002 Y58.21 E24.32643
G1 X139.116 Y58.381 E24.33292
G1 X141.241 Y61.782 E24.45964
G1 X141.336 Y61.944 E24.46557
G1 X142.223 Y63.57 E24.5241
G1 X142.327 Y63.778 E24.53144
G1 X144.548 Y68.665 E24.70106
G1 X144.634 Y68.872 E24.70814
G1 X145.273 Y70.589 E24.76603
G1 X145.333 Y70.767 E24.77196
G1 X146.41 Y74.28 E24.88806
G1 X146.458 Y74.455 E24.8938
G1 X146.942 Y76.428 E24.95799
G1 X146.977 Y76.587 E24.96313
G1 X147.565 Y79.65 E25.06168
G1 X147.601 Y79.882 E25.0691
G1 X148.088 Y84.062 E25.20207
G1 X148.104 Y84.248 E25.20797
G1 X148.229 Y86.423 E25.2768
G1 X148.234 Y86.636 E25.28354
G1 X148.195 Y90.805 E25.41527
G1 X148.185 Y91.033 E25.42248
G1 X148.041 Y92.805 E25.47866
G1 X148.018 Y93.007 E25.48508
G1 X147.164 Y98.863 E25.67207
G1 X147.112 Y99.136 E25.68085
G1 X146.493 Y101.756 E25.76591
G1 X146.437 Y101.961 E25.77263
G1 X145.299 Y105.661 E25.89494
G1 X145.233 Y105.855 E25.90142
G1 X144.369 Y108.132 E25.97837
G1 X144.305 Y108.287 E25.98367
G1 X143.175 Y110.85 E26.07217
G1 X143.066 Y111.072 E26.07999
G1 X140.654 Y115.564 E26.24109
G1 X140.522 Y115.789 E26.24933
G1 X139.086 Y118.007 E26.33282
G1 X139.004 Y118.127 E26.33741
G1 X137.469 Y120.276 E26.42086
G1 X137.331 Y120.455 E26.428
G1 X134.821 Y123.49 E26.55244
G1 X134.699 Y123.63 E26.55831
G1 X133.447 Y124.976 E26.61639
G1 X133.341 Y125.084 E26.62118
G1 X131.579 Y126.807 E26.69904
G1 X131.45 Y126.926 E26.70459
G1 X128.943 Y129.121 E26.80988
G1 X128.773 Y129.26 E26.81681
G1 X125.829 Y131.499 E26.93368
G1 X125.665 Y131.616 E26.94005
G1 X122.769 Y133.542 E27.04994
G1 X122.537 Y133.682 E27.0585
G1 X119.032 Y135.606 E27.18484
G1 X118.829 Y135.709 E27.19203
G1 X115.661 Y137.165 E27.3022
G1 X115.43 Y137.26 E27.31009
G1 X111.545 Y138.688 E27.44087
G1 X111.331 Y138.758 E27.44799
G1 X108.394 Y139.608 E27.5446
G1 X108.194 Y139.659 E27.55112
G1 X105.111 Y140.339 E27.65087
G1 X104.892 Y140.379 E27.65791
G1 X101.144 Y140.935 E27.77763
G1 X100.976 Y140.956 E27.78298
G1 X98.539 Y141.186 E27.86033
G1 X98.328 Y141.199 E27.867
G1 X95.322 Y141.283 E27.96202
G1 X95.121 Y141.282 E27.96837
G1 X91.119 Y141.142 E28.0949
G1 X90.838 Y141.12 E28.10381
G1 X86.636 Y140.598 E28.2376
G1 X86.391 Y140.558 E28.24544
G1 X84.764 Y140.226 E28.29791
G1 X84.63 Y140.195 E28.30226
G1 X79.461 Y138.906 E28.47059
G1 X79.193 Y138.827 E28.47941
G1 X76.141 Y137.775 E28.58142
G1 X75.882 Y137.673 E28.59021
G1 X71.226 Y135.598 E28.75128
G1 X70.996 Y135.484 E28.75939
G1 X68.346 Y134.037 E28.85479
G1 X68.144 Y133.916 E28.86223
G1 X64.482 Y131.55 E28.99999
G1 X64.268 Y131.399 E29.00826
G1 X61.35 Y129.154 E29.12459
G1 X61.151 Y128.988 E29.13278
G1 X57.819 Y125.964 E29.27496
G1 X57.637 Y125.785 E29.28302
G1 X55.22 Y123.209 E29.39464
G1 X55.079 Y123.049 E29.40138
G1 X52.974 Y120.482 E29.50627
G1 X52.842 Y120.309 E29.51314
G1 X50.954 Y117.657 E29.61601
G1 X50.825 Y117.461 E29.62342
G1 X48.695 Y113.949 E29.7532
G1 X48.59 Y113.761 E29.76001
G1 X47.316 Y111.298 E29.84763
G1 X47.242 Y111.145 E29.853
G1 X46.211 Y108.862 E29.93215
G1 X46.134 Y108.678 E29.93845
G1 X44.924 Y105.479 E30.04652
G1 X44.863 Y105.3 E30.05249
G1 X43.942 Y102.349 E30.15017
G1 X43.875 Y102.102 E30.15826
G1 X42.994 Y98.202 E30.28459
G1 X42.962 Y98.041 E30.28978
G1 X42.551 Y95.656 E30.36625
G1 X42.521 Y95.436 E30.37326
G1 X42.129 Y91.576 E30.49586
G1 X42.113 Y91.3 E30.50459
G1 X42.044 Y86.515 E30.6558
G1 X42.051 Y86.253 E30.66408
G1 X42.282 Y82.85 E30.77185
G1 X42.305 Y82.63 E30.77884
G1 X42.791 Y79.11 E30.89112
G1 X42.838 Y78.849 E30.8995
G1 X43.845 Y74.35 E31.04517
G1 X43.907 Y74.117 E31.05279
