;FLAVOR:Marlin
;TIME:15095
;Filament used: 17.5599m
;Layer height: 0.3
;Generated with Cura_SteamEngine 3.6.0
M140 S55
M105
M190 S55
M104 S200
M105
M109 S200
M82 ;absolute extrusion mode
G21 ;metric values
G90 ;absolute positioning
M82 ;set extruder to absolute mode
M107 ;start with the fan off
G28 X0 Y0 ;move X/Y to min endstops
G28 Z0 ;move Z to min endstops
G1 Z15.0 F9000 ;move the platform down 15mm
G92 E0 ;zero the extruded length
G1 F200 E3 ;extrude 3mm of feed stock
G92 E0 ;zero the extruded length again
G1 F9000
;Put printing message on LCD screen
M117 Printing...
G92 E0
;LAYER_COUNT:134
;LAYER:0
M107
G0 F3600 X90.309 Y48.63 Z0.3
;TYPE:SKIRT
G1 F1800 X90.633 Y48.069 E0.02424
G1 X91.023 Y47.552 E0.04847
G1 X91.475 Y47.087 E0.07274
G1 X91.979 Y46.681 E0.09695
G1 X92.53 Y46.34 E0.1212
G1 X93.119 Y46.07 E0.14544
G1 X93.737 Y45.875 E0.16969
G1 X94.374 Y45.757 E0.19393
G1 X95.01 Y45.718 E0.21777
G1 X134.991 Y45.719 E1.71377
G1 X135.638 Y45.759 E1.73802
G1 X136.274 Y45.878 E1.76224
G1 X136.891 Y46.075 E1.78647
G1 X137.48 Y46.346 E1.81073
G1 X138.03 Y46.688 E1.83496
G1 X138.534 Y47.095 E1.8592
G1 X138.984 Y47.561 E1.88344
G1 X139.374 Y48.078 E1.90768
G1 X139.696 Y48.64 E1.93191
G1 X139.947 Y49.237 E1.95614
G1 X140.123 Y49.861 E1.9804
G1 X140.22 Y50.501 E2.00462
G1 X140.241 Y50.969 E2.02215
G1 X140.239 Y80.968 E3.14465
G1 X140.205 Y81.566 E3.16706
G1 X139.878 Y84.417 E3.27443
G1 X139.494 Y89.812 E3.47681
G1 X139.417 Y95.155 E3.67676
G1 X139.643 Y100.512 E3.87738
G1 X140.214 Y106.273 E4.094
G1 X140.24 Y106.791 E4.11341
G1 X140.24 Y136.787 E5.23579
G1 X140.2 Y137.434 E5.26004
G1 X140.081 Y138.07 E5.28425
G1 X139.884 Y138.687 E5.30849
G1 X139.703 Y139.099 E5.32533
G1 X138.048 Y142.472 E5.46591
G1 X135.868 Y147.486 E5.67049
G1 X134.915 Y149.958 E5.76962
G1 X134.05 Y152.415 E5.86709
G1 X132.264 Y158.306 E6.09742
G1 X132.038 Y158.913 E6.12166
G1 X131.739 Y159.487 E6.14587
G1 X131.372 Y160.021 E6.17012
G1 X130.942 Y160.505 E6.19434
G1 X130.455 Y160.933 E6.2186
G1 X129.919 Y161.297 E6.24285
G1 X129.343 Y161.592 E6.26706
G1 X128.735 Y161.815 E6.29129
G1 X128.103 Y161.961 E6.31556
G1 X127.233 Y162.032 E6.34823
G1 X124.215 Y162.028 E6.46115
G1 X123.773 Y162.009 E6.47771
G1 X120.695 Y161.745 E6.5933
G1 X115.319 Y161.518 E6.79464
G1 X109.965 Y161.597 E6.99499
G1 X104.13 Y162.017 E7.21389
G1 X103.753 Y162.031 E7.22801
G1 X100.759 Y162.031 E7.34003
G1 X100.112 Y161.991 E7.36429
G1 X99.476 Y161.872 E7.3885
G1 X98.859 Y161.675 E7.41273
G1 X98.27 Y161.404 E7.43699
G1 X97.72 Y161.062 E7.46123
G1 X97.216 Y160.655 E7.48547
G1 X96.766 Y160.189 E7.50971
G1 X96.377 Y159.672 E7.53392
G1 X96.054 Y159.11 E7.55817
G1 X95.803 Y158.513 E7.5824
G1 X95.602 Y157.767 E7.61131
G1 X95.18 Y155.562 E7.69532
G1 X93.955 Y150.274 E7.89842
G1 X93.253 Y147.736 E7.99695
G1 X91.592 Y142.598 E8.199
G1 X90.098 Y138.638 E8.35737
G1 X89.907 Y138.019 E8.38161
G1 X89.773 Y137.152 E8.41443
G1 X89.558 Y134.093 E8.52918
G1 X88.942 Y128.708 E8.73199
G1 X88.182 Y124.15 E8.90489
G1 X88.11 Y123.286 E8.93733
G1 X88.11 Y120.301 E9.04902
G1 X88.175 Y119.476 E9.07999
G1 X89.127 Y113.498 E9.30649
G1 X90.118 Y103.383 E9.68678
G1 X90.506 Y97.938 E9.89104
G1 X90.583 Y92.595 E10.09098
G1 X90.357 Y87.238 E10.2916
G1 X89.786 Y81.475 E10.5083
G1 X89.773 Y81.324 E10.51397
G1 X89.558 Y78.261 E10.62886
G1 X88.942 Y72.876 E10.83167
G1 X88.182 Y68.318 E11.00457
G1 X88.11 Y67.454 E11.03701
G1 X88.11 Y64.469 E11.14871
G1 X88.175 Y63.644 E11.17967
G1 X89.125 Y57.68 E11.40564
G1 X89.782 Y50.49 E11.6758
G1 X89.88 Y49.85 E11.70002
G1 X90.057 Y49.227 E11.72426
G1 X90.309 Y48.63 E11.7485
G0 F3600 X90.603 Y48.715
G1 F1800 X90.924 Y48.174 E11.77204
G1 X91.311 Y47.678 E11.79558
G1 X91.758 Y47.236 E11.8191
G1 X92.258 Y46.854 E11.84265
G1 X92.802 Y46.538 E11.86619
G1 X93.381 Y46.294 E11.8897
G1 X93.987 Y46.125 E11.91324
G1 X94.61 Y46.034 E11.9368
G1 X95.01 Y46.018 E11.95178
G1 X134.991 Y46.019 E13.44777
G1 X135.619 Y46.059 E13.47132
G1 X136.236 Y46.178 E13.49483
G1 X136.834 Y46.375 E13.51839
G1 X137.402 Y46.646 E13.54194
G1 X137.93 Y46.986 E13.56543
G1 X138.412 Y47.391 E13.58899
G1 X138.838 Y47.854 E13.61253
G1 X139.202 Y48.367 E13.63607
G1 X139.498 Y48.922 E13.65961
G1 X139.721 Y49.51 E13.68314
G1 X139.868 Y50.121 E13.70665
G1 X139.941 Y50.969 E13.7385
G1 X139.939 Y80.968 E14.86099
G1 X139.907 Y81.532 E14.88213
G1 X139.577 Y84.407 E14.99041
G1 X139.194 Y89.787 E15.19223
G1 X139.117 Y95.146 E15.39277
G1 X139.344 Y100.537 E15.59467
G1 X139.916 Y106.303 E15.81147
G1 X139.94 Y106.791 E15.82976
G1 X139.94 Y136.787 E16.95214
G1 X139.9 Y137.415 E16.97568
G1 X139.781 Y138.032 E16.99919
G1 X139.584 Y138.63 E17.02275
G1 X139.434 Y138.967 E17.03656
G1 X137.767 Y142.365 E17.17818
G1 X135.599 Y147.353 E17.38168
G1 X134.622 Y149.885 E17.48323
G1 X133.767 Y152.316 E17.57966
G1 X131.977 Y158.219 E17.81047
G1 X131.757 Y158.808 E17.83399
G1 X131.463 Y159.364 E17.85753
G1 X131.102 Y159.879 E17.88106
G1 X130.678 Y160.343 E17.90458
G1 X130.199 Y160.751 E17.92812
G1 X129.671 Y161.094 E17.95168
G1 X129.105 Y161.367 E17.97519
G1 X128.509 Y161.567 E17.99872
G1 X127.892 Y161.689 E18.02225
G1 X127.233 Y161.732 E18.04696
G1 X124.215 Y161.728 E18.15989
G1 X123.798 Y161.71 E18.1755
G1 X120.732 Y161.447 E18.29065
G1 X115.31 Y161.218 E18.49371
G1 X109.957 Y161.297 E18.69403
G1 X104.109 Y161.718 E18.91341
G1 X103.753 Y161.731 E18.92674
G1 X100.759 Y161.731 E19.03877
G1 X100.131 Y161.691 E19.06232
G1 X99.514 Y161.572 E19.08583
G1 X98.916 Y161.375 E19.10939
G1 X98.349 Y161.104 E19.1329
G1 X97.82 Y160.764 E19.15643
G1 X97.338 Y160.359 E19.17999
G1 X96.912 Y159.896 E19.20353
G1 X96.548 Y159.383 E19.22707
G1 X96.252 Y158.829 E19.25057
G1 X96.029 Y158.241 E19.2741
G1 X95.897 Y157.711 E19.29454
G1 X95.472 Y155.487 E19.37926
G1 X94.252 Y150.221 E19.58152
G1 X93.543 Y147.658 E19.68102
G1 X91.866 Y142.473 E19.88493
G1 X90.379 Y138.532 E20.04254
G1 X90.194 Y137.931 E20.06607
G1 X90.072 Y137.131 E20.09635
G1 X89.857 Y134.061 E20.2115
G1 X89.241 Y128.68 E20.41416
G1 X88.477 Y124.1 E20.5879
G1 X88.41 Y123.286 E20.61846
G1 X88.41 Y120.301 E20.73015
G1 X88.472 Y119.523 E20.75936
G1 X89.424 Y113.541 E20.98601
G1 X90.419 Y103.396 E21.36743
G1 X90.806 Y97.963 E21.57124
G1 X90.883 Y92.604 E21.77178
G1 X90.656 Y87.213 E21.97367
G1 X90.084 Y81.445 E22.19056
G1 X90.072 Y81.303 E22.19589
G1 X89.857 Y78.229 E22.31119
G1 X89.241 Y72.848 E22.51385
G1 X88.477 Y68.268 E22.68759
G1 X88.41 Y67.454 E22.71815
G1 X88.41 Y64.469 E22.82985
G1 X88.472 Y63.691 E22.85905
G1 X89.422 Y57.725 E23.0851
G1 X90.081 Y50.517 E23.35593
G1 X90.178 Y49.896 E23.37944
G1 X90.352 Y49.292 E23.40296
G1 X90.603 Y48.715 E23.42651
G0 F3600 X90.896 Y48.801
G1 F1800 X91.215 Y48.282 E23.4493
G1 X91.599 Y47.808 E23.47213
G1 X92.041 Y47.389 E23.49492
G1 X92.535 Y47.031 E23.51775
G1 X93.071 Y46.742 E23.54053
G1 X93.641 Y46.524 E23.56337
G1 X94.234 Y46.383 E23.58617
G1 X95.01 Y46.318 E23.61531
G1 X134.991 Y46.319 E25.11131
G1 X135.599 Y46.359 E25.13411
G1 X136.197 Y46.478 E25.15692
G1 X136.774 Y46.675 E25.17973
G1 X137.321 Y46.945 E25.20256
G1 X137.827 Y47.284 E25.22535
G1 X138.285 Y47.687 E25.24817
G1 X138.686 Y48.146 E25.27098
G1 X139.023 Y48.653 E25.29376
G1 X139.292 Y49.201 E25.3166
G1 X139.486 Y49.779 E25.33942
G1 X139.603 Y50.377 E25.36222
G1 X139.641 Y50.969 E25.38441
G1 X139.639 Y80.968 E26.5069
G1 X139.609 Y81.498 E26.52677
G1 X139.279 Y84.377 E26.6352
G1 X138.895 Y89.76 E26.83713
G1 X138.818 Y95.172 E27.03965
G1 X139.045 Y100.561 E27.24148
G1 X139.617 Y106.332 E27.45847
G1 X139.64 Y106.791 E27.47567
G1 X139.64 Y136.787 E28.59805
G1 X139.6 Y137.395 E28.62085
G1 X139.481 Y137.993 E28.64366
G1 X139.165 Y138.835 E28.67731
G1 X137.495 Y142.24 E28.81922
G1 X135.317 Y147.249 E29.0236
G1 X134.344 Y149.772 E29.12478
G1 X133.479 Y152.231 E29.22231
G1 X131.69 Y158.131 E29.453
G1 X131.475 Y158.702 E29.47583
G1 X131.188 Y159.239 E29.49862
G1 X130.832 Y159.735 E29.52146
G1 X130.415 Y160.179 E29.54425
G1 X129.943 Y160.565 E29.56707
G1 X129.425 Y160.887 E29.58989
G1 X128.87 Y161.137 E29.61267
G1 X128.286 Y161.313 E29.63549
G1 X127.684 Y161.411 E29.65831
G1 X127.234 Y161.432 E29.67517
G1 X124.216 Y161.428 E29.78809
G1 X123.824 Y161.411 E29.80278
G1 X120.749 Y161.147 E29.91826
G1 X115.318 Y160.918 E30.12165
G1 X109.948 Y160.997 E30.32261
G1 X104.087 Y161.419 E30.54248
G1 X103.753 Y161.431 E30.55499
G1 X100.759 Y161.431 E30.66701
G1 X100.151 Y161.391 E30.68981
G1 X99.553 Y161.272 E30.71263
G1 X98.976 Y161.075 E30.73544
G1 X98.429 Y160.805 E30.75827
G1 X97.923 Y160.466 E30.78106
G1 X97.465 Y160.063 E30.80388
G1 X97.064 Y159.604 E30.82669
G1 X96.727 Y159.097 E30.84947
G1 X96.458 Y158.549 E30.87231
G1 X96.264 Y157.972 E30.89509
G1 X96.192 Y157.654 E30.90729
G1 X95.77 Y155.447 E30.99137
G1 X94.541 Y150.141 E31.19516
G1 X93.83 Y147.574 E31.29483
G1 X92.155 Y142.391 E31.49864
G1 X90.659 Y138.426 E31.65721
G1 X90.482 Y137.843 E31.68001
G1 X90.371 Y137.11 E31.70775
G1 X90.155 Y134.029 E31.82331
G1 X89.538 Y128.637 E32.02639
G1 X88.773 Y124.051 E32.20035
G1 X88.71 Y123.286 E32.22907
G1 X88.71 Y120.301 E32.34077
G1 X88.768 Y119.57 E32.3682
G1 X89.721 Y113.585 E32.59497
G1 X90.719 Y103.406 E32.97767
G1 X91.105 Y97.99 E33.18084
G1 X91.182 Y92.578 E33.38336
G1 X90.955 Y87.189 E33.58519
G1 X90.383 Y81.416 E33.80226
G1 X90.371 Y81.282 E33.80729
G1 X90.155 Y78.197 E33.92301
G1 X89.538 Y72.805 E34.12608
G1 X88.773 Y68.219 E34.30005
G1 X88.71 Y67.454 E34.32877
G1 X88.71 Y64.469 E34.44046
G1 X88.768 Y63.738 E34.4679
G1 X89.719 Y57.768 E34.6941
G1 X90.379 Y50.545 E34.96549
G1 X90.474 Y49.942 E34.98833
G1 X90.648 Y49.358 E35.01113
G1 X90.896 Y48.801 E35.03395
G0 F3600 X91.189 Y48.89
G1 F1800 X91.505 Y48.392 E35.05602
G1 X91.885 Y47.942 E35.07806
G1 X92.323 Y47.547 E35.10013
G1 X92.81 Y47.215 E35.12218
G1 X93.338 Y46.952 E35.14425
G1 X93.896 Y46.763 E35.1663
G1 X94.475 Y46.651 E35.18836
G1 X95.01 Y46.618 E35.20842
G1 X134.991 Y46.619 E36.70441
G1 X135.579 Y46.659 E36.72647
G1 X136.157 Y46.778 E36.74855
G1 X136.713 Y46.974 E36.77061
G1 X137.237 Y47.244 E36.79266
G1 X137.72 Y47.582 E36.81472
G1 X138.153 Y47.982 E36.83678
G1 X138.528 Y48.437 E36.85884
G1 X138.838 Y48.938 E36.88088
G1 X139.077 Y49.477 E36.90295
G1 X139.241 Y50.044 E36.92503
G1 X139.328 Y50.627 E36.94709
G1 X139.341 Y50.969 E36.95989
G1 X139.339 Y80.968 E38.08239
G1 X139.311 Y81.464 E38.10097
G1 X138.981 Y84.344 E38.20944
G1 X138.595 Y89.753 E38.41235
G1 X138.518 Y95.18 E38.61544
G1 X138.745 Y100.568 E38.81722
G1 X139.319 Y106.362 E39.03508
G1 X139.34 Y106.791 E39.05115
G1 X139.34 Y136.787 E40.17353
G1 X139.3 Y137.375 E40.19558
G1 X139.181 Y137.953 E40.21766
G1 X138.895 Y138.703 E40.2477
G1 X137.218 Y142.122 E40.39019
G1 X135.047 Y147.116 E40.59395
G1 X134.062 Y149.67 E40.69637
G1 X133.196 Y152.132 E40.79403
G1 X131.403 Y158.044 E41.02519
G1 X131.194 Y158.596 E41.04728
G1 X130.912 Y159.114 E41.06935
G1 X130.563 Y159.589 E41.0914
G1 X130.153 Y160.012 E41.11344
G1 X129.69 Y160.377 E41.1355
G1 X129.181 Y160.675 E41.15757
G1 X128.637 Y160.902 E41.17963
G1 X128.067 Y161.053 E41.20169
G1 X127.234 Y161.132 E41.233
G1 X124.216 Y161.128 E41.34593
G1 X123.85 Y161.112 E41.35964
G1 X120.764 Y160.847 E41.47553
G1 X115.344 Y160.619 E41.67851
G1 X109.922 Y160.698 E41.88141
G1 X104.065 Y161.12 E42.10114
G1 X103.753 Y161.131 E42.11282
G1 X100.759 Y161.131 E42.22485
G1 X100.171 Y161.091 E42.2469
G1 X99.593 Y160.972 E42.26898
G1 X99.037 Y160.776 E42.29104
G1 X98.513 Y160.506 E42.3131
G1 X98.03 Y160.168 E42.33516
G1 X97.597 Y159.768 E42.35721
G1 X97.222 Y159.313 E42.37927
G1 X96.912 Y158.812 E42.40132
G1 X96.673 Y158.273 E42.42338
G1 X96.486 Y157.598 E42.44959
G1 X96.06 Y155.372 E42.53439
G1 X94.826 Y150.043 E42.73907
G1 X94.121 Y147.497 E42.83792
G1 X92.439 Y142.294 E43.04252
G1 X90.94 Y138.32 E43.20145
G1 X90.77 Y137.756 E43.22349
G1 X90.671 Y137.089 E43.24872
G1 X90.456 Y134.017 E43.36395
G1 X89.835 Y128.595 E43.56815
G1 X89.069 Y124.002 E43.74239
G1 X89.01 Y123.286 E43.76927
G1 X89.01 Y120.301 E43.88096
G1 X89.064 Y119.617 E43.90663
G1 X90.02 Y113.61 E44.13423
G1 X91.015 Y103.46 E44.51584
G1 X91.405 Y97.997 E44.72077
G1 X91.482 Y92.57 E44.92386
G1 X91.255 Y87.182 E45.12564
G1 X90.681 Y81.386 E45.34358
G1 X90.671 Y81.261 E45.34827
G1 X90.455 Y78.185 E45.46365
G1 X89.835 Y72.763 E45.66785
G1 X89.069 Y68.17 E45.84208
G1 X89.01 Y67.454 E45.86896
G1 X89.01 Y64.469 E45.98066
G1 X89.064 Y63.785 E46.00633
G1 X90.017 Y57.798 E46.23317
G1 X90.678 Y50.572 E46.50468
G1 X90.771 Y49.99 E46.52673
G1 X90.943 Y49.426 E46.54879
G1 X91.189 Y48.89 E46.57086
G0 F3600 X91.481 Y48.981
G1 F1800 X91.794 Y48.506 E46.59215
G1 X92.171 Y48.08 E46.61343
G1 X92.604 Y47.71 E46.63474
G1 X93.084 Y47.405 E46.65602
G1 X93.602 Y47.171 E46.67729
G1 X94.148 Y47.011 E46.69858
G1 X94.711 Y46.929 E46.71987
G1 X95.01 Y46.918 E46.73106
G1 X134.991 Y46.919 E48.22706
G1 X135.559 Y46.959 E48.24836
G1 X136.115 Y47.078 E48.26964
G1 X136.649 Y47.274 E48.29092
G1 X137.15 Y47.543 E48.3122
G1 X137.609 Y47.879 E48.33349
G1 X138.016 Y48.276 E48.35476
G1 X138.364 Y48.727 E48.37608
G1 X138.645 Y49.221 E48.39734
G1 X138.853 Y49.75 E48.41861
G1 X138.986 Y50.304 E48.43993
G1 X139.041 Y50.969 E48.4649
G1 X139.039 Y80.968 E49.58739
G1 X139.013 Y81.429 E49.60467
G1 X138.683 Y84.309 E49.71313
G1 X138.295 Y89.745 E49.91705
G1 X138.217 Y95.189 E50.12078
G1 X138.445 Y100.592 E50.32312
G1 X139.02 Y106.391 E50.54117
G1 X139.04 Y106.791 E50.55616
G1 X139.04 Y136.787 E51.67854
G1 X139 Y137.354 E51.69981
G1 X138.881 Y137.911 E51.72112
G1 X138.626 Y138.571 E51.74759
G1 X136.942 Y142.004 E51.89067
G1 X134.769 Y147.004 E52.09466
G1 X133.78 Y149.567 E52.19746
G1 X132.912 Y152.033 E52.29528
G1 X131.116 Y157.957 E52.5269
G1 X130.913 Y158.489 E52.54821
G1 X130.637 Y158.987 E52.56951
G1 X130.295 Y159.441 E52.59078
G1 X129.892 Y159.843 E52.61208
G1 X129.437 Y160.184 E52.63336
G1 X128.939 Y160.458 E52.65462
G1 X128.407 Y160.66 E52.67592
G1 X127.852 Y160.785 E52.6972
G1 X127.235 Y160.832 E52.72036
G1 X124.217 Y160.828 E52.83328
G1 X123.875 Y160.813 E52.84609
G1 X120.778 Y160.547 E52.9624
G1 X115.353 Y160.318 E53.16557
G1 X109.914 Y160.398 E53.36911
G1 X104.044 Y160.821 E53.58932
G1 X103.753 Y160.831 E53.60022
G1 X100.759 Y160.831 E53.71225
G1 X100.192 Y160.791 E53.73351
G1 X99.635 Y160.672 E53.75483
G1 X99.101 Y160.476 E53.77611
G1 X98.6 Y160.207 E53.79739
G1 X98.141 Y159.871 E53.81867
G1 X97.734 Y159.474 E53.83995
G1 X97.386 Y159.023 E53.86126
G1 X97.106 Y158.529 E53.88251
G1 X96.897 Y158 E53.90379
G1 X96.781 Y157.542 E53.92147
G1 X96.352 Y155.297 E54.00699
G1 X95.122 Y149.99 E54.21083
G1 X94.411 Y147.419 E54.31064
G1 X92.716 Y142.178 E54.51675
G1 X91.221 Y138.214 E54.67527
G1 X91.058 Y137.669 E54.69656
G1 X90.97 Y137.068 E54.71928
G1 X90.754 Y133.985 E54.83493
G1 X90.132 Y128.548 E55.03969
G1 X89.365 Y123.952 E55.21404
G1 X89.31 Y123.286 E55.23905
G1 X89.31 Y120.301 E55.35074
G1 X89.36 Y119.664 E55.37465
G1 X90.317 Y113.653 E55.6024
G1 X91.315 Y103.473 E55.98514
G1 X91.705 Y98.005 E56.19026
G1 X91.783 Y92.561 E56.39398
G1 X91.555 Y87.157 E56.59636
G1 X90.98 Y81.356 E56.81449
G1 X90.97 Y81.24 E56.81884
G1 X90.754 Y78.153 E56.93463
G1 X90.132 Y72.716 E57.1394
G1 X89.365 Y68.12 E57.31375
G1 X89.31 Y67.454 E57.33876
G1 X89.31 Y64.469 E57.45045
G1 X89.36 Y63.832 E57.47436
G1 X90.316 Y57.827 E57.70188
G1 X90.977 Y50.599 E57.97346
G1 X91.068 Y50.038 E57.99473
G1 X91.238 Y49.495 E58.01602
G1 X91.481 Y48.981 E58.03729
G0 F3600 X91.773 Y49.074
G1 F1800 X92.084 Y48.623 E58.05779
G1 X92.456 Y48.222 E58.07826
G1 X92.883 Y47.879 E58.09875
G1 X93.355 Y47.603 E58.11921
G1 X93.863 Y47.398 E58.13971
G1 X94.395 Y47.269 E58.16019
G1 X95.01 Y47.218 E58.18328
G1 X134.991 Y47.219 E59.67928
G1 X135.537 Y47.259 E59.69976
G1 X136.071 Y47.378 E59.72023
G1 X136.583 Y47.573 E59.74073
G1 X137.06 Y47.841 E59.7612
G1 X137.493 Y48.176 E59.78169
G1 X137.873 Y48.57 E59.80217
G1 X138.192 Y49.015 E59.82266
G1 X138.442 Y49.502 E59.84314
G1 X138.619 Y50.02 E59.86362
G1 X138.718 Y50.558 E59.88409
G1 X138.741 Y50.969 E59.89949
G1 X138.739 Y80.968 E61.02199
G1 X138.715 Y81.395 E61.03799
G1 X138.385 Y84.277 E61.14653
G1 X137.995 Y89.737 E61.35135
G1 X137.918 Y95.179 E61.555
