;FLAVOR:Marlin
;TIME:12926
;Filament used: 17.3419m
;Layer height: 0.3
;Generated with Cura_SteamEngine 3.6.0
M140 S55
M105
M190 S55
M104 S200
M105
M109 S200
M82 ;absolute extrusion mode
G21 ;metric values
G90 ;absolute positioning
M82 ;set extruder to absolute mode
M107 ;start with the fan off
G28 X0 Y0 ;move X/Y to min endstops
G28 Z0 ;move Z to min endstops
G1 Z15.0 F9000 ;move the platform down 15mm
G92 E0 ;zero the extruded length
G1 F200 E3 ;extrude 3mm of feed stock
G92 E0 ;zero the extruded length again
G1 F9000
;Put printing message on LCD screen
M117 Printing...
G92 E0
;LAYER_COUNT:134
;LAYER:0
M107
G0 F3840 X46.81 Y68.756 Z0.3
;TYPE:SKIRT
G1 F2400 X47.338 Y68.493 E0.02207
G1 X47.896 Y68.304 E0.04412
G1 X48.475 Y68.192 E0.06618
G1 X49.01 Y68.159 E0.08624
G1 X140.491 Y68.16 E3.50924
G1 X141.079 Y68.2 E3.5313
G1 X141.657 Y68.319 E3.55338
G1 X142.213 Y68.515 E3.57544
G1 X142.737 Y68.785 E3.59749
G1 X143.22 Y69.123 E3.61955
G1 X143.653 Y69.523 E3.64161
G1 X144.028 Y69.978 E3.66367
G1 X144.338 Y70.479 E3.68571
G1 X144.577 Y71.018 E3.70778
G1 X144.741 Y71.584 E3.72983
G1 X144.839 Y72.384 E3.75998
G1 X144.879 Y73.758 E3.81142
G1 X144.996 Y76.902 E3.92914
G1 X144.999 Y77.064 E3.9352
G1 X145 Y96.846 E4.6754
G1 X144.998 Y96.969 E4.68
G1 X144.838 Y102.614 E4.89131
G1 X144.782 Y103.201 E4.91337
G1 X144.646 Y103.775 E4.93545
G1 X144.434 Y104.325 E4.9575
G1 X144.177 Y104.799 E4.97768
G1 X140.585 Y110.537 E5.23098
G1 X138.014 Y115.264 E5.43232
G1 X135.691 Y120.178 E5.6357
G1 X133.65 Y125.213 E5.83899
G1 X132.346 Y128.931 E5.98642
G1 X132.113 Y129.473 E6.00849
G1 X131.81 Y129.978 E6.03053
G1 X131.441 Y130.438 E6.05259
G1 X131.013 Y130.843 E6.07464
G1 X130.534 Y131.188 E6.09673
G1 X130.013 Y131.464 E6.11879
G1 X129.46 Y131.667 E6.14083
G1 X128.884 Y131.793 E6.16289
G1 X128.24 Y131.841 E6.18706
G1 X125.258 Y131.84 E6.29864
G1 X124.83 Y131.819 E6.31467
G1 X119.273 Y131.269 E6.52362
G1 X113.883 Y131.041 E6.72548
G1 X108.455 Y131.118 E6.9286
G1 X103.007 Y131.505 E7.13297
G1 X99.864 Y131.827 E7.25119
G1 X99.404 Y131.85 E7.26842
G1 X96.736 Y131.84 E7.36825
G1 X96.522 Y131.834 E7.37626
G1 X94.348 Y131.719 E7.45772
G1 X88.881 Y131.643 E7.6623
G1 X83.588 Y131.847 E7.8605
G1 X83.397 Y131.85 E7.86765
G1 X80.691 Y131.836 E7.9689
G1 X80.285 Y131.815 E7.98411
G1 X74.773 Y131.269 E8.19137
G1 X69.383 Y131.041 E8.39323
G1 X63.955 Y131.118 E8.59636
G1 X58.507 Y131.505 E8.80072
G1 X55.364 Y131.827 E8.91894
G1 X54.905 Y131.85 E8.93614
G1 X52.244 Y131.841 E9.0357
G1 X51.656 Y131.799 E9.05776
G1 X51.079 Y131.678 E9.07982
G1 X50.524 Y131.48 E9.10187
G1 X50 Y131.209 E9.12394
G1 X49.518 Y130.869 E9.14602
G1 X49.087 Y130.468 E9.16804
G1 X48.713 Y130.011 E9.19014
G1 X48.405 Y129.509 E9.21218
G1 X48.168 Y128.969 E9.23424
G1 X48.005 Y128.402 E9.25632
G1 X47.91 Y127.584 E9.28713
G1 X47.842 Y124.394 E9.40652
G1 X47.497 Y118.978 E9.60959
G1 X46.844 Y113.586 E9.81282
G1 X45.891 Y108.253 E10.01552
G1 X45.311 Y105.649 E10.11535
G1 X44.788 Y103.545 E10.19647
G1 X44.671 Y102.8 E10.22469
G1 X44.455 Y99.726 E10.33999
G1 X43.835 Y94.304 E10.54419
G1 X43.069 Y89.711 E10.71843
G1 X43.01 Y88.995 E10.74531
G1 X43.01 Y86.01 E10.857
G1 X43.064 Y85.326 E10.88267
G1 X44.017 Y79.339 E11.10951
G1 X44.678 Y72.113 E11.38102
G1 X44.771 Y71.531 E11.40308
G1 X44.943 Y70.967 E11.42514
G1 X45.189 Y70.431 E11.44721
G1 X45.505 Y69.933 E11.46928
G1 X45.885 Y69.483 E11.49131
G1 X46.323 Y69.088 E11.51338
G1 X46.81 Y68.756 E11.53544
G0 F3840 X47.084 Y68.946
G1 F2400 X47.602 Y68.712 E11.5567
G1 X48.148 Y68.552 E11.57799
G1 X48.711 Y68.47 E11.59928
G1 X49.01 Y68.459 E11.61048
G1 X140.491 Y68.46 E15.03348
G1 X141.058 Y68.5 E15.05475
G1 X141.615 Y68.619 E15.07606
G1 X142.149 Y68.815 E15.09735
G1 X142.65 Y69.084 E15.11862
G1 X143.109 Y69.42 E15.13991
G1 X143.516 Y69.817 E15.16118
G1 X143.864 Y70.268 E15.1825
G1 X144.144 Y70.762 E15.20375
G1 X144.353 Y71.291 E15.22503
G1 X144.486 Y71.845 E15.24635
G1 X144.539 Y72.392 E15.26691
G1 X144.579 Y73.769 E15.31846
G1 X144.696 Y76.913 E15.43618
G1 X144.699 Y77.064 E15.44183
G1 X144.7 Y96.846 E16.18203
G1 X144.698 Y96.961 E16.18633
G1 X144.538 Y102.606 E16.39764
G1 X144.482 Y103.172 E16.41892
G1 X144.348 Y103.725 E16.44021
G1 X144.137 Y104.253 E16.46148
G1 X143.923 Y104.64 E16.47803
G1 X140.329 Y110.381 E16.73147
G1 X137.736 Y115.148 E16.93452
G1 X135.419 Y120.049 E17.13736
G1 X133.372 Y125.101 E17.34133
G1 X132.063 Y128.832 E17.48927
G1 X131.837 Y129.354 E17.51056
G1 X131.541 Y129.839 E17.53182
G1 X131.179 Y130.278 E17.55311
G1 X130.76 Y130.663 E17.5744
G1 X130.29 Y130.984 E17.5957
G1 X129.781 Y131.237 E17.61697
G1 X129.241 Y131.416 E17.63825
G1 X128.681 Y131.517 E17.65954
G1 X128.24 Y131.541 E17.67607
G1 X125.258 Y131.54 E17.78765
G1 X124.86 Y131.52 E17.80256
G1 X119.298 Y130.969 E18.0117
G1 X113.892 Y130.74 E18.21416
G1 X108.446 Y130.818 E18.41795
G1 X102.987 Y131.205 E18.62273
G1 X99.833 Y131.529 E18.74137
G1 X99.405 Y131.55 E18.7574
G1 X96.737 Y131.54 E18.85723
G1 X96.538 Y131.534 E18.86468
G1 X94.369 Y131.419 E18.94595
G1 X88.873 Y131.342 E19.15162
G1 X83.576 Y131.547 E19.34997
G1 X83.399 Y131.55 E19.35659
G1 X80.693 Y131.536 E19.45785
G1 X80.314 Y131.516 E19.47205
G1 X74.796 Y130.969 E19.67953
G1 X69.392 Y130.74 E19.88192
G1 X63.946 Y130.818 E20.08572
G1 X58.487 Y131.205 E20.29049
G1 X55.333 Y131.529 E20.40913
G1 X54.906 Y131.55 E20.42512
G1 X52.245 Y131.541 E20.52469
G1 X51.678 Y131.499 E20.54597
G1 X51.122 Y131.378 E20.56726
G1 X50.589 Y131.181 E20.58852
G1 X50.088 Y130.91 E20.60983
G1 X49.631 Y130.572 E20.6311
G1 X49.225 Y130.174 E20.65238
G1 X48.879 Y129.722 E20.67368
G1 X48.6 Y129.226 E20.69497
G1 X48.393 Y128.697 E20.71622
G1 X48.262 Y128.143 E20.73753
G1 X48.21 Y127.577 E20.75879
G1 X48.142 Y124.393 E20.87796
G1 X47.794 Y118.941 E21.08237
G1 X47.142 Y113.55 E21.28556
G1 X46.183 Y108.18 E21.48967
G1 X45.599 Y105.563 E21.59
G1 X45.08 Y103.473 E21.67058
G1 X44.97 Y102.779 E21.69687
G1 X44.754 Y99.694 E21.81259
G1 X44.132 Y94.257 E22.01736
G1 X43.365 Y89.661 E22.19171
G1 X43.31 Y88.995 E22.21671
G1 X43.31 Y86.01 E22.3284
G1 X43.36 Y85.373 E22.35231
G1 X44.316 Y79.368 E22.57984
G1 X44.977 Y72.14 E22.85142
G1 X45.068 Y71.579 E22.87268
G1 X45.238 Y71.036 E22.89397
G1 X45.481 Y70.522 E22.91525
G1 X45.794 Y70.047 E22.93653
G1 X46.171 Y69.621 E22.95782
G1 X46.604 Y69.251 E22.97913
G1 X47.084 Y68.946 E23.00041
G0 F3840 X46.883 Y69.42
G1 F2400 X47.355 Y69.144 E23.02087
G1 X47.863 Y68.939 E23.04137
G1 X48.395 Y68.81 E23.06185
G1 X49.01 Y68.759 E23.08494
G1 X140.491 Y68.76 E26.50794
G1 X141.037 Y68.8 E26.52843
G1 X141.571 Y68.919 E26.5489
G1 X142.082 Y69.114 E26.56937
G1 X142.56 Y69.382 E26.58987
G1 X142.993 Y69.717 E26.61036
G1 X143.373 Y70.111 E26.63084
G1 X143.692 Y70.556 E26.65132
G1 X143.942 Y71.043 E26.67181
G1 X144.119 Y71.561 E26.69229
G1 X144.218 Y72.099 E26.71276
G1 X144.239 Y72.401 E26.72409
G1 X144.279 Y73.781 E26.77574
G1 X144.396 Y76.925 E26.89347
G1 X144.399 Y77.064 E26.89867
G1 X144.4 Y96.846 E27.63887
G1 X144.398 Y96.952 E27.64283
G1 X144.238 Y102.597 E27.85414
G1 X144.183 Y103.142 E27.87464
G1 X144.049 Y103.672 E27.89509
G1 X143.839 Y104.178 E27.91559
G1 X143.668 Y104.481 E27.92861
G1 X140.071 Y110.226 E28.18223
G1 X137.473 Y115.003 E28.3857
G1 X135.145 Y119.928 E28.58953
G1 X133.088 Y125.004 E28.79447
G1 X131.78 Y128.732 E28.9423
G1 X131.561 Y129.234 E28.96279
G1 X131.272 Y129.699 E28.98328
G1 X130.918 Y130.117 E29.00377
G1 X130.508 Y130.478 E29.02421
G1 X130.049 Y130.777 E29.04471
G1 X129.551 Y131.005 E29.0652
G1 X129.026 Y131.158 E29.08567
G1 X128.24 Y131.241 E29.11524
G1 X125.258 Y131.24 E29.22682
G1 X124.889 Y131.222 E29.24064
G1 X119.321 Y130.671 E29.45
G1 X113.883 Y130.441 E29.65366
G1 X108.438 Y130.518 E29.85742
G1 X102.937 Y130.909 E30.06377
G1 X99.803 Y131.23 E30.18165
G1 X99.406 Y131.25 E30.19653
G1 X96.738 Y131.24 E30.29636
G1 X96.554 Y131.235 E30.30325
G1 X94.363 Y131.119 E30.38534
G1 X88.867 Y131.042 E30.59101
G1 X83.565 Y131.247 E30.78955
G1 X83.401 Y131.25 E30.79568
G1 X80.695 Y131.236 E30.89694
G1 X80.344 Y131.218 E30.91009
G1 X74.821 Y130.671 E31.11776
G1 X69.383 Y130.441 E31.32142
G1 X63.938 Y130.518 E31.52518
G1 X58.437 Y130.909 E31.73153
G1 X55.303 Y131.23 E31.84941
G1 X54.907 Y131.25 E31.86425
G1 X52.246 Y131.241 E31.96382
G1 X51.701 Y131.199 E31.98427
G1 X51.167 Y131.078 E32.00476
G1 X50.656 Y130.881 E32.02525
G1 X50.18 Y130.612 E32.04571
G1 X49.748 Y130.276 E32.06618
G1 X49.369 Y129.881 E32.08667
G1 X49.052 Y129.434 E32.10717
G1 X48.803 Y128.947 E32.12764
G1 X48.628 Y128.428 E32.14813
G1 X48.53 Y127.89 E32.16859
G1 X48.51 Y127.571 E32.18055
G1 X48.442 Y124.367 E32.30047
G1 X48.094 Y118.921 E32.50466
G1 X47.441 Y113.516 E32.70837
G1 X46.474 Y108.108 E32.91394
G1 X45.893 Y105.499 E33.01395
G1 X45.371 Y103.4 E33.09488
G1 X45.269 Y102.758 E33.11921
G1 X45.052 Y99.662 E33.23534
G1 X44.429 Y94.214 E33.44052
G1 X43.661 Y89.612 E33.61509
G1 X43.61 Y88.995 E33.63826
G1 X43.61 Y86.01 E33.74995
G1 X43.657 Y85.42 E33.7721
G1 X44.614 Y79.411 E33.99977
G1 X45.276 Y72.168 E34.27192
G1 X45.365 Y71.628 E34.2924
G1 X45.532 Y71.106 E34.3129
G1 X45.773 Y70.615 E34.33337
G1 X46.084 Y70.164 E34.35387
G1 X46.456 Y69.763 E34.37433
G1 X46.883 Y69.42 E34.39483
G0 F3840 X47.161 Y69.597
G1 F2400 X47.624 Y69.35 E34.41446
G1 X48.119 Y69.176 E34.4341
G1 X48.635 Y69.079 E34.45374
G1 X49.01 Y69.059 E34.46779
G1 X140.491 Y69.06 E37.8908
G1 X141.014 Y69.1 E37.91042
G1 X141.526 Y69.219 E37.93009
G1 X142.013 Y69.414 E37.94972
G1 X142.465 Y69.681 E37.96937
G1 X142.872 Y70.013 E37.98902
G1 X143.223 Y70.403 E38.00865
G1 X143.511 Y70.842 E38.0283
G1 X143.729 Y71.32 E38.04795
G1 X143.872 Y71.825 E38.06759
G1 X143.94 Y72.41 E38.08963
G1 X143.98 Y73.792 E38.14136
G1 X144.097 Y76.936 E38.25909
G1 X144.099 Y77.064 E38.26388
G1 X144.1 Y96.846 E39.00407
G1 X144.099 Y96.944 E39.00774
G1 X143.939 Y102.589 E39.21905
G1 X143.884 Y103.111 E39.23869
G1 X143.751 Y103.619 E39.25834
G1 X143.414 Y104.322 E39.28751
G1 X139.811 Y110.077 E39.54157
G1 X137.203 Y114.872 E39.7458
G1 X134.87 Y119.807 E39.95005
G1 X132.809 Y124.893 E40.15539
G1 X131.497 Y128.633 E40.3037
G1 X131.286 Y129.114 E40.32335
G1 X131.004 Y129.557 E40.343
G1 X130.659 Y129.952 E40.36262
G1 X130.257 Y130.29 E40.38227
G1 X129.809 Y130.564 E40.40192
G1 X129.325 Y130.766 E40.42155
G1 X128.815 Y130.893 E40.44121
G1 X128.24 Y130.941 E40.4628
G1 X125.258 Y130.94 E40.57438
G1 X124.919 Y130.923 E40.58708
G1 X119.347 Y130.371 E40.7966
G1 X113.89 Y130.14 E41.00097
G1 X108.413 Y130.219 E41.20592
G1 X102.947 Y130.606 E41.41096
G1 X99.772 Y130.932 E41.53039
G1 X99.407 Y130.95 E41.54406
G1 X96.739 Y130.94 E41.64389
G1 X96.57 Y130.935 E41.65022
G1 X94.383 Y130.819 E41.73217
G1 X88.859 Y130.742 E41.93888
G1 X83.553 Y130.947 E42.13757
G1 X83.402 Y130.95 E42.14322
G1 X80.696 Y130.936 E42.24447
G1 X80.374 Y130.919 E42.25654
G1 X74.847 Y130.371 E42.46436
G1 X69.39 Y130.14 E42.66873
G1 X63.913 Y130.219 E42.87369
G1 X58.447 Y130.606 E43.07872
G1 X55.272 Y130.932 E43.19815
G1 X54.908 Y130.95 E43.21179
G1 X52.247 Y130.941 E43.31136
G1 X51.724 Y130.899 E43.33099
G1 X51.213 Y130.779 E43.35063
G1 X50.726 Y130.582 E43.37029
G1 X50.275 Y130.314 E43.38992
G1 X49.87 Y129.98 E43.40956
G1 X49.52 Y129.589 E43.42919
G1 X49.233 Y129.149 E43.44885
G1 X49.017 Y128.67 E43.46851
G1 X48.875 Y128.165 E43.48814
G1 X48.81 Y127.565 E43.51072
G1 X48.742 Y124.365 E43.63049
G1 X48.392 Y118.884 E43.83599
G1 X47.736 Y113.462 E44.04035
G1 X46.772 Y108.062 E44.2456
G1 X46.188 Y105.444 E44.34596
G1 X45.662 Y103.328 E44.42755
G1 X45.568 Y102.737 E44.44994
G1 X45.35 Y99.63 E44.56648
G1 X44.726 Y94.17 E44.77211
G1 X43.957 Y89.563 E44.94688
G1 X43.91 Y88.995 E44.96821
G1 X43.91 Y86.01 E45.0799
G1 X43.953 Y85.468 E45.10024
G1 X44.91 Y79.458 E45.32796
G1 X45.574 Y72.195 E45.60085
G1 X45.662 Y71.677 E45.62052
G1 X45.827 Y71.179 E45.64015
G1 X46.065 Y70.711 E45.65979
G1 X46.372 Y70.285 E45.67944
G1 X46.74 Y69.911 E45.69907
G1 X47.161 Y69.597 E45.71872
G0 F3840 X47.436 Y69.78
G1 F2400 X47.889 Y69.565 E45.73749
G1 X48.371 Y69.425 E45.75627
G1 X49.01 Y69.359 E45.7803
G1 X140.491 Y69.36 E49.20331
G1 X140.991 Y69.4 E49.22208
G1 X141.478 Y69.519 E49.24083
G1 X141.941 Y69.713 E49.25962
G1 X142.366 Y69.979 E49.27838
G1 X142.744 Y70.309 E49.29715
G1 X143.065 Y70.694 E49.31591
G1 X143.321 Y71.126 E49.3347
G1 X143.504 Y71.593 E49.35347
G1 X143.612 Y72.083 E49.37224
G1 X143.64 Y72.418 E49.38482
G1 X143.68 Y73.803 E49.43667
G1 X143.797 Y76.947 E49.55439
G1 X143.799 Y77.064 E49.55877
G1 X143.8 Y96.846 E50.29896
G1 X143.799 Y96.935 E50.30229
G1 X143.639 Y102.58 E50.5136
G1 X143.585 Y103.079 E50.53238
G1 X143.452 Y103.563 E50.55116
G1 X143.16 Y104.163 E50.57613
G1 X139.547 Y109.934 E50.8309
G1 X136.94 Y114.728 E51.03508
G1 X134.593 Y119.693 E51.24057
G1 X132.523 Y124.8 E51.44677
G1 X131.213 Y128.534 E51.59483
G1 X131.01 Y128.992 E51.61358
G1 X130.737 Y129.413 E51.63235
G1 X130.4 Y129.785 E51.65113
G1 X130.009 Y130.098 E51.66988
G1 X129.572 Y130.346 E51.68868
G1 X129.102 Y130.521 E51.70744
G1 X128.611 Y130.619 E51.72618
G1 X128.24 Y130.641 E51.74008
G1 X125.258 Y130.64 E51.85166
G1 X124.949 Y130.625 E51.86324
G1 X119.355 Y130.071 E52.07358
G1 X113.899 Y129.84 E52.27791
G1 X108.406 Y129.919 E52.48347
G1 X102.925 Y130.307 E52.68907
G1 X99.741 Y130.634 E52.80883
G1 X99.408 Y130.65 E52.8213
G1 X96.74 Y130.64 E52.92114
G1 X96.585 Y130.636 E52.92694
G1 X94.377 Y130.519 E53.00967
G1 X88.871 Y130.442 E53.21571
G1 X83.542 Y130.648 E53.41526
G1 X83.404 Y130.65 E53.42042
G1 X80.698 Y130.636 E53.52168
G1 X80.403 Y130.621 E53.53273
G1 X74.853 Y130.071 E53.74142
G1 X69.399 Y129.84 E53.94567
G1 X63.906 Y129.919 E54.15123
G1 X58.425 Y130.307 E54.35683
G1 X55.241 Y130.634 E54.4766
G1 X54.909 Y130.65 E54.48903
G1 X52.248 Y130.641 E54.5886
G1 X51.748 Y130.599 E54.60738
G1 X51.262 Y130.479 E54.62611
G1 X50.8 Y130.283 E54.64489
G1 X50.375 Y130.016 E54.66367
G1 X49.998 Y129.685 E54.68244
G1 X49.679 Y129.298 E54.7012
G1 X49.425 Y128.866 E54.71995
G1 X49.242 Y128.398 E54.73876
G1 X49.137 Y127.908 E54.75751
G1 X49.11 Y127.558 E54.77064
G1 X49.042 Y124.362 E54.89026
G1 X48.69 Y118.847 E55.09704
G1 X48.034 Y113.425 E55.30139
G1 X47.067 Y108.011 E55.50718
G1 X46.476 Y105.359 E55.60884
G1 X45.953 Y103.256 E55.68993
G1 X45.868 Y102.716 E55.71039
G1 X45.651 Y99.621 E55.82648
G1 X45.022 Y94.123 E56.03354
G1 X44.253 Y89.513 E56.20842
G1 X44.21 Y88.995 E56.22787
G1 X44.21 Y86.01 E56.33956
G1 X44.249 Y85.515 E56.35814
G1 X45.209 Y79.488 E56.5865
G1 X45.873 Y72.222 E56.85951
G1 X45.958 Y71.728 E56.87826
G1 X46.121 Y71.253 E56.89706
G1 X46.357 Y70.811 E56.9158
G1 X46.66 Y70.411 E56.93458
G1 X47.023 Y70.065 E56.95334
G1 X47.436 Y69.78 E56.97212
G0 F3840 X140.636 Y71.889
G0 X141.111 Y72.364
G0 X141.111 Y75.43
G0 X140.636 Y75.905
G0 X124 Y76.898
;TYPE:SUPPORT
G1 F2400 X140.5 Y76.894 E57.58951
G1 X140.5 Y97.403 E58.35691
G1 X124 Y97.403 E58.9743
G1 X124 Y76.898 E59.74155
G0 F3840 X124 Y84
G1 F2400 X140.5 Y84 E60.35894
G0 F3840 X132 Y76.896
G1 F2400 X132 Y97.403 E61.12627
G0 F3840 X124 Y96
G1 F2400 X140.5 Y96 E61.74366
;MESH:switch_holder_2525.stl
G0 F3840 X141.111 Y75.43
G0 X141.111 Y72.364
G0 X140.636 Y71.889
G0 X93.364 Y71.889
G0 X92.889 Y72.364
G0 X89.615 Y96
G0 X88.53 Y96
G0 X87.95 Y101.45
;TYPE:WALL-INNER
G1 F2400 X82.7 Y101.45 E61.9401
G1 X82.7 Y126.45 E62.87554
G1 X81.8 Y126.45 E62.90922
G1 X81.8 Y101.45 E63.84466
G1 X69.65 Y101.45 E64.29928
G1 X69.65 Y105.915 E64.46635
G1 X69.65 Y105.916 E64.46639
G1 X69.65 Y106.066 E64.472
G1 X69.8 Y106.066 E64.47563
G1 X69.801 Y106.065 E64.47568
G1 X71.485 Y106.049 E64.5387
G1 X71.486 Y106.048 E64.53875
G1 X71.765 Y106.047 E64.54919
G1 X71.612 Y106.281 E64.55505
G1 X70.623 Y107.793 E64.62265
G1 X70.494 Y107.923 E64.62951
G1 X70.311 Y107.959 E64.63648
G1 X65.828 Y108 E64.80424
G1 X65.743 Y107.986 E64.80746
G1 X65.569 Y107.891 E64.81488
G1 X64.525 Y106.342 E64.88477
G1 X64.369 Y106.111 E64.8952
G1 X64.647 Y106.11 E64.90101
G1 X64.648 Y106.109 E64.90106
G1 X66.05 Y106.096 E64.95353
G1 X66.05 Y101.45 E65.12737
G1 X54.2 Y101.45 E65.57077
G1 X54.2 Y126.45 E66.50621
G1 X53.3 Y126.45 E66.53988
G1 X53.3 Y101.45 E67.47533
G1 X50.05 Y101.45 E67.59693
