;FLAVOR:Marlin
;TIME:935
;Filament used: 1.14048m
;Layer height: 0.3
;Generated with Cura_SteamEngine 3.6.0
M140 S55
M105
M190 S55
M104 S200
M105
M109 S200
M82 ;absolute extrusion mode
G21 ;metric values
G90 ;absolute positioning
M82 ;set extruder to absolute mode
M107 ;start with the fan off
G28 X0 Y0 ;move X/Y to min endstops
G28 Z0 ;move Z to min endstops
G1 Z15.0 F9000 ;move the platform down 15mm
G92 E0 ;zero the extruded length
G1 F200 E3 ;extrude 3mm of feed stock
G92 E0 ;zero the extruded length again
G1 F9000
;Put printing message on LCD screen
M117 Printing...
G92 E0
;LAYER_COUNT:42
;LAYER:0
M107
G0 F3600 X73.46 Y71.125 Z0.3
;TYPE:SKIRT
G1 F1800 X73.917 Y70.751 E0.0221
G1 X74.419 Y70.443 E0.04413
G1 X74.959 Y70.206 E0.0662
G1 X75.526 Y70.043 E0.08827
G1 X76.12 Y69.959 E0.11072
G1 X78.605 Y69.778 E0.20395
G1 X84.029 Y69.157 E0.40823
G1 X89.361 Y68.238 E0.61068
G1 X95.445 Y66.812 E0.8445
G1 X96.027 Y66.716 E0.86657
G1 X96.439 Y66.697 E0.88201
G1 X104.167 Y66.698 E1.17117
G1 X104.755 Y66.738 E1.19322
G1 X105.332 Y66.857 E1.21527
G1 X105.888 Y67.053 E1.23732
G1 X106.412 Y67.323 E1.25938
G1 X106.896 Y67.661 E1.28147
G1 X107.329 Y68.061 E1.30353
G1 X107.703 Y68.516 E1.32557
G1 X108.013 Y69.018 E1.34764
G1 X108.252 Y69.557 E1.3697
G1 X108.417 Y70.123 E1.39176
G1 X108.503 Y70.706 E1.41381
G1 X108.516 Y71.048 E1.42662
G1 X108.516 Y111.029 E2.92262
G1 X108.476 Y111.617 E2.94467
G1 X108.357 Y112.195 E2.96675
G1 X108.161 Y112.751 E2.98881
G1 X107.891 Y113.275 E3.01086
G1 X107.553 Y113.758 E3.03292
G1 X107.153 Y114.191 E3.05498
G1 X106.698 Y114.566 E3.07704
G1 X106.197 Y114.876 E3.09909
G1 X105.658 Y115.115 E3.12115
G1 X105.092 Y115.279 E3.1432
G1 X104.508 Y115.366 E3.16529
G1 X104.165 Y115.379 E3.17814
G1 X96.43 Y115.378 E3.46756
G1 X95.842 Y115.338 E3.48961
G1 X95.265 Y115.219 E3.51166
G1 X94.973 Y115.126 E3.52312
G1 X91.739 Y113.976 E3.65156
G1 X86.526 Y112.382 E3.85553
G1 X81.258 Y111.091 E4.05848
G1 X75.668 Y110.06 E4.27117
G1 X75.097 Y109.914 E4.29322
G1 X74.551 Y109.692 E4.31528
G1 X74.039 Y109.398 E4.33737
G1 X73.573 Y109.038 E4.3594
G1 X73.159 Y108.618 E4.38147
G1 X72.806 Y108.146 E4.40352
G1 X72.519 Y107.631 E4.42558
G1 X72.306 Y107.081 E4.44765
G1 X72.168 Y106.508 E4.46971
G1 X72.107 Y105.81 E4.49592
G1 X72.088 Y102.825 E4.60762
G1 X72.109 Y102.368 E4.62474
G1 X72.659 Y96.811 E4.83368
G1 X72.887 Y91.421 E5.03554
G1 X72.81 Y85.992 E5.2387
G1 X72.423 Y80.544 E5.44307
G1 X72.101 Y77.402 E5.56125
G1 X72.078 Y76.943 E5.57845
G1 X72.087 Y74.282 E5.67802
G1 X72.129 Y73.694 E5.70007
G1 X72.25 Y73.117 E5.72213
G1 X72.448 Y72.562 E5.74418
G1 X72.719 Y72.038 E5.76626
G1 X73.059 Y71.556 E5.78833
G1 X73.46 Y71.125 E5.81035
G0 F3600 X73.754 Y71.263
G1 F1800 X74.206 Y70.917 E5.83165
G1 X74.702 Y70.638 E5.85295
G1 X75.231 Y70.431 E5.8742
G1 X75.785 Y70.3 E5.8955
G1 X76.142 Y70.258 E5.90895
G1 X78.638 Y70.076 E6.0026
G1 X84.077 Y69.453 E6.20744
G1 X89.415 Y68.533 E6.41012
G1 X95.514 Y67.104 E6.64451
G1 X96.075 Y67.013 E6.66578
G1 X96.439 Y66.997 E6.67941
G1 X104.167 Y66.998 E6.96857
G1 X104.734 Y67.038 E6.98984
G1 X105.29 Y67.157 E7.01112
G1 X105.824 Y67.353 E7.0324
G1 X106.326 Y67.622 E7.05371
G1 X106.784 Y67.958 E7.07497
G1 X107.191 Y68.356 E7.09627
G1 X107.539 Y68.806 E7.11755
G1 X107.82 Y69.301 E7.13885
G1 X108.028 Y69.83 E7.16012
G1 X108.161 Y70.383 E7.1814
G1 X108.216 Y71.048 E7.20637
G1 X108.216 Y111.029 E8.70237
G1 X108.176 Y111.596 E8.72363
G1 X108.057 Y112.153 E8.74495
G1 X107.861 Y112.687 E8.76623
G1 X107.592 Y113.188 E8.78751
G1 X107.256 Y113.647 E8.80879
G1 X106.859 Y114.054 E8.83007
G1 X106.408 Y114.402 E8.85138
G1 X105.914 Y114.682 E8.87263
G1 X105.385 Y114.891 E8.89391
G1 X104.831 Y115.024 E8.91523
G1 X104.165 Y115.079 E8.94024
G1 X96.43 Y115.078 E9.22966
G1 X95.863 Y115.038 E9.25093
G1 X95.074 Y114.844 E9.28133
G1 X91.819 Y113.686 E9.4106
G1 X86.617 Y112.096 E9.61414
G1 X81.312 Y110.796 E9.81851
G1 X75.723 Y109.765 E10.03117
G1 X75.172 Y109.623 E10.05246
G1 X74.646 Y109.405 E10.07376
G1 X74.157 Y109.115 E10.09504
G1 X73.712 Y108.76 E10.11634
G1 X73.322 Y108.346 E10.13762
G1 X72.994 Y107.882 E10.15888
G1 X72.734 Y107.376 E10.18017
G1 X72.547 Y106.838 E10.20148
G1 X72.438 Y106.28 E10.22275
G1 X72.407 Y105.808 E10.24045
G1 X72.388 Y102.823 E10.35215
G1 X72.408 Y102.398 E10.36807
G1 X72.959 Y96.836 E10.5772
G1 X73.188 Y91.43 E10.77966
G1 X73.11 Y85.983 E10.9835
G1 X72.723 Y80.524 E11.18827
G1 X72.399 Y77.371 E11.30687
G1 X72.378 Y76.944 E11.32287
G1 X72.387 Y74.283 E11.42244
G1 X72.429 Y73.716 E11.44371
G1 X72.55 Y73.16 E11.465
G1 X72.747 Y72.627 E11.48627
G1 X73.018 Y72.126 E11.50758
G1 X73.356 Y71.669 E11.52885
G1 X73.754 Y71.263 E11.55012
G0 F3600 X74.047 Y71.407
G1 F1800 X74.494 Y71.09 E11.57063
G1 X74.981 Y70.841 E11.59109
G1 X75.5 Y70.666 E11.61159
G1 X76.164 Y70.557 E11.63676
G1 X78.669 Y70.374 E11.73075
G1 X84.127 Y69.75 E11.9363
G1 X89.466 Y68.829 E12.13902
G1 X95.582 Y67.396 E12.37407
G1 X96.123 Y67.31 E12.39457
G1 X96.438 Y67.297 E12.40636
G1 X104.166 Y67.298 E12.69553
G1 X104.712 Y67.338 E12.71601
G1 X105.247 Y67.457 E12.73652
G1 X105.758 Y67.653 E12.757
G1 X106.235 Y67.921 E12.77747
G1 X106.668 Y68.255 E12.79793
G1 X107.048 Y68.649 E12.81841
G1 X107.367 Y69.094 E12.8389
G1 X107.617 Y69.581 E12.85938
G1 X107.794 Y70.099 E12.87987
G1 X107.893 Y70.637 E12.90033
G1 X107.916 Y71.048 E12.91574
G1 X107.916 Y111.029 E14.41173
G1 X107.876 Y111.575 E14.43222
G1 X107.757 Y112.109 E14.45269
G1 X107.562 Y112.62 E14.47315
G1 X107.294 Y113.098 E14.49366
G1 X106.959 Y113.531 E14.51414
G1 X106.565 Y113.911 E14.53463
G1 X106.12 Y114.23 E14.55511
G1 X105.633 Y114.48 E14.5756
G1 X105.115 Y114.657 E14.59608
G1 X104.577 Y114.756 E14.61655
G1 X104.166 Y114.779 E14.63195
G1 X96.431 Y114.778 E14.92138
G1 X95.885 Y114.738 E14.94186
G1 X95.174 Y114.561 E14.96928
G1 X91.913 Y113.401 E15.09879
G1 X86.691 Y111.805 E15.3031
G1 X81.385 Y110.504 E15.50752
G1 X75.777 Y109.47 E15.7209
G1 X75.247 Y109.332 E15.74139
G1 X74.743 Y109.118 E15.76188
G1 X74.276 Y108.833 E15.78235
G1 X73.855 Y108.483 E15.80283
G1 X73.49 Y108.075 E15.82332
G1 X73.188 Y107.619 E15.84378
G1 X72.955 Y107.123 E15.86429
G1 X72.797 Y106.599 E15.88477
G1 X72.707 Y105.806 E15.91463
G1 X72.688 Y102.821 E16.02632
G1 X72.706 Y102.427 E16.04108
G1 X73.257 Y96.859 E16.25044
G1 X73.487 Y91.421 E16.4541
G1 X73.41 Y85.975 E16.6579
G1 X73.019 Y80.474 E16.86425
G1 X72.698 Y77.341 E16.98209
G1 X72.678 Y76.945 E16.99693
G1 X72.687 Y74.284 E17.0965
G1 X72.729 Y73.739 E17.11695
G1 X72.85 Y73.205 E17.13744
G1 X73.047 Y72.694 E17.15793
G1 X73.316 Y72.218 E17.17839
G1 X73.652 Y71.786 E17.19887
G1 X74.047 Y71.407 E17.21935
G0 F3600 X73.948 Y71.908
G1 F1800 X74.339 Y71.558 E17.23899
G1 X74.779 Y71.271 E17.25864
G1 X75.258 Y71.055 E17.2783
G1 X75.763 Y70.913 E17.29793
G1 X76.186 Y70.856 E17.3139
G1 X78.7 Y70.673 E17.40822
G1 X84.16 Y70.048 E17.61385
G1 X89.536 Y69.121 E17.81798
G1 X95.651 Y67.688 E18.05299
G1 X96.17 Y67.607 E18.07264
G1 X96.438 Y67.597 E18.08268
G1 X104.166 Y67.598 E18.37184
G1 X104.69 Y67.638 E18.39151
G1 X105.201 Y67.757 E18.41114
G1 X105.689 Y67.952 E18.4308
G1 X106.141 Y68.219 E18.45044
G1 X106.547 Y68.551 E18.47007
G1 X106.898 Y68.942 E18.48973
G1 X107.186 Y69.38 E18.50934
G1 X107.404 Y69.858 E18.529
G1 X107.547 Y70.363 E18.54864
G1 X107.616 Y71.048 E18.5744
G1 X107.616 Y111.029 E20.0704
G1 X107.576 Y111.552 E20.09002
G1 X107.457 Y112.064 E20.10969
G1 X107.262 Y112.551 E20.12932
G1 X106.995 Y113.003 E20.14896
G1 X106.663 Y113.41 E20.16862
G1 X106.273 Y113.761 E20.18825
G1 X105.834 Y114.049 E20.20789
G1 X105.356 Y114.267 E20.22755
G1 X104.851 Y114.41 E20.24719
G1 X104.166 Y114.479 E20.27295
G1 X96.431 Y114.478 E20.56238
G1 X95.907 Y114.438 E20.58204
G1 X95.275 Y114.278 E20.60644
G1 X92.019 Y113.12 E20.73574
G1 X86.773 Y111.516 E20.94101
G1 X81.446 Y110.21 E21.14623
G1 X75.831 Y109.175 E21.35987
G1 X75.324 Y109.041 E21.3795
G1 X74.843 Y108.831 E21.39913
G1 X74.399 Y108.551 E21.41877
G1 X74.002 Y108.206 E21.43846
G1 X73.663 Y107.806 E21.45807
G1 X73.388 Y107.358 E21.47774
G1 X73.185 Y106.875 E21.49735
G1 X73.057 Y106.365 E21.51702
G1 X73.007 Y105.804 E21.5381
G1 X72.988 Y102.819 E21.64979
G1 X73.005 Y102.457 E21.66335
G1 X73.557 Y96.885 E21.87286
G1 X73.788 Y91.428 E22.07723
G1 X73.709 Y85.95 E22.28223
G1 X73.322 Y80.484 E22.48727
G1 X72.996 Y77.31 E22.60665
G1 X72.978 Y76.946 E22.62029
G1 X72.987 Y74.285 E22.71986
G1 X73.029 Y73.762 E22.73949
G1 X73.149 Y73.251 E22.75913
G1 X73.346 Y72.764 E22.77879
G1 X73.614 Y72.313 E22.79842
G1 X73.948 Y71.908 E22.81806
G0 F3600 X74.243 Y72.036
G1 F1800 X74.63 Y71.717 E22.83683
G1 X75.062 Y71.463 E22.85558
G1 X75.53 Y71.28 E22.87438
G1 X76.208 Y71.155 E22.90018
G1 X78.731 Y70.971 E22.99483
G1 X84.21 Y70.344 E23.20118
G1 X89.587 Y69.417 E23.40535
G1 X95.719 Y67.98 E23.64101
G1 X96.438 Y67.897 E23.66809
G1 X104.166 Y67.898 E23.95725
G1 X104.666 Y67.938 E23.97602
G1 X105.154 Y68.057 E23.99482
G1 X105.616 Y68.252 E24.01358
G1 X106.041 Y68.517 E24.03232
G1 X106.419 Y68.847 E24.0511
G1 X106.74 Y69.233 E24.06988
G1 X106.996 Y69.664 E24.08864
G1 X107.18 Y70.131 E24.10742
G1 X107.287 Y70.621 E24.12619
G1 X107.316 Y71.048 E24.1422
G1 X107.316 Y111.029 E25.6382
G1 X107.276 Y111.529 E25.65696
G1 X107.157 Y112.016 E25.67572
G1 X106.963 Y112.479 E25.69451
G1 X106.697 Y112.904 E25.71327
G1 X106.367 Y113.282 E25.73204
G1 X105.982 Y113.603 E25.7508
G1 X105.55 Y113.859 E25.76959
G1 X105.083 Y114.042 E25.78836
G1 X104.594 Y114.15 E25.80709
G1 X104.166 Y114.179 E25.82315
G1 X96.431 Y114.178 E26.11257
G1 X95.931 Y114.138 E26.13134
G1 X95.375 Y113.996 E26.15281
G1 X92.093 Y112.828 E26.28316
G1 X86.847 Y111.225 E26.48841
G1 X81.516 Y109.918 E26.6938
G1 X75.886 Y108.88 E26.90801
G1 X75.401 Y108.75 E26.9268
G1 X74.944 Y108.545 E26.94554
G1 X74.524 Y108.269 E26.96434
G1 X74.154 Y107.931 E26.98309
G1 X73.842 Y107.538 E27.00187
G1 X73.596 Y107.101 E27.02063
G1 X73.423 Y106.63 E27.03941
G1 X73.327 Y106.138 E27.05817
G1 X73.307 Y105.802 E27.07076
G1 X73.288 Y102.817 E27.18245
G1 X73.303 Y102.487 E27.19481
G1 X73.857 Y96.893 E27.40515
G1 X74.088 Y91.437 E27.60949
G1 X74.009 Y85.943 E27.81508
G1 X73.621 Y80.465 E28.02057
G1 X73.294 Y77.28 E28.14037
G1 X73.278 Y76.947 E28.15284
G1 X73.287 Y74.286 E28.25241
G1 X73.329 Y73.786 E28.27119
G1 X73.449 Y73.3 E28.28992
G1 X73.645 Y72.838 E28.3087
G1 X73.912 Y72.413 E28.32748
G1 X74.243 Y72.036 E28.34625
;MESH:Switch_holder_2020.stl
G0 F3600 X76.892 Y73.673
G0 X76.892 Y74.752
G0 X96.906 Y76.81
G0 X97.178 Y105.038
;TYPE:WALL-INNER
G1 F1800 X77.178 Y105.038 E29.0946
G1 X77.178 Y103.538 E29.15073
G1 X97.178 Y103.538 E29.89908
G1 X97.178 Y91.988 E30.33126
G1 X93.416 Y91.988 E30.47202
G1 X93.415 Y91.988 E30.47206
G1 X93.265 Y91.988 E30.47767
G1 X93.265 Y92.138 E30.4813
G1 X93.266 Y92.139 E30.48135
G1 X93.283 Y94.132 E30.55593
G1 X93.283 Y94.232 E30.55967
G1 X93.284 Y94.284 E30.56162
G1 X93.285 Y94.308 E30.56252
G1 X93.2 Y94.285 E30.56411
G1 X93.091 Y94.234 E30.56709
G1 X93.008 Y94.18 E30.57021
G1 X91.032 Y92.887 E30.65857
G1 X90.949 Y92.817 E30.66264
G1 X90.856 Y92.706 E30.66805
G1 X90.82 Y92.636 E30.671
G1 X90.771 Y92.386 E30.68053
G1 X90.728 Y87.843 E30.85053
G1 X90.753 Y87.682 E30.85662
G1 X90.9 Y87.415 E30.86803
G1 X90.98 Y87.346 E30.87198
G1 X92.945 Y86.02 E30.96068
G1 X93.052 Y85.948 E30.96551
G1 X93.212 Y85.898 E30.97178
G1 X93.212 Y85.946
G1 X93.213 Y86.076 E30.97565
G1 X93.229 Y87.788 E31.03971
G1 X97.178 Y87.788 E31.18747
G1 X97.178 Y76.538 E31.60842
G1 X77.178 Y76.538 E32.35677
G1 X77.178 Y75.038 E32.4129
G1 X97.178 Y75.038 E33.16125
G1 X97.178 Y71.788 E33.28286
G1 X103.425 Y71.788 E33.51661
G1 X103.425 Y110.288 E34.95719
G1 X97.178 Y110.288 E35.19094
G1 X97.178 Y105.038 E35.38738
G0 F3600 X96.878 Y105.338
G1 F1800 X76.878 Y105.338 E36.13573
G1 X76.878 Y103.238 E36.21431
G1 X96.878 Y103.238 E36.96266
G1 X96.878 Y92.288 E37.37239
G1 X93.719 Y92.288 E37.49059
G1 X93.718 Y92.288 E37.49063
G1 X93.568 Y92.288 E37.49624
G1 X93.568 Y92.438 E37.49987
G1 X93.569 Y92.439 E37.49992
G1 X93.588 Y94.611 E37.5812
G1 X93.588 Y94.632 E37.58198
G1 X93.32 Y94.628 E37.59201
G1 X93.3 Y94.623 E37.59275
G1 X93.1 Y94.569 E37.6005
G1 X92.945 Y94.497 E37.6069
G1 X90.855 Y93.129 E37.70036
G1 X90.734 Y93.028 E37.70626
G1 X90.603 Y92.872 E37.71388
G1 X90.535 Y92.738 E37.7195
G1 X90.471 Y92.415 E37.73182
G1 X90.428 Y87.824 E37.90362
G1 X90.466 Y87.581 E37.91282
G1 X90.663 Y87.224 E37.92808
G1 X90.801 Y87.105 E37.93489
G1 X92.918 Y85.676 E38.03047
G1 X93.255 Y85.571 E38.04367
G1 X93.335 Y85.546 E38.04681
G1 X93.509 Y85.544 E38.05332
G1 X93.509 Y85.628 E38.05593
G1 X93.526 Y87.488 E38.12553
G1 X96.878 Y87.488 E38.25096
G1 X96.878 Y76.838 E38.64945
G1 X76.878 Y76.838 E39.39781
G1 X76.878 Y74.738 E39.47638
G1 X96.878 Y74.738 E40.22474
G1 X96.878 Y71.488 E40.34634
G1 X103.725 Y71.488 E40.60254
G1 X103.725 Y110.588 E42.06557
G1 X96.878 Y110.588 E42.32177
G1 X96.878 Y105.338 E42.51822
G0 F3600 X96.628 Y105.588
;TYPE:WALL-OUTER
G1 F1800 X76.628 Y105.588 E43.26657
G1 X76.628 Y102.988 E43.36385
G1 X96.628 Y102.988 E44.11221
G1 X96.628 Y92.538 E44.50322
G1 X93.971 Y92.538 E44.60264
G1 X93.97 Y92.538 E44.60268
G1 X93.82 Y92.538 E44.60829
G1 X93.82 Y92.688 E44.61192
G1 X93.821 Y92.689 E44.61197
G1 X93.839 Y94.733 E44.68846
G1 X93.84 Y94.734 E44.68851
G1 X93.84 Y94.886 E44.6942
G1 X93.688 Y94.885 E44.69787
G1 X93.687 Y94.884 E44.69793
G1 X93.284 Y94.877 E44.71301
G1 X93.015 Y94.806 E44.72342
G1 X92.824 Y94.716 E44.73132
G1 X90.706 Y93.33 E44.82603
G1 X90.554 Y93.204 E44.83342
G1 X90.394 Y93.013 E44.84274
G1 X90.297 Y92.821 E44.85079
G1 X90.221 Y92.44 E44.86533
G1 X90.178 Y87.806 E45.03873
G1 X90.226 Y87.498 E45.05039
G1 X90.466 Y87.064 E45.06895
G1 X90.646 Y86.908 E45.07786
G1 X92.81 Y85.448 E45.17554
G1 X93.295 Y85.297 E45.19454
G1 X93.607 Y85.292 E45.20622
G1 X93.757 Y85.29 E45.21183
G1 X93.758 Y85.44 E45.21546
G1 X93.774 Y87.238 E45.28274
G1 X96.628 Y87.238 E45.38953
G1 X96.628 Y77.088 E45.76932
G1 X76.628 Y77.088 E46.51768
G1 X76.628 Y74.488 E46.61496
G1 X96.628 Y74.488 E47.36331
G1 X96.628 Y71.238 E47.48492
G1 X103.975 Y71.238 E47.75983
G1 X103.975 Y110.838 E49.24157
G1 X96.628 Y110.838 E49.51648
G1 X96.628 Y105.588 E49.71292
G0 F3600 X96.428 Y105.588
G0 X96.428 Y105.238
G0 X97.468 Y104.748
;TYPE:SKIN
G1 F1800 X77.468 Y104.748 E50.46127
G1 X77.468 Y103.828 E50.4957
G1 X97.468 Y103.828 E51.24405
G1 X97.468 Y91.698 E51.69792
G1 X92.973 Y91.698 E51.86612
G1 X92.991 Y93.822 E51.94559
G1 X91.205 Y92.653 E52.02547
G1 X91.151 Y92.608 E52.0281
G1 X91.096 Y92.537 E52.03146
G1 X91.061 Y92.36 E52.03821
G1 X91.018 Y87.861 E52.20656
G1 X91.031 Y87.778 E52.2097
G1 X91.129 Y87.601 E52.21727
G1 X91.159 Y87.575 E52.21876
G1 X92.926 Y86.383 E52.29851
G1 X92.941 Y88.078 E52.36194
G1 X97.468 Y88.078 E52.53133
G1 X97.468 Y76.248 E52.97398
G1 X77.468 Y76.248 E53.72233
G1 X77.468 Y75.328 E53.75675
G1 X97.468 Y75.328 E54.50511
G1 X97.468 Y72.078 E54.62671
G1 X103.135 Y72.078 E54.83876
G1 X103.135 Y109.998 E56.25764
G1 X97.468 Y109.998 E56.46968
G1 X97.468 Y104.748 E56.66613
G0 F3600 X77.883 Y104.612
G1 F1800 X77.602 Y104.331 E56.681
G0 F3600 X77.658 Y103.962
G1 F1800 X78.307 Y104.612 E56.71536
G0 F3600 X78.732 Y104.612
G1 F1800 X78.082 Y103.962 E56.74976
G0 F3600 X78.506 Y103.962
G1 F1800 X79.156 Y104.612 E56.78416
G0 F3600 X79.58 Y104.612
G1 F1800 X78.93 Y103.962 E56.81855
G0 F3600 X79.355 Y103.962
G1 F1800 X80.004 Y104.612 E56.85292
G0 F3600 X80.429 Y104.612
G1 F1800 X79.779 Y103.962 E56.88732
G0 F3600 X80.203 Y103.962
G1 F1800 X80.853 Y104.612 E56.92171
G0 F3600 X81.277 Y104.612
G1 F1800 X80.627 Y103.962 E56.95611
G0 F3600 X81.052 Y103.962
G1 F1800 X81.701 Y104.612 E56.99048
G0 F3600 X82.126 Y104.612
G1 F1800 X81.476 Y103.962 E57.02487
G0 F3600 X81.9 Y103.962
G1 F1800 X82.55 Y104.612 E57.05927
G0 F3600 X82.974 Y104.612
G1 F1800 X82.324 Y103.962 E57.09367
G0 F3600 X82.749 Y103.962
G1 F1800 X83.399 Y104.612 E57.12806
G0 F3600 X83.823 Y104.612
G1 F1800 X83.173 Y103.962 E57.16246
G0 F3600 X83.597 Y103.962
G1 F1800 X84.247 Y104.612 E57.19685
G0 F3600 X84.671 Y104.612
G1 F1800 X84.021 Y103.962 E57.23125
G0 F3600 X84.446 Y103.962
