;FLAVOR:Marlin
;TIME:7978
;Filament used: 9.20088m
;Layer height: 0.2
;Generated with Cura_SteamEngine 3.4.1
M190 S60
M104 S200
M109 S200
M82 ;absolute extrusion mode
G21 ;metric values
G90 ;absolute positioning
M82 ;set extruder to absolute mode
M107 ;start with the fan off
G28 X0 Y0 ;move X/Y to min endstops
G28 Z0 ;move Z to min endstops
G1 Z15.0 F9000 ;move the platform down 15mm
G92 E0 ;zero the extruded length
G1 F200 E3 ;extrude 3mm of feed stock
G92 E0 ;zero the extruded length again
G1 F9000
;Put printing message on LCD screen
M117 Printing...
G92 E0
G1 F1500 E-6.5
;LAYER_COUNT:36
;LAYER:0
M107
G0 F3600 X91.175 Y62.805 Z0.2
;TYPE:SKIRT
G1 F1500 E0
G1 F1800 X90.683 Y66.503 E0.12408
G1 X90.258 Y72.585 E0.32686
G1 X90.217 Y78.681 E0.52962
G1 X90.557 Y84.751 E0.73183
G1 X91.281 Y90.806 E0.93465
G1 X92.379 Y96.783 E1.13677
G1 X93.859 Y102.721 E1.34031
G1 X95.697 Y108.512 E1.54239
G1 X97.912 Y114.217 E1.74594
G1 X100.144 Y119.143 E1.92581
G1 X100.637 Y115.447 E2.04983
G1 X101.061 Y109.365 E2.25261
G1 X101.101 Y103.269 E2.45537
G1 X100.761 Y97.197 E2.65764
G1 X100.037 Y91.142 E2.86047
G1 X98.939 Y85.164 E3.06262
G1 X97.46 Y79.231 E3.26599
G1 X95.621 Y73.436 E3.46821
G1 X93.406 Y67.732 E3.67172
G1 X91.175 Y62.805 E3.85161
G0 F3600 X90.962 Y61.366
G1 F1800 X90.285 Y66.454 E4.02233
G1 X89.858 Y72.57 E4.22625
G1 X89.817 Y78.684 E4.4296
G1 X90.159 Y84.791 E4.63304
G1 X90.886 Y90.876 E4.83687
G1 X91.985 Y96.858 E5.03916
G1 X93.473 Y102.827 E5.24377
G1 X95.322 Y108.651 E5.447
G1 X97.545 Y114.378 E5.65133
G1 X100.356 Y120.582 E5.87787
G1 X101.034 Y115.494 E6.04859
G1 X101.461 Y109.38 E6.25244
G1 X101.501 Y103.266 E6.4558
G1 X101.159 Y97.157 E6.6593
G1 X100.432 Y91.072 E6.86313
G1 X99.333 Y85.092 E7.06535
G1 X97.845 Y79.122 E7.26999
G1 X95.996 Y73.297 E7.47326
G1 X93.773 Y67.571 E7.67756
G1 X90.962 Y61.366 E7.90412
G0 F3600 X91.274 Y61.085
G1 F1800 X91.174 Y60.819 E7.91358
G1 X90.826 Y59.677 E7.95328
G1 X90.698 Y60.324 E7.97522
G1 X89.886 Y66.421 E8.1798
G1 X89.458 Y72.556 E8.38434
G1 X89.417 Y78.689 E8.58833
G1 X89.762 Y84.843 E8.79334
G1 X90.487 Y90.917 E8.99679
G1 X91.596 Y96.949 E9.20078
G1 X93.087 Y102.933 E9.40589
G1 X94.947 Y108.791 E9.61032
G1 X97.173 Y114.524 E9.81487
G1 X100.045 Y120.864 E10.04636
G1 X100.146 Y121.132 E10.05589
G1 X100.492 Y122.272 E10.09551
G1 X100.62 Y121.628 E10.11735
G1 X101.433 Y115.527 E10.32207
G1 X101.86 Y109.395 E10.52651
G1 X101.901 Y103.262 E10.7305
G1 X101.556 Y97.105 E10.9356
G1 X100.831 Y91.031 E11.13906
G1 X99.722 Y85.001 E11.34298
G1 X98.231 Y79.015 E11.54816
G1 X96.371 Y73.157 E11.75258
G1 X94.145 Y67.425 E11.9571
G1 X91.274 Y61.085 E12.18859
G0 F3600 X91.638 Y60.92
G1 F1800 X91.556 Y60.702 E12.19633
G1 X91.203 Y59.545 E12.23657
G1 X91.163 Y59.389 E12.24192
G1 X90.914 Y58.201 E12.28229
G1 X90.888 Y58.042 E12.28765
G1 X90.833 Y57.576 E12.30326
G1 X90.301 Y60.273 E12.39469
G1 X89.489 Y66.374 E12.5994
G1 X89.059 Y72.541 E12.80501
G1 X89.016 Y78.708 E13.01013
G1 X89.362 Y84.867 E13.21531
G1 X90.093 Y90.989 E13.42037
G1 X91.202 Y97.022 E13.62439
G1 X92.702 Y103.04 E13.83067
G1 X94.572 Y108.93 E14.03621
G1 X96.8 Y114.67 E14.241
G1 X99.681 Y121.029 E14.4732
G1 X99.763 Y121.249 E14.48101
G1 X100.115 Y122.407 E14.52126
G1 X100.155 Y122.56 E14.52652
G1 X100.404 Y123.745 E14.5668
G1 X100.43 Y123.906 E14.57222
G1 X100.485 Y124.374 E14.58789
G1 X101.017 Y121.677 E14.67932
G1 X101.83 Y115.576 E14.88404
G1 X102.26 Y109.409 E15.08965
G1 X102.302 Y103.242 E15.29477
G1 X101.956 Y97.081 E15.50001
G1 X101.225 Y90.959 E15.70508
G1 X100.116 Y84.928 E15.90903
G1 X98.616 Y78.909 E16.11535
G1 X96.746 Y73.018 E16.32092
G1 X94.518 Y67.279 E16.52568
G1 X91.638 Y60.92 E16.75786
G0 F3600 X92.003 Y60.755
G1 F1800 X91.939 Y60.586 E16.76387
G1 X91.586 Y59.429 E16.8041
G1 X91.555 Y59.307 E16.80829
G1 X91.306 Y58.119 E16.84866
G1 X91.286 Y57.995 E16.85284
G1 X91.145 Y56.792 E16.89312
G1 X91.135 Y56.666 E16.89733
G1 X91.103 Y55.457 E16.93755
G1 X91.106 Y55.332 E16.94171
G1 X91.182 Y54.123 E16.982
G1 X91.195 Y53.999 E16.98615
G1 X91.268 Y53.52 E17.00226
G1 X91.098 Y54.165 E17.02445
G1 X89.909 Y60.19 E17.22871
G1 X89.09 Y66.341 E17.4351
G1 X88.659 Y72.526 E17.64131
G1 X88.616 Y78.712 E17.84706
G1 X88.964 Y84.903 E18.0533
G1 X89.697 Y91.046 E18.25907
G1 X90.814 Y97.124 E18.46461
G1 X92.316 Y103.149 E18.67113
G1 X94.19 Y109.05 E18.87706
G1 X96.436 Y114.838 E19.08355
G1 X99.316 Y121.194 E19.31565
G1 X99.38 Y121.365 E19.32172
G1 X99.732 Y122.523 E19.36197
G1 X99.763 Y122.642 E19.36606
G1 X100.012 Y123.827 E19.40634
G1 X100.032 Y123.952 E19.41055
G1 X100.173 Y125.156 E19.45087
G1 X100.183 Y125.282 E19.45507
G1 X100.215 Y126.492 E19.49533
G1 X100.212 Y126.617 E19.49949
G1 X100.136 Y127.826 E19.53978
G1 X100.123 Y127.95 E19.54393
G1 X100.049 Y128.431 E19.56011
G1 X100.22 Y127.785 E19.58234
G1 X101.409 Y121.76 E19.7866
G1 X102.229 Y115.609 E19.99299
G1 X102.66 Y109.424 E20.1992
G1 X102.702 Y103.238 E20.40495
G1 X102.354 Y97.045 E20.61126
G1 X101.621 Y90.902 E20.81702
G1 X100.504 Y84.826 E21.0225
G1 X99.002 Y78.8 E21.22906
G1 X97.128 Y72.898 E21.43502
G1 X94.882 Y67.111 E21.64148
G1 X92.003 Y60.755 E21.87356
G0 F3600 X92.367 Y60.59
G1 F1800 X92.322 Y60.469 E21.87785
G1 X91.969 Y59.312 E21.91809
G1 X91.946 Y59.225 E21.92108
G1 X91.697 Y58.037 E21.96145
G1 X91.683 Y57.948 E21.96445
G1 X91.542 Y56.745 E22.00473
G1 X91.535 Y56.655 E22.00773
G1 X91.503 Y55.446 E22.04796
G1 X91.505 Y55.357 E22.05092
G1 X91.581 Y54.148 E22.09121
G1 X91.591 Y54.059 E22.09419
G1 X91.775 Y52.86 E22.13454
G1 X91.792 Y52.771 E22.13755
G1 X92.083 Y51.597 E22.17778
G1 X92.109 Y51.512 E22.18074
G1 X92.504 Y50.366 E22.22105
G1 X92.537 Y50.282 E22.22405
G1 X93.033 Y49.178 E22.26431
G1 X93.073 Y49.099 E22.26725
G1 X93.666 Y48.042 E22.30756
G1 X93.714 Y47.965 E22.31058
G1 X94.399 Y46.967 E22.35084
G1 X94.453 Y46.895 E22.35384
G1 X95.226 Y45.962 E22.39413
G1 X95.286 Y45.896 E22.3971
G1 X96.139 Y45.035 E22.43741
G1 X96.205 Y44.974 E22.4404
G1 X97.133 Y44.192 E22.48076
G1 X97.204 Y44.137 E22.48375
G1 X98.195 Y43.444 E22.52397
G1 X98.271 Y43.396 E22.52696
G1 X99.322 Y42.794 E22.56725
G1 X99.401 Y42.754 E22.57019
G1 X100.501 Y42.248 E22.61046
G1 X100.585 Y42.213 E22.61349
G1 X101.729 Y41.808 E22.65385
G1 X101.814 Y41.782 E22.65681
G1 X102.985 Y41.481 E22.69702
G1 X103.073 Y41.463 E22.70001
G1 X104.271 Y41.268 E22.74038
G1 X104.361 Y41.258 E22.74339
G1 X105.568 Y41.172 E22.78364
G1 X105.641 Y41.169 E22.78607
G1 X121.303 Y41.208 E23.30699
G1 X121.636 Y41.266 E23.31823
G1 X122.007 Y41.398 E23.33133
G1 X122.237 Y41.515 E23.33991
G1 X122.557 Y41.734 E23.35281
G1 X122.753 Y41.91 E23.36157
G1 X123.007 Y42.208 E23.3746
G1 X123.149 Y42.428 E23.3833
G1 X123.317 Y42.782 E23.39634
G1 X123.397 Y43.029 E23.40497
G1 X123.469 Y43.418 E23.41813
G1 X123.486 Y43.6 E23.42421
G1 X123.467 Y167.999 E27.56174
G1 X123.409 Y168.333 E27.57301
G1 X123.277 Y168.705 E27.58614
G1 X123.159 Y168.937 E27.5948
G1 X122.94 Y169.256 E27.60767
G1 X122.765 Y169.451 E27.61638
G1 X122.467 Y169.705 E27.62941
G1 X122.161 Y169.883 E27.64118
G1 X121.592 Y170.091 E27.66133
G1 X121.248 Y170.152 E27.67295
G1 X105.18 Y170.138 E28.20737
G1 X105.076 Y170.132 E28.21084
G1 X103.883 Y170.006 E28.25074
G1 X103.794 Y169.993 E28.25373
G1 X102.605 Y169.758 E28.29404
G1 X102.518 Y169.737 E28.29702
G1 X101.357 Y169.397 E28.33726
G1 X101.273 Y169.368 E28.34021
G1 X100.144 Y168.925 E28.38055
G1 X100.062 Y168.888 E28.38354
G1 X98.978 Y168.346 E28.42385
G1 X98.899 Y168.303 E28.42684
G1 X97.87 Y167.667 E28.46708
G1 X97.796 Y167.616 E28.47007
G1 X96.826 Y166.888 E28.5104
G1 X96.754 Y166.829 E28.5135
G1 X95.798 Y165.962 E28.55643
G1 X95.733 Y165.897 E28.55948
G1 X94.913 Y165.003 E28.59983
G1 X94.855 Y164.934 E28.60283
G1 X94.12 Y163.972 E28.6431
G1 X94.069 Y163.898 E28.64608
G1 X93.423 Y162.873 E28.68638
G1 X93.379 Y162.795 E28.68936
G1 X92.828 Y161.717 E28.72963
G1 X92.79 Y161.635 E28.73263
G1 X92.338 Y160.512 E28.7729
G1 X92.308 Y160.427 E28.77589
G1 X91.959 Y159.268 E28.81615
G1 X91.938 Y159.183 E28.81906
G1 X91.692 Y157.995 E28.85942
G1 X91.677 Y157.905 E28.86245
G1 X91.54 Y156.704 E28.90266
G1 X91.534 Y156.614 E28.90566
G1 X91.506 Y155.403 E28.94594
G1 X91.508 Y155.315 E28.94887
G1 X91.587 Y154.106 E28.98917
G1 X91.597 Y154.016 E28.99218
G1 X91.785 Y152.818 E29.03251
G1 X91.803 Y152.73 E29.0355
G1 X92.097 Y151.557 E29.07572
G1 X92.123 Y151.471 E29.07871
G1 X92.522 Y150.326 E29.11904
G1 X92.56 Y150.232 E29.12241
G1 X94.718 Y145.603 E29.29228
G1 X97.051 Y139.828 E29.49944
G1 X99.011 Y133.931 E29.70613
G1 X100.606 Y127.89 E29.91394
G1 X101.807 Y121.809 E30.1201
G1 X102.626 Y115.659 E30.32645
G1 X103.06 Y109.438 E30.53387
G1 X103.102 Y103.218 E30.74075
G1 X102.754 Y97.023 E30.94712
G1 X102.016 Y90.846 E31.15403
G1 X100.893 Y84.735 E31.36069
G1 X99.387 Y78.693 E31.56779
G1 X97.504 Y72.758 E31.77489
G1 X95.255 Y66.965 E31.98157
G1 X92.367 Y60.59 E32.21435
G0 F3600 X92.731 Y60.425
G1 F1800 X92.704 Y60.352 E32.21694
G1 X92.351 Y59.195 E32.25717
G1 X92.338 Y59.143 E32.25896
G1 X92.089 Y57.955 E32.29933
G1 X92.08 Y57.902 E32.30112
G1 X91.939 Y56.699 E32.3414
G1 X91.935 Y56.645 E32.3432
G1 X91.903 Y55.436 E32.38343
G1 X91.904 Y55.382 E32.38522
G1 X91.98 Y54.173 E32.42552
G1 X91.986 Y54.12 E32.42729
G1 X92.17 Y52.921 E32.46763
G1 X92.181 Y52.868 E32.46944
G1 X92.472 Y51.694 E32.50966
G1 X92.487 Y51.642 E32.51146
G1 X92.882 Y50.496 E32.55178
G1 X92.902 Y50.446 E32.55357
G1 X93.398 Y49.342 E32.59383
G1 X93.422 Y49.294 E32.59561
G1 X94.015 Y48.237 E32.63592
G1 X94.043 Y48.191 E32.63771
G1 X94.728 Y47.193 E32.67797
G1 X94.761 Y47.15 E32.67978
G1 X95.534 Y46.217 E32.72008
G1 X95.57 Y46.178 E32.72184
G1 X96.423 Y45.317 E32.76215
G1 X96.462 Y45.28 E32.76394
G1 X97.39 Y44.498 E32.8043
G1 X97.433 Y44.465 E32.80611
G1 X98.424 Y43.772 E32.84633
G1 X98.47 Y43.743 E32.84813
G1 X99.521 Y43.141 E32.88842
G1 X99.568 Y43.117 E32.89017
G1 X100.668 Y42.611 E32.93045
G1 X100.719 Y42.59 E32.93228
G1 X101.863 Y42.185 E32.97264
G1 X101.914 Y42.17 E32.97441
G1 X103.085 Y41.869 E33.01463
G1 X103.138 Y41.858 E33.01643
G1 X104.336 Y41.663 E33.0568
G1 X104.389 Y41.657 E33.05857
G1 X105.596 Y41.571 E33.09882
G1 X105.64 Y41.569 E33.10028
G1 X121.302 Y41.608 E33.6212
G1 X121.502 Y41.643 E33.62796
G1 X121.873 Y41.775 E33.64105
G1 X122.011 Y41.845 E33.6462
G1 X122.331 Y42.064 E33.6591
G1 X122.449 Y42.17 E33.66437
G1 X122.703 Y42.468 E33.6774
G1 X122.788 Y42.6 E33.68262
G1 X122.956 Y42.954 E33.69565
G1 X123.004 Y43.102 E33.70083
G1 X123.076 Y43.491 E33.71398
G1 X123.086 Y43.6 E33.71762
G1 X123.067 Y167.999 E37.85515
G1 X123.032 Y168.2 E37.86194
G1 X122.9 Y168.572 E37.87507
G1 X122.83 Y168.711 E37.88024
G1 X122.611 Y169.03 E37.89311
G1 X122.505 Y169.147 E37.89836
G1 X122.207 Y169.401 E37.91139
G1 X122.024 Y169.508 E37.91844
G1 X121.455 Y169.716 E37.93859
G1 X121.248 Y169.752 E37.94558
G1 X105.18 Y169.738 E38.48
G1 X105.118 Y169.735 E38.48206
G1 X103.925 Y169.609 E38.52196
G1 X103.872 Y169.601 E38.52375
G1 X102.683 Y169.366 E38.56406
G1 X102.63 Y169.353 E38.56587
G1 X101.469 Y169.013 E38.60611
G1 X101.419 Y168.996 E38.60787
G1 X100.29 Y168.553 E38.64821
G1 X100.241 Y168.531 E38.64999
G1 X99.157 Y167.989 E38.6903
G1 X99.11 Y167.962 E38.6921
G1 X98.081 Y167.326 E38.73234
G1 X98.036 Y167.296 E38.73414
G1 X97.066 Y166.568 E38.77447
G1 X97.023 Y166.532 E38.77634
G1 X96.067 Y165.665 E38.81927
G1 X96.028 Y165.627 E38.82108
G1 X95.208 Y164.733 E38.86142
G1 X95.173 Y164.691 E38.86324
G1 X94.438 Y163.729 E38.90351
G1 X94.407 Y163.685 E38.9053
G1 X93.761 Y162.66 E38.9456
G1 X93.735 Y162.613 E38.94738
G1 X93.184 Y161.535 E38.98765
G1 X93.161 Y161.486 E38.98945
G1 X92.709 Y160.363 E39.02971
G1 X92.691 Y160.312 E39.03151
G1 X92.342 Y159.153 E39.07177
G1 X92.329 Y159.102 E39.07352
G1 X92.083 Y157.914 E39.11387
G1 X92.075 Y157.86 E39.11569
G1 X91.938 Y156.659 E39.15589
G1 X91.934 Y156.605 E39.15769
G1 X91.906 Y155.394 E39.19798
G1 X91.907 Y155.341 E39.19975
G1 X91.986 Y154.132 E39.24004
G1 X91.992 Y154.078 E39.24185
G1 X92.18 Y152.88 E39.28218
G1 X92.191 Y152.827 E39.28398
G1 X92.485 Y151.654 E39.3242
G1 X92.5 Y151.603 E39.32597
G1 X92.899 Y150.458 E39.3663
G1 X92.922 Y150.401 E39.36835
G1 X95.092 Y145.746 E39.53917
G1 X97.428 Y139.963 E39.74661
G1 X99.396 Y134.039 E39.95423
G1 X100.994 Y127.988 E40.16239
G1 X102.201 Y121.877 E40.36957
G1 X103.025 Y115.692 E40.5771
G1 X103.46 Y109.453 E40.78511
G1 X103.502 Y103.215 E40.99259
G1 X103.152 Y96.983 E41.2002
G1 X102.41 Y90.773 E41.40821
G1 X101.287 Y84.663 E41.61484
G1 X99.773 Y78.588 E41.82307
G1 X97.879 Y72.618 E42.03139
G1 X95.627 Y66.819 E42.2383
G1 X92.731 Y60.425 E42.47176
G0 F3600 X93.096 Y60.26
G1 F1800 X93.087 Y60.235 E42.47264
G1 X92.734 Y59.078 E42.51288
G1 X92.729 Y59.061 E42.51347
G1 X92.48 Y57.873 E42.55384
G1 X92.477 Y57.855 E42.55444
G1 X92.336 Y56.652 E42.59473
G1 X92.335 Y56.634 E42.59533
G1 X92.303 Y55.425 E42.63555
G1 X92.303 Y55.407 E42.63615
G1 X92.379 Y54.198 E42.67644
G1 X92.381 Y54.181 E42.67701
G1 X92.565 Y52.982 E42.71736
G1 X92.569 Y52.964 E42.71797
G1 X92.86 Y51.79 E42.7582
G1 X92.865 Y51.773 E42.75879
G1 X93.26 Y50.627 E42.79911
G1 X93.267 Y50.61 E42.79972
G1 X93.763 Y49.506 E42.83997
G1 X93.771 Y49.49 E42.84057
G1 X94.364 Y48.433 E42.88088
G1 X94.373 Y48.418 E42.88146
G1 X95.058 Y47.42 E42.92172
G1 X95.069 Y47.405 E42.92234
G1 X95.842 Y46.472 E42.96264
G1 X95.854 Y46.459 E42.96323
G1 X96.707 Y45.598 E43.00354
G1 X96.72 Y45.586 E43.00413
G1 X97.648 Y44.804 E43.04449
G1 X97.662 Y44.793 E43.04508
G1 X98.653 Y44.1 E43.0853
G1 X98.669 Y44.09 E43.08593
G1 X99.72 Y43.488 E43.12621
G1 X99.735 Y43.48 E43.12678
G1 X100.835 Y42.974 E43.16705
G1 X100.852 Y42.967 E43.16766
G1 X101.996 Y42.562 E43.20803
G1 X102.013 Y42.557 E43.20862
G1 X103.184 Y42.256 E43.24883
G1 X103.202 Y42.253 E43.24944
G1 X104.4 Y42.058 E43.28981
G1 X104.418 Y42.056 E43.29041
G1 X105.625 Y41.97 E43.33066
G1 X105.639 Y41.969 E43.33112
G1 X121.301 Y42.008 E43.85204
G1 X121.368 Y42.02 E43.85431
G1 X121.739 Y42.152 E43.86741
G1 X121.785 Y42.175 E43.86912
G1 X122.105 Y42.394 E43.88201
G1 X122.144 Y42.429 E43.88376
G1 X122.398 Y42.727 E43.89678
G1 X122.427 Y42.771 E43.89853
G1 X122.595 Y43.125 E43.91156
G1 X122.611 Y43.175 E43.91331
G1 X122.683 Y43.564 E43.92647
G1 X122.686 Y43.6 E43.92767
G1 X122.667 Y167.999 E48.0652
G1 X122.655 Y168.066 E48.06746
G1 X122.523 Y168.438 E48.08059
G1 X122.5 Y168.484 E48.0823
G1 X122.281 Y168.803 E48.09517
G1 X122.246 Y168.842 E48.09691
G1 X121.948 Y169.096 E48.10994
G1 X121.887 Y169.132 E48.11229
G1 X121.318 Y169.34 E48.13244
G1 X121.249 Y169.352 E48.13477
G1 X105.181 Y169.338 E48.6692
G1 X105.16 Y169.337 E48.6699
G1 X103.967 Y169.211 E48.7098
G1 X103.949 Y169.208 E48.7104
G1 X102.76 Y168.973 E48.75071
G1 X102.743 Y168.969 E48.75129
G1 X101.582 Y168.629 E48.79153
G1 X101.565 Y168.623 E48.79213
G1 X100.436 Y168.18 E48.83247
G1 X100.42 Y168.173 E48.83305
G1 X99.336 Y167.631 E48.87336
G1 X99.32 Y167.622 E48.87397
G1 X98.291 Y166.986 E48.9142
G1 X98.276 Y166.976 E48.9148
G1 X97.306 Y166.248 E48.95514
G1 X97.292 Y166.236 E48.95576
G1 X96.336 Y165.369 E48.99868
G1 X96.323 Y165.356 E48.99929
G1 X95.503 Y164.462 E49.03964
G1 X95.491 Y164.448 E49.04025
G1 X94.756 Y163.486 E49.08052
G1 X94.746 Y163.472 E49.08109
G1 X94.1 Y162.447 E49.12139
G1 X94.091 Y162.431 E49.122
G1 X93.54 Y161.353 E49.16227
G1 X93.532 Y161.337 E49.16286
G1 X93.08 Y160.214 E49.20312
G1 X93.074 Y160.197 E49.20372
G1 X92.725 Y159.038 E49.24398
G1 X92.721 Y159.021 E49.24456
G1 X92.475 Y157.833 E49.28491
G1 X92.472 Y157.815 E49.28552
G1 X92.335 Y156.614 E49.32573
G1 X92.334 Y156.596 E49.32633
G1 X92.306 Y155.385 E49.36661
G1 X92.306 Y155.367 E49.36721
G1 X92.385 Y154.158 E49.40751
G1 X92.387 Y154.14 E49.40811
G1 X92.575 Y152.942 E49.44845
G1 X92.579 Y152.924 E49.44906
G1 X92.873 Y151.751 E49.48928
G1 X92.878 Y151.734 E49.48987
G1 X93.277 Y150.589 E49.5302
G1 X93.285 Y150.57 E49.53088
G1 X95.455 Y145.915 E49.70171
G1 X97.8 Y140.111 E49.90991
G1 X99.78 Y134.151 E50.11879
G1 X101.386 Y128.074 E50.32785
G1 X102.597 Y121.937 E50.53591
G1 X103.423 Y115.735 E50.74401
G1 X103.86 Y109.469 E50.95292
G1 X103.902 Y103.212 E51.16103
