;FLAVOR:Marlin
;TIME:2869
;Filament used: 2.18795m
;Layer height: 0.2
;Generated with Cura_SteamEngine 3.6.0
M140 S60
M105
M190 S60
M104 S190
M105
M109 S190
M82 ;absolute extrusion mode
G21 ;metric values
G90 ;absolute positioning
M82 ;set extruder to absolute mode
M107 ;start with the fan off
G28 X0 Y0 ;move X/Y to min endstops
G28 Z0 ;move Z to min endstops
G1 Z15.0 F9000 ;move the platform down 15mm
G92 E0 ;zero the extruded length
G1 F200 E3 ;extrude 3mm of feed stock
G92 E0 ;zero the extruded length again
G1 F9000
;Put printing message on LCD screen
M117 Printing...
G92 E0
G1 F1500 E-6.5
;LAYER_COUNT:10
;LAYER:0
M107
G0 F3000 X7.888 Y10.545 Z0.3
;TYPE:SKIRT
G1 F1500 E0
G1 F1800 X8.33 Y10.242 E0.02674
G1 X8.813 Y10.007 E0.05353
G1 X9.324 Y9.847 E0.08025
G1 X9.854 Y9.764 E0.10701
G1 X10.14 Y9.753 E0.12129
G1 X71.406 Y9.744 E3.17786
G1 X75.888 Y9.632 E3.40154
G1 X75.977 Y9.631 E3.40598
G1 X145.402 Y9.613 E6.86961
G1 X145.937 Y9.653 E6.89638
G1 X146.46 Y9.772 E6.92313
G1 X146.959 Y9.967 E6.94986
G1 X147.424 Y10.234 E6.97661
G1 X147.844 Y10.567 E7.00336
G1 X148.21 Y10.959 E7.03011
G1 X148.514 Y11.401 E7.05688
G1 X148.749 Y11.884 E7.08367
G1 X148.909 Y12.395 E7.11039
G1 X148.991 Y12.925 E7.13714
G1 X149.003 Y13.213 E7.15152
G1 X149.002 Y77.193 E10.3435
G1 X148.962 Y77.728 E10.37027
G1 X148.843 Y78.251 E10.39703
G1 X148.648 Y78.75 E10.42375
G1 X148.38 Y79.215 E10.45053
G1 X148.047 Y79.635 E10.47727
G1 X147.655 Y80.001 E10.50403
G1 X147.213 Y80.304 E10.53076
G1 X146.73 Y80.539 E10.55756
G1 X146.219 Y80.699 E10.58427
G1 X145.689 Y80.782 E10.61104
G1 X145.403 Y80.793 E10.62532
G1 X84.12 Y80.802 E13.68274
G1 X79.679 Y80.912 E13.90437
G1 X79.591 Y80.913 E13.90876
G1 X10.142 Y80.933 E17.37358
G1 X9.607 Y80.893 E17.40035
G1 X9.084 Y80.774 E17.42711
G1 X8.585 Y80.579 E17.45384
G1 X8.12 Y80.312 E17.48059
G1 X7.7 Y79.979 E17.50733
G1 X7.334 Y79.587 E17.53409
G1 X7.03 Y79.145 E17.56085
G1 X6.795 Y78.662 E17.58765
G1 X6.635 Y78.151 E17.61436
G1 X6.553 Y77.621 E17.64112
G1 X6.541 Y77.333 E17.6555
G1 X6.541 Y13.353 E20.84748
G1 X6.581 Y12.818 E20.87424
G1 X6.7 Y12.295 E20.901
G1 X6.895 Y11.796 E20.92773
G1 X7.163 Y11.331 E20.95451
G1 X7.496 Y10.911 E20.98125
G1 X7.888 Y10.545 E21.008
G0 F3000 X8.277 Y10.752
G1 F1800 X8.71 Y10.491 E21.03323
G1 X9.178 Y10.301 E21.05843
G1 X9.671 Y10.188 E21.08366
G1 X10.141 Y10.153 E21.10717
G1 X71.416 Y10.144 E24.16419
G1 X75.898 Y10.032 E24.38787
G1 X75.977 Y10.031 E24.39181
G1 X145.402 Y10.013 E27.85544
G1 X145.906 Y10.053 E27.88066
G1 X146.398 Y10.171 E27.90591
G1 X146.864 Y10.366 E27.93111
G1 X147.294 Y10.632 E27.95633
G1 X147.677 Y10.962 E27.98156
G1 X148.003 Y11.348 E28.00676
G1 X148.265 Y11.781 E28.03201
G1 X148.455 Y12.25 E28.05726
G1 X148.568 Y12.742 E28.08244
G1 X148.603 Y13.213 E28.10601
G1 X148.602 Y77.193 E31.29798
G1 X148.562 Y77.697 E31.32321
G1 X148.443 Y78.188 E31.34841
G1 X148.248 Y78.655 E31.37366
G1 X147.983 Y79.085 E31.39886
G1 X147.653 Y79.468 E31.42408
G1 X147.266 Y79.794 E31.44933
G1 X146.833 Y80.055 E31.47455
G1 X146.365 Y80.245 E31.49975
G1 X145.872 Y80.358 E31.52498
G1 X145.402 Y80.393 E31.5485
G1 X84.11 Y80.402 E34.60637
G1 X79.669 Y80.512 E34.828
G1 X79.591 Y80.513 E34.83189
G1 X10.142 Y80.533 E38.29671
G1 X9.638 Y80.493 E38.32194
G1 X9.146 Y80.375 E38.34718
G1 X8.68 Y80.18 E38.37238
G1 X8.25 Y79.914 E38.39761
G1 X7.867 Y79.584 E38.42283
G1 X7.541 Y79.198 E38.44804
G1 X7.279 Y78.765 E38.47329
G1 X7.09 Y78.297 E38.49847
G1 X6.976 Y77.804 E38.52371
G1 X6.941 Y77.333 E38.54727
G1 X6.941 Y13.353 E41.73925
G1 X6.981 Y12.849 E41.76447
G1 X7.1 Y12.358 E41.78968
G1 X7.294 Y11.891 E41.81491
G1 X7.56 Y11.461 E41.84013
G1 X7.89 Y11.078 E41.86536
G1 X8.277 Y10.752 E41.8906
G1 F1500 E35.3906
G1 F300 Z0.5
;MESH:Tie_Ornament_Tree_NO-WORDS.stl
G0 F3000 X14.018 Y22.156 Z0.5
;TYPE:WALL-INNER
G1 F300 Z0.3
G1 F1500 E41.8906
G1 F1800 X14.061 Y22.146 E41.8928
G1 X20.051 Y22.146 E42.19165
G1 X20.092 Y22.155 E42.19374
G1 X20.48 Y22.244 E42.2136
G1 X20.094 Y22.332 E42.21828
G1 X20.051 Y22.342
G1 X14.061 Y22.342 E42.36471
G1 X14.02 Y22.333 E42.36681
G1 X13.631 Y22.244 E42.3838
G1 X14.018 Y22.156 E42.38849
G1 F1500 E35.88849
G1 F300 Z0.5
G0 F3000 X19.913 Y26.328 Z0.5
G1 F300 Z0.3
G1 F1500 E42.38849
G1 F1800 X19.857 Y26.342 E42.39137
G1 X14 Y26.342 E42.68358
G1 X13.945 Y26.329 E42.6864
G1 X13.494 Y26.22 E42.70955
G1 X13.944 Y26.112 E42.71623
G1 X14 Y26.098 E42.71792
G1 X19.857 Y26.098 E42.89617
G1 X19.912 Y26.111 E42.8978
G1 X20.363 Y26.22 E42.92095
G1 X19.913 Y26.328 E42.92763
G1 F1500 E36.42763
G1 F300 Z0.5
G0 F3000 X22.806 Y26.186 Z0.5
G1 F300 Z0.3
G1 F1500 E42.92763
G1 F1800 X22.806 Y26.294 E42.93302
G1 X22.754 Y26.275
G1 X22.516 Y26.186 E42.94133
G1 X22.516 Y26.133 E42.94397
G1 X22.806 Y26.133 E42.9485
G1 X22.806 Y26.186
G1 F1500 E36.4485
G1 F300 Z0.5
G0 F3000 X22.753 Y22.306 Z0.5
G1 F300 Z0.3
G1 F1500 E42.9485
G1 F1800 X22.806 Y22.286 E42.95132
G1 X22.806 Y22.394 E42.95371
G1 X22.806 Y22.447 E42.95483
G1 X22.516 Y22.447 E42.9652
G1 X22.516 Y22.394 E42.96712
G1 X22.753 Y22.306 E42.96976
G1 F1500 E36.46976
G1 F300 Z0.5
G0 F3000 X20.989 Y32.089 Z0.5
G1 F300 Z0.3
G1 F1500 E42.96976
G1 F1800 X20.93 Y32.102 E42.97277
G1 X14.083 Y32.102 E43.31437
G1 X14.025 Y32.09 E43.31733
G1 X13.399 Y31.956 E43.34927
G1 X14.023 Y31.823 E43.36032
G1 X14.083 Y31.81 E43.36249
G1 X20.929 Y31.81 E43.61182
G1 X20.988 Y31.822 E43.61393
G1 X21.613 Y31.956 E43.64582
G1 X20.989 Y32.089 E43.65689
G1 F1500 E37.15689
G1 F300 Z0.5
G0 F3000 X23.459 Y32.258 Z0.5
G1 F300 Z0.3
G1 F1500 E43.65689
G1 F1800 X23.421 Y32.297 E43.65961
G1 X23.442 Y32.253
G1 X23.459 Y32.258
G0 F3000 X23.396 Y32.702
G1 F1800 X23.428 Y32.806 E43.66504
G1 X23.289 Y32.79 E43.6677
G1 X23.16 Y32.775 E43.67158
G1 X23.208 Y32.687 E43.67258
G1 X23.326 Y32.471 E43.6811
G1 X23.396 Y32.702 E43.68456
G1 F1500 E37.18456
G1 F300 Z0.5
G0 F3000 X39.953 Y28.3 Z0.5
G1 F300 Z0.3
G1 F1500 E43.68456
G1 F1800 X39.966 Y28.287 E43.68548
G1 X39.983 Y28.27 E43.68668
G1 X39.991 Y28.262 E43.68724
G1 X40.524 Y28.684 E43.72116
G1 X40.857 Y28.912 E43.7413
G1 X41.204 Y29.11 E43.76123
G1 X41.543 Y29.272 E43.77997
G1 X41.822 Y29.386 E43.79501
G1 X42.105 Y29.482 E43.80992
G1 X42.396 Y29.565 E43.82501
G1 X42.69 Y29.628 E43.84002
G1 X42.979 Y29.678 E43.85465
G1 X43.559 Y29.754 E43.88383
G1 X43.559 Y29.775 E43.88488
G1 X43.559 Y29.797 E43.88598
G1 X43.718 Y29.775 E43.8907
G1 X43.859 Y29.794 E43.89779
G1 X43.859 Y29.775
G1 X43.859 Y29.756 E43.89849
G1 X44.679 Y29.645 E43.93978
G1 X45.074 Y29.56 E43.95993
G1 X45.46 Y29.445 E43.98003
G1 X45.877 Y29.282 E44.00237
G1 X46.151 Y29.153 E44.01747
G1 X46.413 Y29.01 E44.03237
G1 X46.669 Y28.855 E44.0473
G1 X46.923 Y28.676 E44.0628
G1 X47.428 Y28.289 E44.09454
G1 X47.444 Y28.305 E44.09567
G1 X47.504 Y28.231 E44.10042
G1 X47.663 Y28.109 E44.11042
G1 X47.652 Y28.098
G1 X47.637 Y28.083
G1 X47.629 Y28.075 E44.11096
G1 X47.99 Y27.628 E44.13962
G1 X48.168 Y27.381 E44.15481
G1 X48.379 Y27.044 E44.17465
G1 X48.532 Y26.758 E44.19083
G1 X48.658 Y26.484 E44.20588
G1 X48.768 Y26.205 E44.22084
G1 X48.862 Y25.922 E44.23572
G1 X48.942 Y25.631 E44.25077
G1 X49.022 Y25.251 E44.27015
G1 X49.125 Y24.503 E44.30782
G1 X49.142 Y24.503 E44.30867
G1 X49.157 Y24.503 E44.30941
G1 X49.142 Y24.38 E44.31292
G1 X49.167 Y24.198 E44.32208
G1 X49.142 Y24.198
G1 X49.12 Y24.198 E44.32295
G1 X49.029 Y23.453 E44.36039
G1 X48.968 Y23.137 E44.37645
G1 X48.83 Y22.644 E44.40199
G1 X48.71 Y22.307 E44.41984
G1 X48.582 Y22.018 E44.43561
G1 X48.446 Y21.753 E44.45047
G1 X48.297 Y21.494 E44.46537
G1 X48.132 Y21.24 E44.48049
G1 X47.664 Y20.617 E44.51936
G1 X47.677 Y20.604 E44.52028
G1 X47.691 Y20.59 E44.52127
G1 X47.582 Y20.507 E44.52518
G1 X47.486 Y20.379 E44.53316
G1 X47.47 Y20.395
G1 X47.455 Y20.41 E44.53396
G1 X46.79 Y19.902 E44.57571
G1 X46.449 Y19.683 E44.59593
G1 X46.061 Y19.472 E44.61796
G1 X45.712 Y19.318 E44.63699
G1 X45.427 Y19.214 E44.65213
G1 X45.138 Y19.129 E44.66716
G1 X44.843 Y19.057 E44.68231
G1 X44.544 Y19.006 E44.69744
G1 X43.884 Y18.925 E44.73061
G1 X43.884 Y18.904 E44.73166
G1 X43.884 Y18.881 E44.73281
G1 X43.71 Y18.904 E44.73806
G1 X43.578 Y18.888 E44.74469
G1 X43.578 Y18.904
G1 X43.578 Y18.922 E44.74536
G1 X42.76 Y19.03 E44.78653
G1 X42.364 Y19.115 E44.80673
G1 X41.977 Y19.232 E44.82691
G1 X41.561 Y19.394 E44.84918
G1 X41.288 Y19.522 E44.86422
G1 X41.024 Y19.664 E44.87918
G1 X40.766 Y19.823 E44.8943
G1 X40.515 Y19.999 E44.90959
G1 X40.008 Y20.386 E44.94141
G1 X39.996 Y20.374 E44.94226
G1 X39.987 Y20.364 E44.94293
G1 X39.978 Y20.355 E44.94356
G1 X39.881 Y20.483 E44.94833
G1 X39.77 Y20.568 E44.9553
G1 X39.782 Y20.58
G1 X39.797 Y20.595 E44.95614
G1 X39.273 Y21.288 E44.99948
G1 X39.064 Y21.617 E45.01893
G1 X38.918 Y21.882 E45.03402
G1 X38.813 Y22.098 E45.04601
G1 X38.698 Y22.374 E45.06092
G1 X38.596 Y22.657 E45.07593
G1 X38.512 Y22.948 E45.09104
G1 X38.443 Y23.246 E45.1063
G1 X38.381 Y23.638 E45.1261
G1 X38.324 Y24.178 E45.15319
G1 X38.305 Y24.178 E45.15414
G1 X38.284 Y24.178 E45.15519
G1 X38.305 Y24.355 E45.16056
G1 X38.292 Y24.477 E45.16668
G1 X38.305 Y24.477
G1 X38.32 Y24.477 E45.16722
G1 X38.408 Y25.221 E45.20459
G1 X38.469 Y25.538 E45.2207
G1 X38.607 Y26.032 E45.24629
G1 X38.728 Y26.369 E45.26415
G1 X38.854 Y26.656 E45.27979
G1 X38.991 Y26.925 E45.29485
G1 X39.142 Y27.183 E45.30976
G1 X39.307 Y27.435 E45.32479
G1 X39.773 Y28.059 E45.36365
G1 X39.764 Y28.068 E45.36412
G1 X39.756 Y28.076 E45.36445
G1 X39.829 Y28.134 E45.367
G1 X39.953 Y28.3 E45.37344
G1 F1500 E38.87344
G1 F300 Z0.5
G0 F3000 X44.618 Y30.706 Z0.5
G1 F300 Z0.3
G1 F1500 E45.37344
G1 F1800 X44.672 Y30.797 E45.37872
G1 X44.683 Y30.816 E45.37981
G1 X44.707 Y30.857 E45.38218
G1 X44.72 Y30.88 E45.3835
G1 X44.74 Y30.912 E45.38538
G1 X44.8 Y31.012 E45.3912
G1 X44.814 Y31.036 E45.39259
G1 X44.885 Y31.154 E45.39946
G1 X44.921 Y31.215 E45.40299
G1 X45.054 Y31.438 E45.41595
G1 X45.085 Y31.489 E45.41892
G1 X45.176 Y31.688 E45.42984
G1 X45.187 Y31.728 E45.43191
G1 X45.239 Y31.903 E45.44102
G1 X45.256 Y31.999 E45.44588
G1 X45.263 Y32.034 E45.44766
G1 X45.274 Y32.135 E45.45273
G1 X45.277 Y32.244 E45.45817
G1 X45.279 Y32.273 E45.45962
G1 X45.273 Y32.426 E45.46726
G1 X45.27 Y32.449 E45.46842
G1 X45.242 Y32.617 E45.47691
G1 X45.232 Y32.657 E45.47897
G1 X45.207 Y32.747 E45.48363
G1 X45.155 Y32.87 E45.49029
G1 X45.101 Y32.996 E45.49713
G1 X45.055 Y33.071 E45.50152
G1 X44.982 Y33.188 E45.5084
G1 X44.922 Y33.257 E45.51297
G1 X44.827 Y33.367 E45.52022
G1 X44.76 Y33.425 E45.52464
G1 X44.675 Y33.5 E45.53029
G1 X44.543 Y33.584 E45.5381
G1 X44.471 Y33.63 E45.54236
G1 X44.374 Y33.679 E45.54778
G1 X44.274 Y33.718 E45.55314
G1 X44.103 Y33.786 E45.56232
G1 X43.966 Y33.797 E45.56918
G1 X43.814 Y33.811 E45.57679
G1 X43.71 Y33.809 E45.58198
G1 X43.609 Y33.807 E45.58702
G1 X43.403 Y33.774 E45.59743
G1 X43.378 Y33.769 E45.5987
G1 X43.233 Y33.727 E45.60623
G1 X43.109 Y33.677 E45.6129
G1 X43.074 Y33.663 E45.61478
G1 X42.947 Y33.597 E45.62192
G1 X42.897 Y33.564 E45.62491
G1 X42.822 Y33.514 E45.62941
G1 X42.724 Y33.435 E45.63569
G1 X42.693 Y33.41 E45.63768
G1 X42.602 Y33.322 E45.64399
G1 X42.555 Y33.268 E45.64756
G1 X42.519 Y33.227 E45.65029
G1 X42.404 Y33.068 E45.66008
G1 X42.386 Y33.034 E45.662
G1 X42.292 Y32.854 E45.67213
G1 X42.263 Y32.78 E45.67609
G1 X42.25 Y32.749 E45.67777
G1 X42.2 Y32.573 E45.6869
G1 X42.186 Y32.491 E45.69105
G1 X42.167 Y32.381 E45.69662
G1 X42.16 Y32.243 E45.70351
G1 X42.159 Y32.228 E45.70426
G1 X42.165 Y32.152 E45.70806
G1 X42.189 Y32.022 E45.71466
G1 X42.213 Y31.893 E45.72121
G1 X42.244 Y31.81 E45.72563
G1 X42.312 Y31.627 E45.73537
G1 X42.32 Y31.608 E45.73639
G1 X42.418 Y31.432 E45.74644
G1 X42.51 Y31.267 E45.75587
G1 X42.605 Y31.096 E45.76563
G1 X42.641 Y31.032 E45.76929
G1 X42.65 Y31.016 E45.77021
G1 X42.66 Y30.998 E45.77124
G1 X42.713 Y30.902 E45.77671
G1 X42.807 Y30.735 E45.78627
G1 X42.682 Y30.699 E45.79276
G1 X41.807 Y30.445 E45.83821
G1 X41.537 Y30.353 E45.85244
G1 X41.286 Y30.256 E45.86587
G1 X41.034 Y30.146 E45.87959
G1 X40.782 Y30.022 E45.8936
G1 X40.542 Y29.892 E45.90722
G1 X40.315 Y29.756 E45.92042
G1 X40.074 Y29.597 E45.93482
G1 X39.864 Y29.445 E45.94776
G1 X39.644 Y29.27 E45.96178
G1 X39.444 Y29.097 E45.97497
G1 X39.24 Y28.906 E45.98892
G1 X39.064 Y28.725 E46.00151
G1 X38.873 Y28.512 E46.01578
G1 X38.703 Y28.305 E46.02915
G1 X38.275 Y27.741 E46.06447
G1 X38.001 Y27.833 E46.07889
G1 X32.638 Y25.975 E46.36205
G1 X32.638 Y25.422 E46.38964
G1 X30.018 Y25.422 E46.52036
G1 X30.018 Y25.652 E46.53183
G1 X29.058 Y25.636 E46.57973
G1 X29.058 Y25.267 E46.59814
G1 X28.287 Y24.973 E46.63931
G1 X26.672 Y26.775 E46.76003
G1 X26.324 Y27.163 E46.78604
G1 X26.324 Y26.642 E46.79989
G1 X26.324 Y26.641 E46.79994
G1 X26.324 Y21.994 E47.03178
G1 X26.324 Y21.993 E47.03183
G1 X26.324 Y21.466 E47.05812
G1 X26.673 Y21.861 E47.07213
G1 X28.284 Y23.682 E47.19343
G1 X29.058 Y23.388 E47.23474
G1 X29.058 Y23.014 E47.2534
G1 X30.038 Y23.014 E47.30229
G1 X30.038 Y23.234 E47.31327
G1 X32.658 Y23.234 E47.44398
G1 X32.658 Y22.701 E47.47057
G1 X38.448 Y20.716 E47.77594
G1 X38.731 Y20.339 E47.79946
G1 X38.89 Y20.149 E47.81182
G1 X39.082 Y19.937 E47.82609
G1 X39.258 Y19.759 E47.83858
G1 X39.46 Y19.572 E47.85231
G1 X39.672 Y19.388 E47.86631
G1 X40.095 Y19.062 E47.89296
G1 X40.791 Y18.649 E47.93333
G1 X41.175 Y18.467 E47.95453
G1 X41.449 Y18.357 E47.96927
G1 X41.804 Y18.237 E47.98796
G1 X42.19 Y18.131 E48.00793
G1 X42.579 Y18.05 E48.02775
G1 X42.956 Y17.991 E48.04679
G1 X43.244 Y17.963 E48.06123
G1 X43.778 Y17.935 E48.08791
G1 X44.242 Y17.963 E48.1111
G1 X44.651 Y18.008 E48.13163
G1 X45.037 Y18.077 E48.15119
G1 X45.405 Y18.165 E48.17007
G1 X45.759 Y18.273 E48.18853
G1 X46.118 Y18.407 E48.20765
G1 X46.475 Y18.565 E48.22713
G1 X46.811 Y18.738 E48.24598
G1 X47.137 Y18.933 E48.26493
G1 X47.446 Y19.143 E48.28357
G1 X47.721 Y19.355 E48.30089
G1 X48.016 Y19.61 E48.32035
G1 X48.211 Y19.795 E48.33376
G1 X48.405 Y19.998 E48.34777
G1 X48.655 Y20.288 E48.36687
G1 X48.824 Y20.502 E48.38047
G1 X49.064 Y20.834 E48.40091
G1 X54.58 Y22.74 E48.69207
G1 X54.58 Y23.294 E48.71971
G1 X57.151 Y23.294 E48.84798
G1 X57.17 Y23.073 E48.85905
G1 X58.18 Y23.073 E48.90943
G1 X58.18 Y23.448 E48.92814
G1 X58.954 Y23.742 E48.96945
G1 X60.565 Y21.927 E49.09053
G1 X60.914 Y21.534 E49.11675
G1 X60.914 Y22.059 E49.13069
G1 X60.914 Y22.06 E49.13074
G1 X60.914 Y26.719 E49.36318
G1 X60.914 Y26.72 E49.36323
G1 X60.914 Y27.24 E49.38917
G1 X60.566 Y26.853 E49.40302
G1 X58.931 Y25.033 E49.52508
G1 X58.16 Y25.327 E49.56624
G1 X58.16 Y25.702 E49.58495
G1 X57.2 Y25.702 E49.63285
G1 X57.2 Y25.482 E49.64382
G1 X54.58 Y25.482 E49.77454
G1 X54.58 Y26.013 E49.80103
G1 X49.014 Y27.919 E50.09455
G1 X48.732 Y28.288 E50.11772
G1 X48.536 Y28.524 E50.13302
G1 X48.363 Y28.716 E50.14591
G1 X48.166 Y28.917 E50.15996
G1 X47.943 Y29.126 E50.1752
G1 X47.748 Y29.295 E50.18808
G1 X47.53 Y29.469 E50.20199
G1 X47.298 Y29.638 E50.21631
G1 X46.748 Y29.976 E50.24852
G1 X46.341 Y30.151 E50.27062
G1 X46.091 Y30.246 E50.28397
G1 X45.741 Y30.367 E50.30244
G1 X44.644 Y30.698 E50.35961
G1 X44.618 Y30.706 E50.36097
G1 F1500 E43.86097
G1 F300 Z0.5
G0 F3000 X43.432 Y33.592 Z0.5
G1 F300 Z0.3
G1 F1500 E50.36097
G1 F1800 X43.63 Y33.613 E50.36555
G1 X43.713 Y33.622 E50.36731
G1 X43.797 Y33.615 E50.36902
G1 X43.948 Y33.602 E50.37269
G1 X44.051 Y33.577 E50.375
G1 X44.202 Y33.539 E50.37861
G1 X44.284 Y33.498 E50.38047
G1 X44.381 Y33.45 E50.38319
G1 X44.439 Y33.421 E50.38446
G1 X44.554 Y33.336 E50.38783
G1 X44.631 Y33.279 E50.38997
G1 X44.682 Y33.227 E50.39123
G1 X44.776 Y33.131 E50.39439
G1 X44.815 Y33.074 E50.39551
G1 X44.889 Y32.968 E50.39859
G1 X44.922 Y32.904 E50.3999
G1 X44.979 Y32.796 E50.4027
G1 X45.018 Y32.682 E50.40546
G1 X45.044 Y32.607 E50.40722
G1 X45.048 Y32.582
G1 X45.079 Y32.419 E50.41118
G1 X45.091 Y32.251 E50.4154
G1 X45.083 Y32.152 E50.4176
G1 X45.073 Y32.05 E50.42012
G1 X45.071 Y32.034 E50.42025
G1 X45.051 Y31.949 E50.42184
G1 X45.01 Y31.781 E50.42576
G1 X44.91 Y31.573 E50.43142
G1 X44.892 Y31.535 E50.4322
G1 X44.851 Y31.479 E50.43566
G1 X44.753 Y31.346 E50.4439
G1 X44.738 Y31.325
G1 X44.558 Y31.158 E50.45462
G1 X44.499 Y31.119 E50.45815
G1 X44.443 Y31.082 E50.4615
G1 X44.389 Y31.047 E50.46471
