;FLAVOR:Marlin
;TIME:5663
;Filament used: 4.31346m
;Layer height: 0.2
;Generated with Cura_SteamEngine 3.6.0
M140 S60
M105
M190 S60
M104 S190
M105
M109 S190
M82 ;absolute extrusion mode
G21 ;metric values
G90 ;absolute positioning
M82 ;set extruder to absolute mode
M107 ;start with the fan off
G28 X0 Y0 ;move X/Y to min endstops
G28 Z0 ;move Z to min endstops
G1 Z15.0 F9000 ;move the platform down 15mm
G92 E0 ;zero the extruded length
G1 F200 E3 ;extrude 3mm of feed stock
G92 E0 ;zero the extruded length again
G1 F9000
;Put printing message on LCD screen
M117 Printing...
G92 E0
G1 F1200 E-4
;LAYER_COUNT:10
;LAYER:0
M107
G0 F3000 X8.383 Y7.207 Z0.3
;TYPE:SKIRT
G1 F1200 E0
G1 F1800 X8.776 Y6.842 E0.02676
G1 X9.218 Y6.538 E0.05352
G1 X9.7 Y6.304 E0.08025
G1 X10.212 Y6.144 E0.10702
G1 X10.742 Y6.061 E0.13378
G1 X11.029 Y6.05 E0.14811
G1 X146.187 Y6.069 E6.89117
G1 X146.721 Y6.109 E6.91788
G1 X147.244 Y6.228 E6.94464
G1 X147.744 Y6.423 E6.97142
G1 X148.208 Y6.691 E6.99815
G1 X148.628 Y7.024 E7.02489
G1 X148.994 Y7.417 E7.05169
G1 X149.298 Y7.859 E7.07845
G1 X149.532 Y8.341 E7.10518
G1 X149.692 Y8.853 E7.13194
G1 X149.775 Y9.383 E7.15871
G1 X149.786 Y9.668 E7.17294
G1 X149.795 Y72.95 E10.33009
G1 X149.791 Y73.111 E10.33812
G1 X149.458 Y80.601 E10.71217
G1 X149.438 Y134.885 E13.42041
G1 X149.398 Y135.42 E13.44717
G1 X149.279 Y135.943 E13.47393
G1 X149.083 Y136.442 E13.50068
G1 X148.816 Y136.907 E13.52743
G1 X148.482 Y137.327 E13.5542
G1 X148.09 Y137.693 E13.58096
G1 X147.648 Y137.996 E13.6077
G1 X147.165 Y138.23 E13.63447
G1 X146.653 Y138.39 E13.66123
G1 X146.123 Y138.473 E13.688
G1 X145.841 Y138.484 E13.70208
G1 X10.84 Y138.579 E20.43731
G1 X10.305 Y138.539 E20.46407
G1 X9.782 Y138.421 E20.49082
G1 X9.282 Y138.226 E20.5176
G1 X8.817 Y137.959 E20.54435
G1 X8.397 Y137.626 E20.57109
G1 X8.031 Y137.234 E20.59784
G1 X7.727 Y136.792 E20.62461
G1 X7.492 Y136.31 E20.65136
G1 X7.331 Y135.798 E20.67814
G1 X7.249 Y135.268 E20.70489
G1 X7.237 Y134.979 E20.71932
G1 X7.238 Y70.99 E23.91175
G1 X7.24 Y70.883 E23.91709
G1 X7.418 Y64.873 E24.21706
G1 X7.428 Y9.649 E26.9722
G1 X7.468 Y9.115 E26.99891
G1 X7.587 Y8.592 E27.02567
G1 X7.782 Y8.092 E27.05245
G1 X8.05 Y7.627 E27.07922
G1 X8.383 Y7.207 E27.10596
G0 F3000 X8.778 Y7.375
G1 F1800 X9.164 Y7.049 E27.13117
G1 X9.597 Y6.788 E27.15639
G1 X10.066 Y6.598 E27.18164
G1 X10.559 Y6.485 E27.20687
G1 X11.028 Y6.45 E27.23034
G1 X146.186 Y6.469 E33.9734
G1 X146.69 Y6.509 E33.99862
G1 X147.182 Y6.628 E34.02387
G1 X147.648 Y6.823 E34.04908
G1 X148.078 Y7.089 E34.0743
G1 X148.461 Y7.419 E34.09952
G1 X148.787 Y7.805 E34.12473
G1 X149.048 Y8.238 E34.14996
G1 X149.238 Y8.707 E34.1752
G1 X149.351 Y9.199 E34.20039
G1 X149.386 Y9.669 E34.2239
G1 X149.395 Y72.951 E37.38105
G1 X149.392 Y73.093 E37.38814
G1 X149.058 Y80.605 E37.76328
G1 X149.038 Y134.885 E40.47132
G1 X148.998 Y135.389 E40.49655
G1 X148.879 Y135.881 E40.5218
G1 X148.684 Y136.347 E40.547
G1 X148.418 Y136.777 E40.57223
G1 X148.088 Y137.16 E40.59745
G1 X147.701 Y137.486 E40.6227
G1 X147.268 Y137.747 E40.64792
G1 X146.8 Y137.936 E40.6731
G1 X146.307 Y138.049 E40.69833
G1 X145.84 Y138.084 E40.7217
G1 X10.839 Y138.179 E47.45693
G1 X10.335 Y138.139 E47.48215
G1 X9.844 Y138.021 E47.50734
G1 X9.377 Y137.827 E47.53257
G1 X8.947 Y137.561 E47.5578
G1 X8.564 Y137.231 E47.58302
G1 X8.237 Y136.845 E47.60826
G1 X7.976 Y136.412 E47.63348
G1 X7.786 Y135.944 E47.65868
G1 X7.672 Y135.451 E47.68393
G1 X7.637 Y134.979 E47.70754
G1 X7.638 Y70.99 E50.89996
G1 X7.639 Y70.895 E50.9047
G1 X7.818 Y64.851 E51.20637
G1 X7.828 Y9.649 E53.96041
G1 X7.868 Y9.145 E53.98564
G1 X7.987 Y8.654 E54.01084
G1 X8.182 Y8.188 E54.03604
G1 X8.448 Y7.758 E54.06127
G1 X8.778 Y7.375 E54.08649
G1 F1200 E50.08649
G1 F300 Z0.5
;MESH:Tie_Ornament_Tree_NO-WORDS.stl
G0 F3000 X20.979 Y18.629 Z0.5
;TYPE:WALL-INNER
G1 F300 Z0.3
G1 F1200 E54.08649
G1 F1800 X20.937 Y18.639 E54.08865
G1 X14.948 Y18.639 E54.38744
G1 X14.907 Y18.63 E54.38953
G1 X14.517 Y18.541 E54.40949
G1 X14.905 Y18.452 E54.41426
G1 X14.948 Y18.442
G1 X20.936 Y18.442 E54.56138
G1 X20.979 Y18.452 E54.56358
G1 X21.367 Y18.541 E54.58055
G1 X20.979 Y18.629 E54.58529
G1 F1200 E50.58529
G1 F300 Z0.5
G0 F3000 X23.639 Y18.603 Z0.5
G1 F300 Z0.3
G1 F1200 E54.58529
G1 F1800 X23.692 Y18.583 E54.58812
G1 X23.692 Y18.691 E54.5905
G1 X23.692 Y18.743 E54.59159
G1 X23.402 Y18.743 E54.60195
G1 X23.402 Y18.691 E54.60383
G1 X23.639 Y18.603 E54.60644
G1 F1200 E50.60644
G1 F300 Z0.5
G0 F3000 X23.692 Y22.483 Z0.5
G1 F300 Z0.3
G1 F1200 E54.60644
G1 F1800 X23.692 Y22.591 E54.61183
G1 X23.64 Y22.572
G1 X23.402 Y22.483 E54.62013
G1 X23.402 Y22.43 E54.62278
G1 X23.692 Y22.43 E54.6273
G1 X23.692 Y22.483
G1 F1200 E50.6273
G1 F300 Z0.5
G0 F3000 X20.799 Y22.625 Z0.5
G1 F300 Z0.3
G1 F1200 E54.6273
G1 F1800 X20.743 Y22.639 E54.63018
G1 X14.887 Y22.639 E54.92234
G1 X14.832 Y22.626 E54.92516
G1 X14.379 Y22.516 E54.94842
G1 X14.831 Y22.408 E54.95515
G1 X14.887 Y22.394 E54.95685
G1 X20.743 Y22.394 E55.1358
G1 X20.798 Y22.407 E55.13744
G1 X21.251 Y22.517 E55.1607
G1 X20.799 Y22.625 E55.16743
G1 F1200 E51.16743
G1 F300 Z0.5
G0 F3000 X24.345 Y28.554 Z0.5
G1 F300 Z0.3
G1 F1200 E55.16743
G1 F1800 X24.306 Y28.595 E55.17026
G1 X24.331 Y28.551
G1 X24.345 Y28.554
G0 F3000 X24.282 Y28.999
G1 F1800 X24.314 Y29.103 E55.17568
G1 X24.175 Y29.087 E55.17834
G1 X24.046 Y29.072 E55.18222
G1 X24.093 Y28.985 E55.18315
G1 X24.212 Y28.767 E55.19175
G1 X24.282 Y28.999 E55.19521
G1 F1200 E51.19521
G1 F300 Z0.5
G0 F3000 X14.909 Y28.12 Z0.5
G1 F300 Z0.3
G1 F1200 E55.19521
G1 F1800 X14.97 Y28.106 E55.19833
G1 X21.815 Y28.106 E55.53983
G1 X21.874 Y28.118 E55.54284
G1 X22.5 Y28.253 E55.57479
G1 X21.875 Y28.386 E55.58588
G1 X21.815 Y28.399 E55.58805
G1 X14.969 Y28.399 E55.83824
G1 X14.911 Y28.387 E55.8403
G1 X14.284 Y28.253 E55.87229
G1 X14.909 Y28.12 E55.88333
G1 F1200 E51.88333
G1 F300 Z0.5
G0 F3000 X40.84 Y24.596 Z0.5
G1 F300 Z0.3
G1 F1200 E55.88333
G1 F1800 X40.85 Y24.586 E55.88404
G1 X40.858 Y24.578 E55.8846
G1 X40.875 Y24.561 E55.8858
G1 X41.411 Y24.981 E55.91977
G1 X41.742 Y25.207 E55.93977
G1 X42.09 Y25.406 E55.95977
G1 X42.428 Y25.569 E55.97849
G1 X42.709 Y25.684 E55.99364
G1 X42.994 Y25.778 E56.00861
G1 X43.281 Y25.861 E56.02351
G1 X43.576 Y25.925 E56.03857
G1 X43.866 Y25.976 E56.05326
G1 X44.445 Y26.049 E56.08238
G1 X44.445 Y26.07 E56.08343
G1 X44.445 Y26.093 E56.08458
G1 X44.612 Y26.07 E56.08956
G1 X44.745 Y26.087 E56.09625
G1 X44.745 Y26.07
G1 X44.745 Y26.052 E56.0969
G1 X45.564 Y25.941 E56.13814
G1 X45.96 Y25.857 E56.15833
G1 X46.346 Y25.741 E56.17844
G1 X46.763 Y25.579 E56.20076
G1 X47.037 Y25.45 E56.21587
G1 X47.301 Y25.307 E56.23085
G1 X47.558 Y25.15 E56.24587
G1 X47.81 Y24.973 E56.26124
G1 X48.315 Y24.586 E56.29298
G1 X48.327 Y24.598 E56.29383
G1 X48.374 Y24.54 E56.29577
G1 X48.549 Y24.406 E56.30677
G1 X48.535 Y24.392
G1 X48.522 Y24.379
G1 X48.513 Y24.37 E56.3074
G1 X48.875 Y23.927 E56.33594
G1 X49.055 Y23.677 E56.35131
G1 X49.265 Y23.341 E56.37108
G1 X49.418 Y23.055 E56.38726
G1 X49.544 Y22.783 E56.40222
G1 X49.655 Y22.503 E56.41724
G1 X49.749 Y22.217 E56.43226
G1 X49.828 Y21.928 E56.44721
G1 X49.908 Y21.547 E56.46663
G1 X50.011 Y20.799 E56.5043
G1 X50.028 Y20.799 E56.50515
G1 X50.043 Y20.799 E56.5059
G1 X50.028 Y20.676 E56.5094
G1 X50.053 Y20.495 E56.51852
G1 X50.028 Y20.495
G1 X50.006 Y20.495 E56.51938
G1 X49.915 Y19.75 E56.55683
G1 X49.854 Y19.434 E56.57288
G1 X49.717 Y18.941 E56.59841
G1 X49.596 Y18.603 E56.61632
G1 X49.469 Y18.316 E56.63198
G1 X49.334 Y18.049 E56.64691
G1 X49.182 Y17.79 E56.66189
G1 X49.018 Y17.537 E56.67693
G1 X48.549 Y16.912 E56.71591
G1 X48.562 Y16.9 E56.7168
G1 X48.577 Y16.885 E56.71786
G1 X48.465 Y16.799 E56.72191
G1 X48.372 Y16.676 E56.72961
G1 X48.357 Y16.691
G1 X48.342 Y16.706 E56.73041
G1 X47.676 Y16.199 E56.77216
G1 X47.336 Y15.98 E56.79234
G1 X46.946 Y15.769 E56.81446
G1 X46.598 Y15.615 E56.83345
G1 X46.314 Y15.511 E56.84854
G1 X46.024 Y15.425 E56.86363
G1 X45.729 Y15.354 E56.87877
G1 X45.431 Y15.302 E56.89386
G1 X44.771 Y15.221 E56.92703
G1 X44.771 Y15.199 E56.92813
G1 X44.771 Y15.175 E56.92933
G1 X44.591 Y15.199 E56.93478
G1 X44.465 Y15.184 E56.94111
G1 X44.465 Y15.199
G1 X44.465 Y15.216 E56.94173
G1 X43.645 Y15.327 E56.98301
G1 X43.25 Y15.412 E57.00317
G1 X42.864 Y15.528 E57.02328
G1 X42.447 Y15.69 E57.0456
G1 X42.173 Y15.819 E57.06071
G1 X41.909 Y15.962 E57.07569
G1 X41.653 Y16.119 E57.09067
G1 X41.402 Y16.295 E57.10596
G1 X40.896 Y16.681 E57.13771
G1 X40.888 Y16.673 E57.13828
G1 X40.88 Y16.665 E57.13884
G1 X40.822 Y16.738 E57.14139
G1 X40.656 Y16.864 E57.15179
G1 X40.668 Y16.876
G1 X40.681 Y16.889
G1 X40.691 Y16.9 E57.15236
G1 X40.335 Y17.343 E57.18071
G1 X40.157 Y17.588 E57.19582
G1 X39.951 Y17.914 E57.21506
G1 X39.805 Y18.178 E57.23011
G1 X39.7 Y18.394 E57.24209
G1 X39.584 Y18.67 E57.25703
G1 X39.482 Y18.954 E57.27208
G1 X39.398 Y19.245 E57.28719
G1 X39.329 Y19.543 E57.30245
G1 X39.267 Y19.934 E57.32221
G1 X39.21 Y20.475 E57.34935
G1 X39.19 Y20.475 E57.35034
G1 X39.178 Y20.475 E57.35094
G1 X39.167 Y20.475 E57.35149
G1 X39.19 Y20.661 E57.35721
G1 X39.178 Y20.773 E57.36283
G1 X39.19 Y20.773
G1 X39.204 Y20.773 E57.36332
G1 X39.295 Y21.518 E57.40076
G1 X39.356 Y21.834 E57.41682
G1 X39.493 Y22.328 E57.44239
G1 X39.614 Y22.666 E57.4603
G1 X39.741 Y22.953 E57.47596
G1 X39.877 Y23.221 E57.49096
G1 X40.029 Y23.48 E57.50594
G1 X40.193 Y23.731 E57.5209
G1 X40.66 Y24.355 E57.55978
G1 X40.651 Y24.363 E57.56015
G1 X40.639 Y24.375 E57.56081
G1 X40.725 Y24.443 E57.56385
G1 X40.84 Y24.596 E57.56971
G1 F1200 E53.56971
G1 F300 Z0.5
G0 F3000 X43.714 Y27.034 Z0.5
G1 F300 Z0.3
G1 F1200 E57.56971
G1 F1800 X43.586 Y26.998 E57.57635
G1 X42.674 Y26.736 E57.62369
G1 X42.426 Y26.652 E57.63675
G1 X42.166 Y26.551 E57.65066
G1 X41.911 Y26.44 E57.66454
G1 X41.671 Y26.321 E57.6779
G1 X41.436 Y26.193 E57.69126
G1 X41.209 Y26.057 E57.70446
G1 X40.961 Y25.893 E57.71929
G1 X40.749 Y25.741 E57.73231
G1 X40.53 Y25.567 E57.74626
G1 X40.332 Y25.395 E57.75934
G1 X40.139 Y25.214 E57.77255
G1 X39.938 Y25.009 E57.78687
G1 X39.759 Y24.809 E57.80026
G1 X39.592 Y24.606 E57.81337
G1 X39.164 Y24.039 E57.84882
G1 X38.889 Y24.131 E57.86328
G1 X33.525 Y22.272 E58.14651
G1 X33.525 Y21.718 E58.17415
G1 X30.905 Y21.718 E58.30486
G1 X30.905 Y21.949 E58.31639
G1 X29.945 Y21.933 E58.36429
G1 X29.945 Y21.563 E58.38275
G1 X29.174 Y21.269 E58.42391
G1 X27.558 Y23.072 E58.54471
G1 X27.21 Y23.46 E58.57071
G1 X27.21 Y22.939 E58.58457
G1 X27.21 Y22.938 E58.58462
G1 X27.21 Y18.289 E58.81656
G1 X27.21 Y18.288 E58.81661
G1 X27.21 Y17.762 E58.84285
G1 X27.559 Y18.156 E58.85684
G1 X29.171 Y19.979 E58.97825
G1 X29.945 Y19.685 E59.01956
G1 X29.945 Y19.31 E59.03826
G1 X30.925 Y19.31 E59.08716
G1 X30.925 Y19.53 E59.09813
G1 X33.545 Y19.53 E59.22884
G1 X33.545 Y18.997 E59.25544
G1 X39.334 Y17.013 E59.56074
G1 X39.616 Y16.638 E59.58415
G1 X39.782 Y16.439 E59.59708
G1 X39.968 Y16.234 E59.61089
G1 X40.151 Y16.049 E59.62387
G1 X40.345 Y15.869 E59.63707
G1 X40.569 Y15.676 E59.65183
G1 X40.777 Y15.51 E59.6651
G1 X40.973 Y15.365 E59.67727
G1 X41.678 Y14.945 E59.71821
G1 X42.068 Y14.76 E59.73974
G1 X42.33 Y14.655 E59.75382
G1 X42.699 Y14.531 E59.77324
G1 X43.086 Y14.426 E59.79325
G1 X43.455 Y14.348 E59.81207
G1 X43.846 Y14.287 E59.83181
G1 X44.127 Y14.26 E59.84589
G1 X44.679 Y14.231 E59.87347
G1 X45.128 Y14.26 E59.89592
G1 X45.537 Y14.305 E59.91645
G1 X45.913 Y14.372 E59.9355
G1 X46.3 Y14.464 E59.95535
G1 X46.649 Y14.571 E59.97356
G1 X47.012 Y14.706 E59.99288
G1 X47.353 Y14.858 E60.01151
G1 X47.697 Y15.035 E60.03081
G1 X48.023 Y15.23 E60.04976
G1 X48.332 Y15.44 E60.0684
G1 X48.607 Y15.651 E60.08569
G1 X48.909 Y15.912 E60.1056
G1 X49.09 Y16.086 E60.11813
G1 X49.298 Y16.303 E60.13313
G1 X49.553 Y16.598 E60.15258
G1 X49.956 Y17.132 E60.18596
G1 X55.466 Y19.036 E60.4768
G1 X55.466 Y19.59 E60.50444
G1 X58.037 Y19.59 E60.63271
G1 X58.056 Y19.369 E60.64378
G1 X59.066 Y19.369 E60.69416
G1 X59.066 Y19.745 E60.71292
G1 X59.84 Y20.039 E60.75423
G1 X61.452 Y18.223 E60.87538
G1 X61.801 Y17.83 E60.9016
G1 X61.801 Y18.355 E60.91554
G1 X61.801 Y18.356 E60.91559
G1 X61.801 Y23.016 E61.14808
G1 X61.801 Y23.017 E61.14813
G1 X61.801 Y23.537 E61.17407
G1 X61.453 Y23.15 E61.18792
G1 X59.817 Y21.329 E61.31005
G1 X59.046 Y21.623 E61.35121
G1 X59.046 Y21.999 E61.36997
G1 X58.086 Y21.999 E61.41787
G1 X58.086 Y21.778 E61.42889
G1 X55.466 Y21.778 E61.55961
G1 X55.466 Y22.31 E61.58615
G1 X49.898 Y24.217 E61.87978
G1 X49.609 Y24.598 E61.90363
G1 X49.433 Y24.809 E61.91734
G1 X49.249 Y25.013 E61.93105
G1 X49.052 Y25.214 E61.94509
G1 X48.829 Y25.423 E61.96034
G1 X48.637 Y25.59 E61.97303
G1 X48.2 Y25.925 E62.0005
G1 X47.626 Y26.275 E62.03405
G1 X47.242 Y26.441 E62.05492
G1 X46.979 Y26.542 E62.06897
G1 X46.632 Y26.662 E62.08729
G1 X45.525 Y26.993 E62.14493
G1 X45.501 Y27 E62.14618
G1 X45.567 Y27.111 E62.15262
G1 X45.591 Y27.152 E62.15499
G1 X45.685 Y27.309 E62.16412
G1 X45.698 Y27.331 E62.1654
G1 X45.806 Y27.51 E62.17583
G1 X45.941 Y27.735 E62.18892
G1 X45.965 Y27.774 E62.1912
G1 X46.058 Y27.972 E62.20212
G1 X46.074 Y28.026 E62.20493
G1 X46.125 Y28.199 E62.21393
G1 X46.142 Y28.295 E62.21879
G1 X46.149 Y28.328 E62.22047
G1 X46.161 Y28.439 E62.22604
G1 X46.161 Y28.549 E62.23153
G1 X46.159 Y28.721 E62.24011
G1 X46.155 Y28.746 E62.24138
G1 X46.128 Y28.91 E62.24967
G1 X46.117 Y28.953 E62.25188
G1 X46.087 Y29.061 E62.25747
G1 X46.049 Y29.161 E62.26281
G1 X46.037 Y29.191 E62.26442
G1 X45.95 Y29.356 E62.27373
G1 X45.932 Y29.389 E62.2756
G1 X45.819 Y29.545 E62.28522
G1 X45.797 Y29.575 E62.28707
G1 X45.721 Y29.656 E62.29261
G1 X45.645 Y29.722 E62.29763
G1 X45.551 Y29.803 E62.30382
G1 X45.434 Y29.879 E62.31079
G1 X45.36 Y29.927 E62.31519
G1 X45.283 Y29.965 E62.31947
G1 X45.162 Y30.013 E62.32596
G1 X44.987 Y30.082 E62.33535
G1 X44.853 Y30.094 E62.34206
G1 X44.713 Y30.108 E62.34908
G1 X44.596 Y30.107 E62.35492
G1 X44.508 Y30.105 E62.35931
G1 X44.388 Y30.093 E62.36533
G1 X44.279 Y30.071 E62.37087
G1 X44.266 Y30.068 E62.37154
G1 X44.121 Y30.025 E62.37908
G1 X43.996 Y29.975 E62.3858
G1 X43.973 Y29.966 E62.38703
G1 X43.826 Y29.888 E62.39534
G1 X43.785 Y29.861 E62.39779
G1 X43.708 Y29.81 E62.40239
G1 X43.611 Y29.732 E62.4086
G1 X43.58 Y29.707 E62.41059
G1 X43.49 Y29.62 E62.41683
G1 X43.442 Y29.565 E62.42048
G1 X43.41 Y29.529 E62.42288
G1 X43.279 Y29.347 E62.43407
G1 X43.271 Y29.331 E62.43496
G1 X43.176 Y29.146 E62.44534
G1 X43.148 Y29.073 E62.44924
G1 X43.139 Y29.051 E62.45042
G1 X43.086 Y28.869 E62.45988
G1 X43.073 Y28.789 E62.46392
G1 X43.054 Y28.682 E62.46934
G1 X43.047 Y28.543 E62.47629
G1 X43.046 Y28.525 E62.47719
G1 X43.047 Y28.513 E62.47779
G1 X43.069 Y28.329 E62.48703
G1 X43.071 Y28.313 E62.48784
G1 X43.093 Y28.215 E62.49285
G1 X43.126 Y28.112 E62.49824
G1 X43.16 Y28.009 E62.50366
G1 X43.206 Y27.911 E62.50906
G1 X43.253 Y27.813 E62.51448
G1 X43.305 Y27.725 E62.51958
G1 X43.404 Y27.558 E62.52926
G1 X43.504 Y27.389 E62.53906
G1 X43.548 Y27.315 E62.54336
G1 X43.616 Y27.2 E62.54865
G1 X43.659 Y27.127 E62.55287
G1 X43.714 Y27.034 E62.55826
G1 F1200 E58.55826
G1 F300 Z0.5
G0 F3000 X44.317 Y29.888 Z0.5
G1 F300 Z0.3
G1 F1200 E62.55826
G1 F1800 X44.408 Y29.897 E62.56019
G1 X44.53 Y29.911 E62.5632
G1 X44.598 Y29.919 E62.56445
G1 X44.696 Y29.911 E62.56657
G1 X44.834 Y29.899 E62.56991
G1 X44.933 Y29.874 E62.57214
G1 X45.09 Y29.834 E62.57594
G1 X45.193 Y29.783 E62.57856
G1 X45.269 Y29.745 E62.58045
G1 X45.327 Y29.716 E62.58175
G1 X45.43 Y29.64 E62.58478
G1 X45.517 Y29.575 E62.58727
G1 X45.576 Y29.515 E62.58915
G1 X45.66 Y29.43 E62.59224
G1 X45.769 Y29.275 E62.59684
G1 X45.776 Y29.265
G1 X45.861 Y29.1 E62.60138
G1 X45.866 Y29.091
G1 X45.898 Y28.997 E62.60371
G1 X45.93 Y28.903 E62.60598
G1 X45.935 Y28.875
G1 X45.965 Y28.716 E62.60983
G1 X45.977 Y28.548 E62.61374
G1 X45.969 Y28.456 E62.61557
G1 X45.959 Y28.344 E62.61832
G1 X45.957 Y28.33 E62.6184
G1 X45.937 Y28.246 E62.61998
G1 X45.896 Y28.08 E62.62387
G1 X45.884 Y28.054
G1 X45.791 Y27.855 E62.62912
G1 X45.78 Y27.832 E62.62944
G1 X45.622 Y27.621 E62.63604
G1 X45.444 Y27.454 E62.64628
G1 X45.273 Y27.342 E62.65472
G1 X45.23 Y27.322 E62.657
G1 X45.092 Y27.258 E62.66459
G1 X44.892 Y27.2 E62.67498
