;FLAVOR:Marlin
;TIME:4989
;Filament used: 1.73085m
;Layer height: 0.2
;Generated with Cura_SteamEngine 3.4.1
M190 S75
M104 S220
M109 S220
M82 ;absolute extrusion mode
G21 ;metric values
G90 ;absolute positioning
M82 ;set extruder to absolute mode
M107 ;start with the fan off
G28 X0 Y0 ;move X/Y to min endstops
G28 Z0 ;move Z to min endstops
G1 Z15.0 F9000 ;move the platform down 15mm
G92 E0 ;zero the extruded length
G1 F200 E3 ;extrude 3mm of feed stock
G92 E0 ;zero the extruded length again
G1 F9000
;Put printing message on LCD screen
M117 Printing...
G92 E0
G1 F1500 E-6.5
;LAYER_COUNT:80
;LAYER:0
M107
G0 F1800 X31.673 Y18.422 Z0.2
;TYPE:SKIRT
G1 F1500 E0
G1 F1800 X32.175 Y17.958 E0.01705
G1 X32.696 Y17.581 E0.03309
G1 X32.893 Y17.419 E0.03946
G1 X33.469 Y17.05 E0.05652
G1 X34.084 Y16.751 E0.07358
G1 X34.729 Y16.525 E0.09063
G1 X35.396 Y16.376 E0.10768
G1 X36.077 Y16.306 E0.12475
G1 X36.76 Y16.315 E0.14179
G1 X37.438 Y16.405 E0.15885
G1 X38.101 Y16.573 E0.17591
G1 X38.74 Y16.817 E0.19298
G1 X39.346 Y17.134 E0.21004
G1 X39.91 Y17.52 E0.22709
G1 X40.63 Y18.178 E0.25142
G1 X41.011 Y18.59 E0.26541
G1 X41.445 Y19.118 E0.28246
G1 X41.815 Y19.694 E0.29954
G1 X42.115 Y20.308 E0.31659
G1 X42.341 Y20.954 E0.33366
G1 X42.49 Y21.621 E0.35071
G1 X42.56 Y22.301 E0.36776
G1 X42.551 Y22.985 E0.38483
G1 X42.461 Y23.663 E0.40189
G1 X42.294 Y24.326 E0.41894
G1 X42.05 Y24.965 E0.436
G1 X41.733 Y25.571 E0.45306
G1 X41.637 Y25.712 E0.45732
G1 X41.611 Y25.767 E0.45884
G1 X41.251 Y26.348 E0.47589
G1 X40.928 Y26.765 E0.48904
G1 X32.649 Y36.514 E0.80809
G1 X36.436 Y35.756 E0.90443
G1 X36.45 Y35.746 E0.90486
G1 X37.053 Y35.423 E0.92193
G1 X37.689 Y35.174 E0.93896
G1 X38.351 Y35 E0.95604
G1 X38.764 Y34.933 E0.96648
G1 X38.896 Y34.916 E0.9698
G1 X39.321 Y34.454 E0.98546
G1 X39.913 Y33.895 E1.00577
G1 X41.284 Y32.769 E1.05002
G1 X41.837 Y32.367 E1.06708
G1 X41.989 Y32.281 E1.07143
G1 X42.165 Y32.12 E1.07738
G1 X42.718 Y31.718 E1.09444
G1 X43.366 Y31.36 E1.1129
G1 X44.294 Y30.921 E1.13851
G1 X44.825 Y30.701 E1.15285
G1 X45.792 Y30.355 E1.17847
G1 X46.232 Y30.227 E1.1899
G1 X46.555 Y30.066 E1.1989
G1 X47.199 Y29.835 E1.21597
G1 X47.865 Y29.682 E1.23302
G1 X48.845 Y29.599 E1.25755
G1 X49.461 Y29.599 E1.27292
G1 X50.144 Y29.639 E1.28998
G1 X50.319 Y29.67 E1.29442
G1 X51.455 Y29.67 E1.32275
G1 X51.553 Y29.651 E1.32524
G1 X52.328 Y29.599 E1.34462
G1 X52.866 Y29.599 E1.35804
G1 X53.549 Y29.639 E1.37511
G1 X54.222 Y29.758 E1.39216
G1 X54.877 Y29.955 E1.40922
G1 X55.504 Y30.228 E1.42628
G1 X55.626 Y30.299 E1.4298
G1 X55.819 Y30.355 E1.43481
G1 X56.786 Y30.701 E1.46043
G1 X57.317 Y30.921 E1.47477
G1 X58.245 Y31.36 E1.50038
G1 X58.845 Y31.688 E1.51743
G1 X59.402 Y32.084 E1.53448
G1 X59.632 Y32.291 E1.5422
G1 X59.84 Y32.412 E1.5482
G1 X60.314 Y32.761 E1.56289
G1 X61.668 Y33.868 E1.60651
G1 X62.266 Y34.432 E1.62702
G1 X62.712 Y34.916 E1.64344
G1 X62.847 Y34.933 E1.64683
G1 X63.519 Y35.058 E1.66388
G1 X64.172 Y35.262 E1.68095
G1 X64.797 Y35.54 E1.69801
G1 X65.153 Y35.752 E1.70835
G1 X68.961 Y36.514 E1.80522
G1 X60.681 Y26.765 E2.12429
G1 X60.27 Y26.219 E2.14133
G1 X59.925 Y25.628 E2.1584
G1 X59.817 Y25.382 E2.16511
G1 X59.78 Y25.323 E2.16684
G1 X59.484 Y24.706 E2.18391
G1 X59.262 Y24.059 E2.20098
G1 X59.118 Y23.391 E2.21802
G1 X59.052 Y22.71 E2.23509
G1 X59.066 Y22.027 E2.25213
G1 X59.16 Y21.349 E2.26921
G1 X59.333 Y20.688 E2.28625
G1 X59.581 Y20.05 E2.30332
G1 X59.902 Y19.447 E2.32037
G1 X60.291 Y18.884 E2.33744
G1 X60.743 Y18.371 E2.35449
G1 X61.393 Y17.806 E2.37597
G1 X61.842 Y17.47 E2.38996
G1 X62.413 Y17.093 E2.40703
G1 X63.023 Y16.785 E2.42408
G1 X63.665 Y16.551 E2.44112
G1 X64.331 Y16.393 E2.4582
G1 X65.01 Y16.314 E2.47525
G1 X65.694 Y16.314 E2.49231
G1 X66.373 Y16.395 E2.50937
G1 X67.038 Y16.554 E2.52643
G1 X67.68 Y16.789 E2.54348
G1 X68.29 Y17.098 E2.56054
G1 X68.86 Y17.476 E2.5776
G1 X69.33 Y17.874 E2.59296
G1 X69.333 Y17.876 E2.59305
G1 X69.342 Y17.884 E2.59335
G1 X69.382 Y17.918 E2.59466
G1 X69.399 Y17.936 E2.59528
G1 X69.939 Y18.422 E2.6134
G1 X83.64 Y32.613 E3.10546
G1 X84.085 Y33.132 E3.12251
G1 X84.467 Y33.699 E3.13957
G1 X84.78 Y34.307 E3.15663
G1 X85.02 Y34.947 E3.17368
G1 X85.183 Y35.611 E3.19073
G1 X85.276 Y36.441 E3.21157
G1 X85.359 Y38.517 E3.26339
G1 X85.579 Y38.85 E3.27335
G1 X85.886 Y39.461 E3.29041
G1 X86.119 Y40.103 E3.30744
G1 X86.276 Y40.769 E3.32451
G1 X86.317 Y41.234 E3.33616
G1 X86.415 Y41.508 E3.34342
G1 X86.57 Y42.174 E3.36047
G1 X86.646 Y42.854 E3.37754
G1 X86.632 Y43.664 E3.39775
G1 X86.509 Y45.092 E3.4335
G1 X86.509 Y46.854 E3.47746
G1 X86.632 Y48.281 E3.51319
G1 X86.651 Y48.964 E3.53023
G1 X86.59 Y49.645 E3.54729
G1 X86.45 Y50.314 E3.56434
G1 X86.335 Y50.657 E3.57336
G1 X86.324 Y50.852 E3.57823
G1 X86.205 Y51.525 E3.59528
G1 X86.008 Y52.18 E3.61234
G1 X85.735 Y52.807 E3.6294
G1 X85.392 Y53.398 E3.64645
G1 X85.361 Y53.439 E3.64773
G1 X85.277 Y55.536 E3.70008
G1 X85.21 Y56.217 E3.71715
G1 X85.064 Y56.885 E3.73421
G1 X84.84 Y57.531 E3.75126
G1 X84.543 Y58.147 E3.76832
G1 X84.176 Y58.724 E3.78538
G1 X83.641 Y59.364 E3.80619
G1 X69.94 Y73.555 E4.29825
G1 X69.437 Y74.019 E4.31532
G1 X68.888 Y74.416 E4.33222
G1 X68.706 Y74.565 E4.33809
G1 X68.129 Y74.933 E4.35516
G1 X67.514 Y75.231 E4.3722
G1 X66.868 Y75.455 E4.38926
G1 X66.2 Y75.603 E4.40633
G1 X65.52 Y75.671 E4.42338
G1 X64.836 Y75.659 E4.44044
G1 X64.158 Y75.568 E4.4575
G1 X63.496 Y75.399 E4.47455
G1 X62.858 Y75.153 E4.49161
G1 X62.253 Y74.834 E4.50867
G1 X61.689 Y74.447 E4.52573
G1 X60.986 Y73.803 E4.54951
G1 X60.605 Y73.392 E4.56349
G1 X60.17 Y72.864 E4.58056
G1 X59.8 Y72.289 E4.59761
G1 X59.499 Y71.675 E4.61467
G1 X59.272 Y71.03 E4.63173
G1 X59.122 Y70.363 E4.64878
G1 X59.051 Y69.683 E4.66584
G1 X59.06 Y68.999 E4.6829
G1 X59.148 Y68.321 E4.69995
G1 X59.315 Y67.658 E4.71701
G1 X59.558 Y67.019 E4.73406
G1 X59.874 Y66.412 E4.75113
G1 X59.969 Y66.273 E4.75533
G1 X59.991 Y66.225 E4.75665
G1 X60.35 Y65.643 E4.77371
G1 X60.683 Y65.212 E4.7873
G1 X69.165 Y55.225 E5.11415
G1 X65.179 Y56.022 E5.21555
G1 X65.174 Y56.026 E5.21571
G1 X64.572 Y56.349 E5.23275
G1 X63.936 Y56.6 E5.2498
G1 X63.275 Y56.776 E5.26687
G1 X62.848 Y56.846 E5.27766
G1 X62.759 Y56.857 E5.2799
G1 X61.609 Y58.017 E5.32064
G1 X61.1 Y58.473 E5.33769
G1 X60.541 Y58.868 E5.35477
G1 X60.154 Y59.078 E5.36575
G1 X60.149 Y59.082 E5.36591
G1 X59.671 Y59.399 E5.38022
G1 X59.449 Y59.531 E5.38666
G1 X58.842 Y59.846 E5.40372
G1 X58.202 Y60.087 E5.42078
G1 X58.136 Y60.103 E5.42247
G1 X57.634 Y60.377 E5.43674
G1 X57.016 Y60.669 E5.45379
G1 X56.367 Y60.886 E5.47086
G1 X56.187 Y60.924 E5.47545
G1 X55.938 Y61.047 E5.48238
G1 X54.97 Y61.362 E5.50777
G1 X54.152 Y61.551 E5.52871
G1 X54.068 Y61.607 E5.53123
G1 X53.459 Y61.917 E5.54828
G1 X52.818 Y62.155 E5.56533
G1 X52.153 Y62.315 E5.58239
G1 X51.758 Y62.373 E5.59235
G1 X51.282 Y62.426 E5.6043
G1 X50.599 Y62.462 E5.62136
G1 X49.917 Y62.418 E5.63841
G1 X49.245 Y62.294 E5.65546
G1 X48.546 Y62.076 E5.67372
G1 X48.41 Y62.024 E5.67735
G1 X47.786 Y61.743 E5.69442
G1 X47.474 Y61.556 E5.7035
G1 X46.661 Y61.371 E5.7243
G1 X46.004 Y61.18 E5.74136
G1 X45.374 Y60.915 E5.75841
G1 X45.358 Y60.906 E5.75887
G1 X45.042 Y60.828 E5.76699
G1 X44.402 Y60.588 E5.78404
G1 X43.977 Y60.378 E5.79587
G1 X43.455 Y60.094 E5.81069
G1 X42.981 Y59.936 E5.82315
G1 X42.155 Y59.528 E5.84613
G1 X41.932 Y59.395 E5.85261
G1 X41.495 Y59.098 E5.86579
G1 X41.28 Y58.993 E5.87176
G1 X40.705 Y58.623 E5.88882
G1 X40.149 Y58.161 E5.90685
G1 X39.221 Y57.289 E5.93862
G1 X38.811 Y56.852 E5.95356
G1 X38.763 Y56.846 E5.95477
G1 X38.091 Y56.72 E5.97182
G1 X37.438 Y56.517 E5.98888
G1 X36.814 Y56.239 E6.00592
G1 X36.46 Y56.028 E6.0162
G1 X32.445 Y55.224 E6.11835
G1 X40.927 Y65.212 E6.44522
G1 X41.338 Y65.758 E6.46226
G1 X41.683 Y66.349 E6.47934
G1 X41.787 Y66.588 E6.48584
G1 X41.833 Y66.66 E6.48797
G1 X42.128 Y67.277 E6.50503
G1 X42.349 Y67.925 E6.52211
G1 X42.492 Y68.593 E6.53915
G1 X42.557 Y69.274 E6.55621
G1 X42.542 Y69.958 E6.57328
G1 X42.447 Y70.635 E6.59033
G1 X42.274 Y71.296 E6.60738
G1 X42.025 Y71.933 E6.62444
G1 X41.703 Y72.536 E6.64149
G1 X41.313 Y73.098 E6.65855
G1 X40.861 Y73.611 E6.67561
G1 X40.216 Y74.171 E6.69692
G1 X39.767 Y74.507 E6.71091
G1 X39.196 Y74.884 E6.72797
G1 X38.586 Y75.192 E6.74502
G1 X37.944 Y75.426 E6.76207
G1 X37.278 Y75.584 E6.77914
G1 X36.599 Y75.663 E6.79619
G1 X35.915 Y75.663 E6.81325
G1 X35.236 Y75.582 E6.83031
G1 X34.571 Y75.423 E6.84737
G1 X33.929 Y75.188 E6.86442
G1 X33.319 Y74.879 E6.88148
G1 X32.749 Y74.501 E6.89854
G1 X32.227 Y74.059 E6.9156
G1 X32.202 Y74.034 E6.91649
G1 X31.672 Y73.555 E6.93431
G1 X17.97 Y59.364 E7.42638
G1 X17.524 Y58.846 E7.44343
G1 X17.142 Y58.278 E7.46051
G1 X16.829 Y57.67 E7.47757
G1 X16.589 Y57.03 E7.49462
G1 X16.426 Y56.366 E7.51167
G1 X16.333 Y55.536 E7.53251
G1 X16.248 Y53.424 E7.58523
G1 X16.03 Y53.092 E7.59514
G1 X15.723 Y52.481 E7.6122
G1 X15.49 Y51.838 E7.62926
G1 X15.334 Y51.172 E7.64632
G1 X15.294 Y50.709 E7.65791
G1 X15.196 Y50.437 E7.66513
G1 X15.041 Y49.771 E7.68218
G1 X14.965 Y49.091 E7.69925
G1 X14.979 Y48.281 E7.71946
G1 X15.102 Y46.853 E7.75521
G1 X15.102 Y45.091 E7.79917
G1 X14.979 Y43.664 E7.8349
G1 X14.96 Y42.981 E7.85194
G1 X15.021 Y42.3 E7.869
G1 X15.161 Y41.631 E7.88605
G1 X15.276 Y41.288 E7.89507
G1 X15.287 Y41.094 E7.89992
G1 X15.406 Y40.421 E7.91697
G1 X15.603 Y39.766 E7.93403
G1 X15.876 Y39.139 E7.95109
G1 X16.219 Y38.548 E7.96813
G1 X16.251 Y38.505 E7.96947
G1 X16.334 Y36.441 E8.021
G1 X16.401 Y35.76 E8.03807
G1 X16.547 Y35.092 E8.05512
G1 X16.771 Y34.446 E8.07218
G1 X17.068 Y33.83 E8.08924
G1 X17.435 Y33.253 E8.1063
G1 X17.971 Y32.613 E8.12712
G1 X31.673 Y18.422 E8.6192
G0 X31.888 Y18.63
G1 X32.379 Y18.179 E8.63583
G1 X32.872 Y17.826 E8.65095
G1 X33.084 Y17.652 E8.65779
G1 X33.646 Y17.295 E8.6744
G1 X34.247 Y17.008 E8.69102
G1 X34.878 Y16.795 E8.70763
G1 X35.53 Y16.659 E8.72424
G1 X36.194 Y16.602 E8.74087
G1 X36.859 Y16.625 E8.75747
G1 X37.517 Y16.727 E8.77408
G1 X38.158 Y16.908 E8.79069
G1 X38.773 Y17.164 E8.80731
G1 X39.353 Y17.492 E8.82393
G1 X39.889 Y17.887 E8.84054
G1 X40.41 Y18.382 E8.85847
G1 X40.791 Y18.794 E8.87246
G1 X41.213 Y19.309 E8.88907
G1 X41.57 Y19.871 E8.90568
G1 X41.857 Y20.472 E8.9223
G1 X42.071 Y21.103 E8.93892
G1 X42.207 Y21.755 E8.95553
G1 X42.264 Y22.419 E8.97215
G1 X42.241 Y23.084 E8.98875
G1 X42.139 Y23.742 E9.00536
G1 X41.959 Y24.383 E9.02197
G1 X41.703 Y24.998 E9.03859
G1 X41.375 Y25.578 E9.05521
G1 X41.344 Y25.618 E9.05647
G1 X41.289 Y25.73 E9.05959
G1 X40.924 Y26.287 E9.0762
G1 X40.699 Y26.571 E9.08524
G1 X31.861 Y36.977 E9.4258
G1 X36.557 Y36.037 E9.54527
G1 X36.636 Y35.983 E9.54766
G1 X37.226 Y35.674 E9.56427
G1 X37.848 Y35.438 E9.58086
G1 X38.801 Y35.23 E9.6052
G1 X39.044 Y35.199 E9.61131
G1 X39.542 Y34.658 E9.62965
G1 X40.104 Y34.127 E9.64894
G1 X41.475 Y33.001 E9.69319
G1 X42.014 Y32.61 E9.7098
G1 X42.168 Y32.524 E9.7142
G1 X42.381 Y32.33 E9.72139
G1 X42.924 Y31.943 E9.73802
G1 X43.495 Y31.631 E9.75425
G1 X44.423 Y31.192 E9.77986
G1 X44.926 Y30.983 E9.79345
G1 X45.893 Y30.637 E9.81907
G1 X46.323 Y30.512 E9.83024
G1 X46.801 Y30.289 E9.8434
G1 X47.434 Y30.081 E9.86002
G1 X48.087 Y29.951 E9.87663
G1 X48.845 Y29.899 E9.89558
G1 X49.461 Y29.899 E9.91095
G1 X50.126 Y29.939 E9.92757
G1 X50.297 Y29.97 E9.9319
G1 X51.502 Y29.97 E9.96196
G1 X51.73 Y29.931 E9.96773
G1 X52.328 Y29.899 E9.98267
G1 X52.866 Y29.899 E9.99609
G1 X53.531 Y29.939 E10.01271
G1 X54.186 Y30.058 E10.02931
G1 X54.822 Y30.255 E10.04592
G1 X55.43 Y30.527 E10.06254
G1 X55.515 Y30.578 E10.06501
G1 X55.718 Y30.637 E10.07028
G1 X56.685 Y30.983 E10.0959
G1 X57.188 Y31.192 E10.10949
G1 X58.116 Y31.631 E10.1351
G1 X58.7 Y31.951 E10.15171
G1 X59.242 Y32.34 E10.16835
G1 X59.456 Y32.536 E10.17559
G1 X59.747 Y32.711 E10.18406
G1 X60.124 Y32.993 E10.19581
G1 X61.478 Y34.1 E10.23943
G1 X62.046 Y34.635 E10.2589
G1 X62.566 Y35.199 E10.27803
G1 X62.809 Y35.23 E10.28414
G1 X63.464 Y35.354 E10.30077
G1 X64.098 Y35.555 E10.31737
G1 X64.705 Y35.83 E10.33399
G1 X65.041 Y36.035 E10.34381
G1 X69.748 Y36.977 E10.46355
G1 X60.91 Y26.571 E10.80412
G1 X60.51 Y26.038 E10.82074
G1 X60.177 Y25.462 E10.83734
G1 X60.08 Y25.235 E10.8435
G1 X60.034 Y25.162 E10.84565
G1 X59.749 Y24.56 E10.86226
G1 X59.538 Y23.929 E10.87886
G1 X59.404 Y23.276 E10.89549
G1 X59.349 Y22.612 E10.91211
G1 X59.375 Y21.947 E10.92871
G1 X59.479 Y21.289 E10.94533
G1 X59.662 Y20.649 E10.96193
G1 X59.921 Y20.035 E10.97856
G1 X60.251 Y19.456 E10.99518
G1 X60.647 Y18.921 E11.01178
G1 X61.106 Y18.438 E11.02841
G1 X61.573 Y18.046 E11.04361
G1 X62.022 Y17.71 E11.0576
G1 X62.578 Y17.344 E11.07421
G1 X63.174 Y17.047 E11.09082
G1 X63.802 Y16.824 E11.10744
G1 X64.451 Y16.677 E11.12404
G1 X65.114 Y16.609 E11.14067
G1 X65.78 Y16.621 E11.15728
G1 X66.439 Y16.713 E11.17388
G1 X67.083 Y16.883 E11.1905
G1 X67.702 Y17.129 E11.20711
G1 X68.287 Y17.447 E11.22372
G1 X68.83 Y17.833 E11.24034
G1 X69.097 Y18.085 E11.2495
G1 X69.309 Y18.244 E11.25611
G1 X69.723 Y18.63 E11.27023
G1 X83.424 Y32.821 E11.76229
G1 X83.857 Y33.327 E11.7789
G1 X84.226 Y33.881 E11.79551
G1 X84.526 Y34.476 E11.81213
G1 X84.753 Y35.102 E11.82874
G1 X84.903 Y35.751 E11.84536
G1 X84.977 Y36.453 E11.86296
G1 X85.064 Y38.609 E11.91679
G1 X85.362 Y39.075 E11.93059
G1 X85.651 Y39.675 E11.9472
G1 X85.865 Y40.306 E11.96382
G1 X86.003 Y40.957 E11.98042
G1 X86.03 Y41.324 E11.9896
G1 X86.156 Y41.693 E11.99933
G1 X86.293 Y42.344 E12.01592
G1 X86.352 Y43.008 E12.03255
G1 X86.334 Y43.638 E12.04827
G1 X86.209 Y45.09 E12.08463
G1 X86.209 Y46.868 E12.12898
G1 X86.333 Y48.306 E12.16498
G1 X86.351 Y48.972 E12.1816
G1 X86.288 Y49.635 E12.19822
G1 X86.147 Y50.286 E12.21483
G1 X86.038 Y50.599 E12.2231
G1 X86.024 Y50.834 E12.22897
G1 X85.905 Y51.489 E12.24558
G1 X85.708 Y52.125 E12.26219
G1 X85.436 Y52.733 E12.2788
G1 X85.093 Y53.305 E12.29544
G1 X85.066 Y53.34 E12.29654
G1 X84.978 Y55.524 E12.35107
G1 X84.911 Y56.187 E12.36769
G1 X84.765 Y56.837 E12.38431
G1 X84.543 Y57.465 E12.40092
G1 X84.247 Y58.061 E12.41752
G1 X83.882 Y58.618 E12.43414
G1 X83.425 Y59.156 E12.45174
G1 X69.724 Y73.347 E12.9438
G1 X69.233 Y73.797 E12.96042
G1 X68.721 Y74.165 E12.97615
G1 X68.516 Y74.332 E12.98274
G1 X67.953 Y74.688 E12.99936
G1 X67.351 Y74.974 E13.01598
G1 X66.719 Y75.185 E13.0326
G1 X66.067 Y75.319 E13.04921
G1 X65.403 Y75.375 E13.06583
G1 X64.738 Y75.35 E13.08243
G1 X64.08 Y75.246 E13.09905
G1 X63.439 Y75.063 E13.11568
G1 X62.825 Y74.805 E13.13229
G1 X62.246 Y74.476 E13.1489
G1 X61.711 Y74.08 E13.16551
G1 X61.206 Y73.599 E13.1829
G1 X60.825 Y73.188 E13.19688
G1 X60.402 Y72.673 E13.21351
G1 X60.044 Y72.112 E13.23011
G1 X59.756 Y71.511 E13.24673
G1 X59.542 Y70.881 E13.26333
G1 X59.405 Y70.229 E13.27995
G1 X59.347 Y69.565 E13.29658
G1 X59.369 Y68.9 E13.31317
G1 X59.471 Y68.241 E13.32981
G1 X59.65 Y67.6 E13.34641
G1 X59.905 Y66.985 E13.36302
G1 X60.232 Y66.405 E13.37963
G1 X60.264 Y66.363 E13.38094
G1 X60.314 Y66.261 E13.38378
G1 X60.677 Y65.703 E13.40038
G1 X60.912 Y65.406 E13.40983
G1 X69.952 Y54.761 E13.7582
G1 X65.054 Y55.742 E13.88281
G1 X64.987 Y55.788 E13.88484
G1 X64.398 Y56.099 E13.90145
G1 X63.776 Y56.337 E13.91807
G1 X62.81 Y56.549 E13.94274
G1 X62.618 Y56.573 E13.94756
G1 X61.396 Y57.806 E13.99087
G1 X60.9 Y58.25 E14.00747
G1 X60.354 Y58.631 E14.02408
G1 X59.959 Y58.841 E14.03524
G1 X59.845 Y58.931 E14.03886
G1 X59.517 Y59.141 E14.04858
G1 X59.295 Y59.273 E14.05502
G1 X58.704 Y59.579 E14.07162
G1 X58.079 Y59.811 E14.08825
G1 X58.022 Y59.825 E14.08972
G1 X57.491 Y60.114 E14.1048
G1 X56.888 Y60.397 E14.12141
G1 X56.255 Y60.605 E14.13804
G1 X56.093 Y60.638 E14.14216
G1 X55.66 Y60.836 E14.15404
G1 X54.902 Y61.07 E14.17383
G1 X54.022 Y61.273 E14.19635
G1 X53.796 Y61.416 E14.20303
G1 X53.195 Y61.703 E14.21964
G1 X52.564 Y61.916 E14.23625
G1 X51.725 Y62.075 E14.25755
G1 X51.249 Y62.128 E14.2695
G1 X50.584 Y62.162 E14.28611
G1 X49.92 Y62.116 E14.30271
G1 X49.265 Y61.99 E14.31935
G1 X48.653 Y61.796 E14.33537
G1 X48.517 Y61.744 E14.339
G1 X47.91 Y61.469 E14.35562
G1 X47.588 Y61.274 E14.36501
G1 X46.727 Y61.078 E14.38704
G1 X46.088 Y60.892 E14.40364
G1 X45.502 Y60.641 E14.41954
G1 X44.869 Y60.453 E14.43602
G1 X44.121 Y60.115 E14.45649
G1 X43.604 Y59.834 E14.47117
