;FLAVOR:Marlin
;TIME:6714
;Filament used: 2.03998m
;Layer height: 0.2
;Generated with Cura_SteamEngine 3.4.1
M190 S75
M104 S220
M109 S220
M82 ;absolute extrusion mode
G21 ;metric values
G90 ;absolute positioning
M82 ;set extruder to absolute mode
M107 ;start with the fan off
G28 X0 Y0 ;move X/Y to min endstops
G28 Z0 ;move Z to min endstops
G1 Z15.0 F9000 ;move the platform down 15mm
G92 E0 ;zero the extruded length
G1 F200 E3 ;extrude 3mm of feed stock
G92 E0 ;zero the extruded length again
G1 F9000
;Put printing message on LCD screen
M117 Printing...
G92 E0
G1 F1500 E-6.5
;LAYER_COUNT:247
;LAYER:0
M107
G0 F2400 X19.366 Y23.663 Z0.2
;TYPE:SKIRT
G1 F1500 E0
G1 F1800 X33.068 Y9.471 E0.49209
G1 X33.571 Y9.007 E0.50916
G1 X34.108 Y8.618 E0.52571
G1 X34.29 Y8.469 E0.53157
G1 X34.865 Y8.1 E0.54862
G1 X35.48 Y7.8 E0.56569
G1 X36.126 Y7.575 E0.58275
G1 X36.793 Y7.426 E0.5998
G1 X37.473 Y7.356 E0.61685
G1 X38.157 Y7.366 E0.63391
G1 X38.835 Y7.455 E0.65097
G1 X39.498 Y7.623 E0.66803
G1 X40.136 Y7.867 E0.68507
G1 X40.742 Y8.185 E0.70214
G1 X41.307 Y8.57 E0.7192
G1 X42.021 Y9.223 E0.74334
G1 X42.402 Y9.634 E0.75732
G1 X42.837 Y10.162 E0.77438
G1 X43.207 Y10.737 E0.79144
G1 X43.508 Y11.351 E0.80849
G1 X43.735 Y11.996 E0.82555
G1 X43.885 Y12.663 E0.84261
G1 X43.956 Y13.343 E0.85966
G1 X43.947 Y14.027 E0.87672
G1 X43.859 Y14.705 E0.89378
G1 X43.692 Y15.368 E0.91083
G1 X43.449 Y16.007 E0.92789
G1 X43.133 Y16.614 E0.94496
G1 X43.038 Y16.753 E0.94916
G1 X43.016 Y16.801 E0.95048
G1 X42.657 Y17.383 E0.96753
G1 X42.324 Y17.814 E0.98112
G1 X33.842 Y27.802 E1.30799
G1 X37.833 Y27.003 E1.40952
G1 X37.847 Y26.993 E1.40995
G1 X38.45 Y26.67 E1.42702
G1 X39.086 Y26.421 E1.44405
G1 X39.748 Y26.247 E1.46113
G1 X40.16 Y26.18 E1.47154
G1 X40.236 Y26.17 E1.47345
G1 X41.415 Y24.991 E1.51504
G1 X41.926 Y24.537 E1.5321
G1 X42.487 Y24.145 E1.54917
G1 X42.853 Y23.949 E1.55952
G1 X43.344 Y23.621 E1.57425
G1 X43.567 Y23.489 E1.58072
G1 X44.175 Y23.175 E1.59779
G1 X44.815 Y22.935 E1.61484
G1 X44.871 Y22.921 E1.61628
G1 X45.372 Y22.648 E1.63051
G1 X45.99 Y22.357 E1.64755
G1 X46.639 Y22.139 E1.66463
G1 X46.814 Y22.102 E1.66909
G1 X47.069 Y21.976 E1.67619
G1 X47.713 Y21.746 E1.69324
G1 X48.053 Y21.658 E1.702
G1 X48.816 Y21.484 E1.72153
G1 X48.909 Y21.421 E1.72433
G1 X49.517 Y21.107 E1.7414
G1 X50.156 Y20.866 E1.75843
G1 X50.82 Y20.701 E1.7755
G1 X51.273 Y20.634 E1.78692
G1 X51.749 Y20.583 E1.79887
G1 X52.432 Y20.55 E1.81592
G1 X53.114 Y20.597 E1.83298
G1 X53.786 Y20.723 E1.85003
G1 X54.461 Y20.936 E1.86769
G1 X54.597 Y20.988 E1.87132
G1 X55.221 Y21.269 E1.88839
G1 X55.573 Y21.481 E1.89864
G1 X56.351 Y21.658 E1.91855
G1 X57.008 Y21.848 E1.93561
G1 X57.638 Y22.114 E1.95266
G1 X57.645 Y22.118 E1.95287
G1 X57.965 Y22.197 E1.96109
G1 X58.605 Y22.437 E1.97814
G1 X59.034 Y22.649 E1.99008
G1 X59.559 Y22.935 E2.00499
G1 X60.027 Y23.091 E2.01729
G1 X60.826 Y23.483 E2.03949
G1 X61.05 Y23.615 E2.04598
G1 X61.528 Y23.936 E2.06034
G1 X61.721 Y24.03 E2.0657
G1 X62.297 Y24.4 E2.08278
G1 X62.858 Y24.865 E2.10095
G1 X63.785 Y25.736 E2.13268
G1 X64.197 Y26.174 E2.14768
G1 X64.244 Y26.18 E2.14886
G1 X64.917 Y26.306 E2.16594
G1 X65.569 Y26.509 E2.18298
G1 X66.194 Y26.787 E2.20004
G1 X66.55 Y26.999 E2.21038
G1 X70.562 Y27.801 E2.31244
G1 X62.08 Y17.814 E2.63929
G1 X61.669 Y17.268 E2.65634
G1 X61.324 Y16.677 E2.67341
G1 X61.221 Y16.441 E2.67983
G1 X61.178 Y16.373 E2.68184
G1 X60.882 Y15.756 E2.69891
G1 X60.66 Y15.109 E2.71597
G1 X60.516 Y14.441 E2.73302
G1 X60.45 Y13.76 E2.75008
G1 X60.464 Y13.077 E2.76713
G1 X60.558 Y12.399 E2.7842
G1 X60.731 Y11.738 E2.80124
G1 X60.979 Y11.1 E2.81832
G1 X61.3 Y10.497 E2.83536
G1 X61.689 Y9.934 E2.85243
G1 X62.141 Y9.421 E2.86949
G1 X62.784 Y8.861 E2.89076
G1 X63.233 Y8.524 E2.90476
G1 X63.803 Y8.146 E2.92182
G1 X64.413 Y7.838 E2.93887
G1 X65.055 Y7.602 E2.95593
G1 X65.721 Y7.443 E2.97301
G1 X66.4 Y7.363 E2.99006
G1 X67.083 Y7.363 E3.0071
G1 X67.763 Y7.442 E3.02418
G1 X68.428 Y7.6 E3.04123
G1 X69.07 Y7.835 E3.05828
G1 X69.681 Y8.143 E3.07535
G1 X70.251 Y8.52 E3.0924
G1 X70.765 Y8.953 E3.10916
G1 X70.78 Y8.964 E3.10963
G1 X71.337 Y9.471 E3.12842
G1 X85.038 Y23.663 E3.62049
G1 X85.483 Y24.182 E3.63755
G1 X85.865 Y24.749 E3.6546
G1 X86.178 Y25.357 E3.67166
G1 X86.418 Y25.997 E3.68871
G1 X86.581 Y26.661 E3.70577
G1 X86.674 Y27.491 E3.7266
G1 X86.759 Y29.601 E3.77928
G1 X86.983 Y29.944 E3.7895
G1 X87.289 Y30.555 E3.80654
G1 X87.521 Y31.199 E3.82362
G1 X87.676 Y31.865 E3.84067
G1 X87.715 Y32.319 E3.85204
G1 X87.808 Y32.576 E3.85886
G1 X87.965 Y33.241 E3.8759
G1 X88.042 Y33.921 E3.89297
G1 X88.029 Y34.745 E3.91353
G1 X87.906 Y36.173 E3.94929
G1 X87.906 Y37.935 E3.99324
G1 X88.029 Y39.362 E4.02897
G1 X88.048 Y40.045 E4.04601
G1 X87.987 Y40.726 E4.06307
G1 X87.847 Y41.395 E4.08012
G1 X87.732 Y41.738 E4.08914
G1 X87.721 Y41.932 E4.09399
G1 X87.602 Y42.605 E4.11104
G1 X87.405 Y43.26 E4.1281
G1 X87.132 Y43.887 E4.14516
G1 X86.789 Y44.478 E4.1622
G1 X86.756 Y44.522 E4.16358
G1 X86.673 Y46.585 E4.21508
G1 X86.606 Y47.266 E4.23215
G1 X86.46 Y47.934 E4.2492
G1 X86.236 Y48.58 E4.26626
G1 X85.939 Y49.196 E4.28332
G1 X85.572 Y49.773 E4.30038
G1 X85.037 Y50.413 E4.32119
G1 X71.336 Y64.605 E4.81326
G1 X70.833 Y65.068 E4.83032
G1 X70.281 Y65.468 E4.84732
G1 X70.107 Y65.611 E4.85294
G1 X69.531 Y65.98 E4.87
G1 X68.916 Y66.278 E4.88705
G1 X68.271 Y66.503 E4.90409
G1 X67.603 Y66.651 E4.92116
G1 X66.923 Y66.721 E4.93821
G1 X66.239 Y66.71 E4.95528
G1 X65.561 Y66.62 E4.97234
G1 X64.898 Y66.451 E4.9894
G1 X64.26 Y66.206 E5.00645
G1 X63.655 Y65.888 E5.0235
G1 X63.09 Y65.501 E5.04059
G1 X62.377 Y64.848 E5.0647
G1 X61.996 Y64.436 E5.0787
G1 X61.562 Y63.908 E5.09575
G1 X61.192 Y63.332 E5.11283
G1 X60.892 Y62.718 E5.12987
G1 X60.666 Y62.072 E5.14695
G1 X60.517 Y61.405 E5.164
G1 X60.447 Y60.725 E5.18105
G1 X60.456 Y60.041 E5.19811
G1 X60.546 Y59.363 E5.21517
G1 X60.713 Y58.7 E5.23223
G1 X60.957 Y58.061 E5.24929
G1 X61.274 Y57.455 E5.26635
G1 X61.366 Y57.32 E5.27043
G1 X61.387 Y57.275 E5.27166
G1 X61.746 Y56.693 E5.28872
G1 X62.079 Y56.262 E5.30231
G1 X70.359 Y46.512 E5.62139
G1 X66.576 Y47.269 E5.71763
G1 X66.571 Y47.273 E5.71779
G1 X65.969 Y47.596 E5.73483
G1 X65.333 Y47.847 E5.75189
G1 X64.672 Y48.023 E5.76895
G1 X64.244 Y48.093 E5.77977
G1 X64.073 Y48.115 E5.78407
G1 X62.462 Y49.681 E5.84011
G1 X61.945 Y50.128 E5.85716
G1 X61.629 Y50.354 E5.86685
G1 X61.254 Y50.604 E5.8781
G1 X61.027 Y50.737 E5.88466
G1 X60.843 Y50.906 E5.89089
G1 X60.29 Y51.308 E5.90795
G1 X59.642 Y51.666 E5.92641
G1 X58.714 Y52.105 E5.95202
G1 X58.183 Y52.325 E5.96636
G1 X57.216 Y52.671 E5.99198
G1 X56.96 Y52.746 E5.99863
G1 X56.643 Y52.911 E6.00755
G1 X56.004 Y53.155 E6.02461
G1 X55.342 Y53.323 E6.04165
G1 X54.664 Y53.412 E6.05871
G1 X54.242 Y53.427 E6.06924
G1 X53.713 Y53.427 E6.08244
G1 X53.03 Y53.387 E6.0995
G1 X52.855 Y53.356 E6.10394
G1 X51.747 Y53.356 E6.13157
G1 X51.649 Y53.375 E6.13407
G1 X50.874 Y53.427 E6.15344
G1 X50.262 Y53.427 E6.16871
G1 X49.579 Y53.387 E6.18577
G1 X48.906 Y53.268 E6.20282
G1 X48.251 Y53.071 E6.21988
G1 X47.624 Y52.798 E6.23694
G1 X47.193 Y52.672 E6.24814
G1 X46.223 Y52.325 E6.27384
G1 X45.691 Y52.105 E6.2882
G1 X44.763 Y51.666 E6.31381
G1 X44.163 Y51.338 E6.33087
G1 X43.606 Y50.942 E6.34792
G1 X43.381 Y50.739 E6.35548
G1 X43.167 Y50.615 E6.36165
G1 X42.691 Y50.264 E6.3764
G1 X41.337 Y49.156 E6.42004
G1 X40.726 Y48.578 E6.44102
G1 X40.298 Y48.11 E6.45684
G1 X40.161 Y48.093 E6.46029
G1 X39.489 Y47.967 E6.47734
G1 X38.836 Y47.764 E6.4944
G1 X38.211 Y47.486 E6.51146
G1 X37.855 Y47.275 E6.52179
G1 X34.045 Y46.512 E6.61872
G1 X42.325 Y56.262 E6.9378
G1 X42.736 Y56.808 E6.95485
G1 X43.081 Y57.399 E6.97192
G1 X43.184 Y57.635 E6.97834
G1 X43.227 Y57.703 E6.98035
G1 X43.523 Y58.32 E6.99742
G1 X43.745 Y58.967 E7.01448
G1 X43.889 Y59.635 E7.03153
G1 X43.955 Y60.316 E7.04859
G1 X43.941 Y60.999 E7.06564
G1 X43.847 Y61.677 E7.08271
G1 X43.674 Y62.338 E7.09975
G1 X43.426 Y62.976 E7.11683
G1 X43.105 Y63.579 E7.13387
G1 X42.716 Y64.142 E7.15094
G1 X42.264 Y64.655 E7.168
G1 X41.614 Y65.22 E7.18948
G1 X41.165 Y65.556 E7.20347
G1 X40.594 Y65.933 E7.22054
G1 X39.984 Y66.241 E7.23758
G1 X39.342 Y66.475 E7.25463
G1 X38.676 Y66.633 E7.2717
G1 X37.997 Y66.712 E7.28875
G1 X37.313 Y66.712 E7.30582
G1 X36.634 Y66.631 E7.32288
G1 X35.969 Y66.472 E7.33993
G1 X35.327 Y66.237 E7.35699
G1 X34.717 Y65.928 E7.37404
G1 X34.147 Y65.55 E7.3911
G1 X33.649 Y65.128 E7.40739
G1 X33.626 Y65.112 E7.40809
G1 X33.069 Y64.605 E7.42687
G1 X19.367 Y50.413 E7.91897
G1 X18.922 Y49.894 E7.93602
G1 X18.54 Y49.327 E7.95308
G1 X18.227 Y48.719 E7.97013
G1 X17.987 Y48.079 E7.98719
G1 X17.824 Y47.415 E8.00424
G1 X17.731 Y46.585 E8.02507
G1 X17.647 Y44.508 E8.07693
G1 X17.427 Y44.172 E8.08695
G1 X17.12 Y43.561 E8.104
G1 X16.887 Y42.918 E8.12106
G1 X16.731 Y42.252 E8.13813
G1 X16.691 Y41.791 E8.14967
G1 X16.593 Y41.518 E8.15691
G1 X16.438 Y40.852 E8.17396
G1 X16.362 Y40.172 E8.19103
G1 X16.376 Y39.362 E8.21124
G1 X16.499 Y37.934 E8.24699
G1 X16.499 Y36.172 E8.29095
G1 X16.376 Y34.745 E8.32667
G1 X16.357 Y34.062 E8.34372
G1 X16.418 Y33.381 E8.36077
G1 X16.558 Y32.712 E8.37782
G1 X16.673 Y32.369 E8.38685
G1 X16.684 Y32.175 E8.3917
G1 X16.803 Y31.502 E8.40874
G1 X17 Y30.847 E8.42581
G1 X17.273 Y30.22 E8.44287
G1 X17.616 Y29.629 E8.45991
G1 X17.645 Y29.59 E8.46112
G1 X17.73 Y27.491 E8.51353
G1 X17.797 Y26.81 E8.5306
G1 X17.944 Y26.142 E8.54766
G1 X18.167 Y25.496 E8.56471
G1 X18.464 Y24.88 E8.58176
G1 X18.831 Y24.303 E8.59882
G1 X19.366 Y23.663 E8.61963
G0 F2400 X19.582 Y23.871
G1 F1800 X33.284 Y9.679 E9.11172
G1 X33.775 Y9.229 E9.12834
G1 X34.276 Y8.869 E9.14373
G1 X34.48 Y8.702 E9.1503
G1 X35.043 Y8.345 E9.16693
G1 X35.644 Y8.058 E9.18355
G1 X36.275 Y7.844 E9.20017
G1 X36.927 Y7.709 E9.21678
G1 X37.59 Y7.652 E9.23338
G1 X38.256 Y7.675 E9.25
G1 X38.914 Y7.778 E9.26661
G1 X39.555 Y7.958 E9.28322
G1 X40.17 Y8.215 E9.29985
G1 X40.749 Y8.543 E9.31645
G1 X41.286 Y8.938 E9.33308
G1 X41.801 Y9.427 E9.35079
G1 X42.182 Y9.838 E9.36477
G1 X42.605 Y10.353 E9.3814
G1 X42.963 Y10.914 E9.398
G1 X43.251 Y11.515 E9.41462
G1 X43.465 Y12.145 E9.43122
G1 X43.602 Y12.797 E9.44784
G1 X43.66 Y13.461 E9.46447
G1 X43.638 Y14.126 E9.48106
G1 X43.536 Y14.785 E9.4977
G1 X43.357 Y15.426 E9.5143
G1 X43.102 Y16.041 E9.53091
G1 X42.775 Y16.621 E9.54752
G1 X42.743 Y16.663 E9.54883
G1 X42.693 Y16.765 E9.55167
G1 X42.33 Y17.323 E9.56827
G1 X42.095 Y17.62 E9.57772
G1 X33.055 Y28.265 E9.92609
G1 X37.954 Y27.284 E10.05073
G1 X38.033 Y27.23 E10.05311
G1 X38.623 Y26.921 E10.06973
G1 X39.245 Y26.685 E10.08632
G1 X40.198 Y26.477 E10.11065
G1 X40.378 Y26.454 E10.11518
G1 X41.628 Y25.204 E10.15928
G1 X42.126 Y24.762 E10.17589
G1 X42.674 Y24.383 E10.19251
G1 X43.036 Y24.192 E10.20272
G1 X43.13 Y24.117 E10.20572
G1 X43.497 Y23.879 E10.21663
G1 X43.72 Y23.747 E10.22309
G1 X44.312 Y23.443 E10.2397
G1 X44.937 Y23.212 E10.25632
G1 X44.986 Y23.2 E10.25758
G1 X45.515 Y22.912 E10.2726
G1 X46.118 Y22.629 E10.28922
G1 X46.751 Y22.42 E10.30584
G1 X46.907 Y22.388 E10.30982
G1 X47.347 Y22.187 E10.32188
G1 X48.12 Y21.95 E10.34205
G1 X48.946 Y21.761 E10.36319
G1 X49.182 Y21.61 E10.37018
G1 X49.782 Y21.319 E10.38681
G1 X50.412 Y21.103 E10.40343
G1 X51.305 Y20.933 E10.4261
G1 X51.781 Y20.882 E10.43804
G1 X52.446 Y20.85 E10.45465
G1 X53.11 Y20.899 E10.47126
G1 X53.764 Y21.027 E10.48788
G1 X54.354 Y21.216 E10.50334
G1 X54.49 Y21.268 E10.50697
G1 X55.097 Y21.543 E10.52359
G1 X55.457 Y21.761 E10.53409
G1 X56.284 Y21.95 E10.55525
G1 X56.924 Y22.137 E10.57189
G1 X57.494 Y22.381 E10.58735
G1 X57.5 Y22.382 E10.5875
G1 X58.138 Y22.572 E10.60411
G1 X58.89 Y22.912 E10.6247
G1 X59.41 Y23.196 E10.63948
G1 X60.028 Y23.416 E10.65584
G1 X60.674 Y23.741 E10.67388
G1 X60.898 Y23.873 E10.68037
G1 X61.383 Y24.2 E10.69496
G1 X61.634 Y24.326 E10.70196
G1 X62.19 Y24.694 E10.7186
G1 X62.652 Y25.083 E10.73366
G1 X63.579 Y25.954 E10.76539
G1 X64.047 Y26.451 E10.78242
G1 X64.052 Y26.457 E10.78261
G1 X64.207 Y26.477 E10.78651
G1 X64.861 Y26.601 E10.80312
G1 X65.496 Y26.802 E10.81973
G1 X66.102 Y27.078 E10.83634
G1 X66.437 Y27.282 E10.84613
G1 X71.349 Y28.265 E10.97109
G1 X62.309 Y17.62 E11.31946
G1 X61.909 Y17.087 E11.33608
G1 X61.576 Y16.51 E11.3527
G1 X61.483 Y16.294 E11.35857
G1 X61.432 Y16.212 E11.36098
G1 X61.147 Y15.61 E11.37759
G1 X60.936 Y14.979 E11.39419
G1 X60.802 Y14.326 E11.41082
G1 X60.747 Y13.662 E11.42744
G1 X60.773 Y12.997 E11.44404
G1 X60.877 Y12.339 E11.46066
G1 X61.06 Y11.699 E11.47726
G1 X61.319 Y11.085 E11.49388
G1 X61.649 Y10.506 E11.51051
G1 X62.045 Y9.971 E11.52711
G1 X62.504 Y9.488 E11.54373
G1 X62.964 Y9.101 E11.55873
G1 X63.413 Y8.764 E11.57273
G1 X63.969 Y8.397 E11.58935
G1 X64.565 Y8.099 E11.60597
G1 X65.192 Y7.875 E11.62258
G1 X65.841 Y7.727 E11.63919
G1 X66.504 Y7.658 E11.65582
G1 X67.17 Y7.669 E11.67243
G1 X67.83 Y7.76 E11.68905
G1 X68.474 Y7.929 E11.70566
G1 X69.093 Y8.174 E11.72227
G1 X69.679 Y8.492 E11.7389
G1 X70.222 Y8.877 E11.7555
G1 X70.492 Y9.132 E11.76477
G1 X70.753 Y9.331 E11.77295
G1 X71.121 Y9.679 E11.78559
G1 X84.822 Y23.871 E12.27766
G1 X85.255 Y24.377 E12.29428
G1 X85.624 Y24.932 E12.3109
G1 X85.924 Y25.526 E12.3275
G1 X86.151 Y26.152 E12.34411
G1 X86.301 Y26.801 E12.36073
G1 X86.375 Y27.503 E12.37834
G1 X86.463 Y29.691 E12.43296
G1 X86.766 Y30.168 E12.44706
G1 X87.053 Y30.769 E12.46367
G1 X87.266 Y31.4 E12.48029
G1 X87.402 Y32.052 E12.4969
G1 X87.428 Y32.408 E12.5058
G1 X87.549 Y32.761 E12.51511
G1 X87.688 Y33.412 E12.53172
G1 X87.748 Y34.076 E12.54835
G1 X87.731 Y34.719 E12.56439
G1 X87.606 Y36.171 E12.60075
G1 X87.606 Y37.949 E12.6451
G1 X87.73 Y39.387 E12.6811
G1 X87.748 Y40.053 E12.69772
G1 X87.685 Y40.716 E12.71434
G1 X87.544 Y41.367 E12.73095
G1 X87.435 Y41.68 E12.73922
G1 X87.421 Y41.914 E12.74507
G1 X87.302 Y42.569 E12.76167
G1 X87.105 Y43.205 E12.77828
G1 X86.833 Y43.813 E12.7949
G1 X86.49 Y44.385 E12.81154
G1 X86.46 Y44.423 E12.81274
G1 X86.374 Y46.573 E12.86642
G1 X86.307 Y47.236 E12.88304
G1 X86.161 Y47.886 E12.89966
G1 X85.939 Y48.514 E12.91628
G1 X85.643 Y49.11 E12.93288
G1 X85.278 Y49.667 E12.94949
G1 X84.821 Y50.205 E12.9671
G1 X71.12 Y64.397 E13.45917
G1 X70.629 Y64.847 E13.47579
G1 X70.114 Y65.218 E13.49162
G1 X69.917 Y65.378 E13.49795
G1 X69.354 Y65.735 E13.51458
G1 X68.753 Y66.021 E13.53118
G1 X68.122 Y66.233 E13.54779
G1 X67.47 Y66.368 E13.5644
G1 X66.806 Y66.424 E13.58102
G1 X66.14 Y66.4 E13.59764
G1 X65.482 Y66.297 E13.61426
G1 X64.842 Y66.115 E13.63086
G1 X64.227 Y65.858 E13.64748
G1 X63.648 Y65.53 E13.66408
G1 X63.112 Y65.134 E13.68071
G1 X62.597 Y64.644 E13.69844
G1 X62.216 Y64.232 E13.71244
G1 X61.794 Y63.717 E13.72905
G1 X61.437 Y63.155 E13.74565
G1 X61.15 Y62.554 E13.76227
G1 X60.936 Y61.923 E13.77889
G1 X60.8 Y61.271 E13.7955
G1 X60.743 Y60.607 E13.81213
G1 X60.766 Y59.942 E13.82873
G1 X60.868 Y59.284 E13.84534
G1 X61.048 Y58.643 E13.86194
G1 X61.304 Y58.028 E13.87856
G1 X61.632 Y57.448 E13.89518
G1 X61.662 Y57.408 E13.89643
G1 X61.71 Y57.311 E13.89913
G1 X62.073 Y56.753 E13.91574
G1 X62.308 Y56.456 E13.92518
G1 X71.146 Y46.049 E14.26577
G1 X66.451 Y46.989 E14.38521
G1 X66.384 Y47.035 E14.38724
G1 X65.795 Y47.346 E14.40385
G1 X65.173 Y47.584 E14.42047
G1 X64.206 Y47.796 E14.44516
G1 X63.935 Y47.83 E14.45197
G1 X62.253 Y49.466 E14.5105
G1 X61.749 Y49.901 E14.52711
G1 X61.463 Y50.105 E14.53588
G1 X61.088 Y50.355 E14.54712
G1 X60.847 Y50.495 E14.55407
G1 X60.627 Y50.696 E14.5615
G1 X60.084 Y51.083 E14.57814
G1 X59.513 Y51.395 E14.59437
G1 X58.585 Y51.834 E14.61998
G1 X58.082 Y52.043 E14.63356
G1 X57.115 Y52.389 E14.65918
G1 X56.862 Y52.463 E14.66576
G1 X56.393 Y52.693 E14.67879
G1 X55.765 Y52.914 E14.6954
G1 X55.115 Y53.058 E14.712
G1 X54.242 Y53.127 E14.73385
G1 X53.713 Y53.127 E14.74705
G1 X53.048 Y53.087 E14.76366
G1 X52.877 Y53.056 E14.768
G1 X51.7 Y53.056 E14.79736
G1 X51.472 Y53.095 E14.80313
G1 X50.874 Y53.127 E14.81807
G1 X50.262 Y53.127 E14.83333
G1 X49.597 Y53.087 E14.84995
G1 X48.942 Y52.968 E14.86656
G1 X48.306 Y52.771 E14.88317
G1 X47.756 Y52.525 E14.8982
G1 X47.294 Y52.39 E14.9102
G1 X46.324 Y52.043 E14.9359
G1 X45.82 Y51.834 E14.94951
G1 X44.892 Y51.395 E14.97512
G1 X44.308 Y51.075 E14.99173
