;FLAVOR:Marlin
;TIME:10680
;Filament used: 4.6235m
;Layer height: 0.2
;Generated with Cura_SteamEngine 3.5.0
M140 S60
M105
M190 S60
M104 S195
M105
M109 S195
M82 ;absolute extrusion mode
G21 ;metric values
G90 ;absolute positioning
M82 ;set extruder to absolute mode
M107 ;start with the fan off
G28 X0 Y0 ;move X/Y to min endstops
G28 Z0 ;move Z to min endstops
G1 Z15.0 F9000 ;move the platform down 15mm
G92 E0 ;zero the extruded length
G1 F200 E3 ;extrude 3mm of feed stock
G92 E0 ;zero the extruded length again
G1 F9000
;Put printing message on LCD screen
M117 Printing...
G92 E0
G1 F1500 E-6.5
;LAYER_COUNT:248
;LAYER:0
M107
G0 F6000 X17.3 Y23.736 Z0.2
;TYPE:SKIRT
G1 F1500 E0
G1 F2400 X17.858 Y23.501 E0.01762
G1 X22.201 Y22.061 E0.15078
G1 X22.741 Y21.924 E0.16699
G1 X23.294 Y21.866 E0.18318
G1 X23.764 Y21.879 E0.19686
G1 X30.62 Y22.488 E0.39717
G1 X36.059 Y22.634 E0.55552
G1 X41.465 Y22.473 E0.71292
G1 X47.968 Y21.878 E0.90296
G1 X48.524 Y21.867 E0.91915
G1 X48.813 Y21.893 E0.92759
G1 X53.423 Y22.483 E1.06285
G1 X58.864 Y22.899 E1.22166
G1 X64.293 Y23.007 E1.37969
G1 X69.73 Y22.808 E1.53802
G1 X73.241 Y22.517 E1.64055
G1 X73.809 Y22.512 E1.65708
G1 X77.535 Y22.751 E1.76574
G1 X82.96 Y22.849 E1.92365
G1 X90.287 Y22.508 E2.13712
G1 X90.843 Y22.522 E2.1533
G1 X91.221 Y22.578 E2.16442
G1 X94.562 Y23.241 E2.26355
G1 X95.099 Y23.388 E2.27975
G1 X95.609 Y23.611 E2.29595
G1 X96.082 Y23.904 E2.31215
G1 X96.508 Y24.262 E2.32834
G1 X96.981 Y24.818 E2.34958
G1 X98.879 Y27.526 E2.44582
G1 X99.165 Y28.003 E2.46201
G1 X99.38 Y28.517 E2.47822
G1 X99.518 Y29.056 E2.49442
G1 X99.578 Y29.609 E2.51061
G1 X99.559 Y30.165 E2.5268
G1 X99.483 Y30.617 E2.54013
G1 X98.16 Y36.381 E2.71224
G1 X97.997 Y36.913 E2.72844
G1 X97.634 Y37.623 E2.75164
G1 X95.456 Y40.98 E2.8681
G1 X92.719 Y45.664 E3.02599
G1 X90.225 Y50.543 E3.18545
G1 X89.01 Y53.2 E3.27048
G1 X88.819 Y53.565 E3.28247
G1 X86.39 Y57.661 E3.42106
G1 X86.073 Y58.118 E3.43724
G1 X85.693 Y58.524 E3.45343
G1 X85.259 Y58.873 E3.46963
G1 X84.78 Y59.155 E3.48581
G1 X84.265 Y59.366 E3.50201
G1 X83.725 Y59.501 E3.51821
G1 X83.093 Y59.559 E3.53668
G1 X75.234 Y59.631 E3.7654
G1 X69.839 Y60.011 E3.9228
G1 X64.431 Y60.7 E4.08146
G1 X59.07 Y61.693 E4.24013
G1 X56.476 Y62.289 E4.31759
G1 X51.201 Y63.739 E4.4768
G1 X46.054 Y65.472 E4.63486
G1 X40.975 Y67.509 E4.79411
G1 X37.474 Y69.098 E4.90601
G1 X36.952 Y69.291 E4.9222
G1 X36.408 Y69.407 E4.93839
G1 X35.853 Y69.444 E4.95458
G1 X35.298 Y69.401 E4.97078
G1 X34.755 Y69.279 E4.98698
G1 X33.994 Y68.958 E5.01101
G1 X32.363 Y68.054 E5.06528
G1 X31.897 Y67.75 E5.08147
G1 X31.48 Y67.383 E5.09764
G1 X31.119 Y66.959 E5.11385
G1 X30.787 Y66.42 E5.13227
G1 X28.005 Y60.942 E5.31108
G1 X25.265 Y56.258 E5.469
G1 X22.257 Y51.723 E5.62738
G1 X19.77 Y48.342 E5.74952
G1 X19.474 Y47.871 E5.76571
G1 X19.248 Y47.363 E5.7819
G1 X19.094 Y46.814 E5.79849
G1 X15.28 Y27.947 E6.35868
G1 X15.209 Y27.395 E6.37487
G1 X15.218 Y26.839 E6.39106
G1 X15.307 Y26.289 E6.40727
G1 X15.473 Y25.758 E6.42346
G1 X15.713 Y25.257 E6.43963
G1 X16.024 Y24.795 E6.45584
G1 X16.397 Y24.382 E6.47203
G1 X16.825 Y24.026 E6.48823
G1 X17.3 Y23.736 E6.50443
G0 F6000 X17.66 Y23.952
G1 F2400 X17.969 Y23.833 E6.51407
G1 X22.312 Y22.393 E6.64723
G1 X22.826 Y22.265 E6.66264
G1 X23.355 Y22.215 E6.67811
G1 X23.733 Y22.228 E6.68911
G1 X30.595 Y22.838 E6.8896
G1 X36.06 Y22.985 E7.04871
G1 X41.491 Y22.822 E7.20683
G1 X48 Y22.227 E7.39705
G1 X48.768 Y22.24 E7.41941
G1 X53.39 Y22.831 E7.55501
G1 X58.848 Y23.249 E7.71432
G1 X64.282 Y23.357 E7.8725
G1 X69.772 Y23.156 E8.03238
G1 X73.27 Y22.866 E8.13453
G1 X73.786 Y22.861 E8.14954
G1 X77.527 Y23.101 E8.25864
G1 X82.97 Y23.199 E8.41707
G1 X90.303 Y22.858 E8.63071
G1 X90.834 Y22.873 E8.64617
G1 X91.153 Y22.921 E8.65556
G1 X94.494 Y23.584 E8.75469
G1 X95.005 Y23.727 E8.77013
G1 X95.49 Y23.944 E8.78559
G1 X95.936 Y24.231 E8.80103
G1 X96.333 Y24.583 E8.81647
G1 X96.695 Y25.019 E8.83296
G1 X98.593 Y27.727 E8.9292
G1 X98.864 Y28.183 E8.94464
G1 X99.063 Y28.675 E8.96008
G1 X99.186 Y29.191 E8.97552
G1 X99.231 Y29.72 E8.99097
G1 X99.195 Y30.249 E9.0064
G1 X99.142 Y30.539 E9.01498
G1 X97.819 Y36.303 E9.18709
G1 X97.661 Y36.809 E9.20252
G1 X97.34 Y37.432 E9.22292
G1 X95.17 Y40.777 E9.33895
G1 X92.406 Y45.506 E9.49836
G1 X89.913 Y50.385 E9.65782
G1 X88.692 Y53.054 E9.74324
G1 X88.518 Y53.386 E9.75414
G1 X86.089 Y57.482 E9.89273
G1 X85.785 Y57.917 E9.90818
G1 X85.419 Y58.301 E9.92362
G1 X84.999 Y58.626 E9.93907
G1 X84.535 Y58.884 E9.95452
G1 X84.038 Y59.07 E9.96997
G1 X83.519 Y59.179 E9.9854
G1 X83.089 Y59.209 E9.99794
G1 X75.222 Y59.281 E10.2269
G1 X69.806 Y59.662 E10.38491
G1 X64.375 Y60.354 E10.54425
G1 X58.996 Y61.351 E10.70346
G1 X56.4 Y61.947 E10.78097
G1 X51.101 Y63.404 E10.94091
G1 X45.923 Y65.148 E11.09992
G1 X40.838 Y67.187 E11.25936
G1 X37.33 Y68.779 E11.37148
G1 X36.831 Y68.961 E11.38693
G1 X36.311 Y69.067 E11.40238
G1 X35.781 Y69.093 E11.41782
G1 X35.253 Y69.039 E11.43327
G1 X34.739 Y68.907 E11.44871
G1 X34.164 Y68.652 E11.46702
G1 X32.533 Y67.748 E11.52129
G1 X32.09 Y67.457 E11.53671
G1 X31.695 Y67.102 E11.55217
G1 X31.358 Y66.692 E11.56761
G1 X31.099 Y66.261 E11.58225
G1 X28.317 Y60.784 E11.76103
G1 X25.558 Y56.066 E11.92009
G1 X22.546 Y51.526 E12.07865
G1 X20.052 Y48.135 E12.20115
G1 X19.771 Y47.685 E12.21659
G1 X19.56 Y47.198 E12.23204
G1 X19.437 Y46.744 E12.24572
G1 X15.623 Y27.877 E12.80591
G1 X15.557 Y27.351 E12.82134
G1 X15.571 Y26.82 E12.8368
G1 X15.665 Y26.298 E12.85223
G1 X15.836 Y25.796 E12.86767
G1 X16.08 Y25.325 E12.8831
G1 X16.393 Y24.896 E12.89856
G1 X16.766 Y24.518 E12.91401
G1 X17.191 Y24.201 E12.92944
G1 X17.66 Y23.952 E12.9449
G0 F6000 X17.556 Y24.393
G1 F2400 X18.079 Y24.165 E12.9615
G1 X22.422 Y22.725 E13.09466
G1 X22.911 Y22.605 E13.10931
G1 X23.413 Y22.564 E13.12397
G1 X23.702 Y22.576 E13.13239
G1 X30.588 Y23.188 E13.33358
G1 X36.043 Y23.334 E13.49239
G1 X41.518 Y23.171 E13.6518
G1 X48.032 Y22.575 E13.84217
G1 X48.724 Y22.588 E13.86231
G1 X53.34 Y23.178 E13.99774
G1 X58.832 Y23.599 E14.15804
G1 X64.288 Y23.707 E14.31686
G1 X69.792 Y23.505 E14.47714
G1 X73.299 Y23.215 E14.57956
G1 X73.764 Y23.21 E14.59309
G1 X77.521 Y23.451 E14.70265
G1 X82.965 Y23.549 E14.86111
G1 X90.32 Y23.207 E15.07539
G1 X90.823 Y23.224 E15.09004
G1 X91.085 Y23.265 E15.09776
G1 X94.426 Y23.928 E15.19689
G1 X94.911 Y24.065 E15.21155
G1 X95.368 Y24.276 E15.2262
G1 X95.785 Y24.558 E15.24085
G1 X96.153 Y24.902 E15.25551
G1 X96.408 Y25.22 E15.26738
G1 X98.306 Y27.928 E15.36362
G1 X98.561 Y28.362 E15.37826
G1 X98.745 Y28.831 E15.39293
G1 X98.852 Y29.323 E15.40758
G1 X98.88 Y29.826 E15.42224
G1 X98.801 Y30.46 E15.44083
G1 X97.478 Y36.224 E15.61294
G1 X97.326 Y36.705 E15.62763
G1 X97.047 Y37.242 E15.64524
G1 X94.863 Y40.609 E15.76203
G1 X92.098 Y45.339 E15.92148
G1 X89.595 Y50.237 E16.08156
G1 X88.373 Y52.909 E16.16707
G1 X88.217 Y53.207 E16.17686
G1 X85.788 Y57.303 E16.31545
G1 X85.498 Y57.715 E16.33011
G1 X85.146 Y58.075 E16.34476
G1 X84.741 Y58.375 E16.35943
G1 X84.295 Y58.608 E16.37408
G1 X83.817 Y58.767 E16.38874
G1 X83.086 Y58.859 E16.41018
G1 X75.211 Y58.931 E16.63937
G1 X69.771 Y59.314 E16.79808
G1 X64.324 Y60.008 E16.95789
G1 X58.923 Y61.009 E17.11775
G1 X56.303 Y61.61 E17.19597
G1 X50.997 Y63.069 E17.35612
G1 X45.808 Y64.817 E17.51548
G1 X40.693 Y66.868 E17.67586
G1 X37.185 Y68.46 E17.78797
G1 X36.711 Y68.631 E17.80264
G1 X36.217 Y68.725 E17.81727
G1 X35.713 Y68.74 E17.83194
G1 X35.214 Y68.675 E17.84659
G1 X34.731 Y68.532 E17.86125
G1 X34.334 Y68.346 E17.87401
G1 X32.703 Y67.442 E17.92828
G1 X32.283 Y67.164 E17.94294
G1 X31.913 Y66.823 E17.95758
G1 X31.601 Y66.427 E17.97225
G1 X31.411 Y66.103 E17.98318
G1 X28.622 Y60.612 E18.16242
G1 X25.857 Y55.885 E18.32179
G1 X22.825 Y51.314 E18.48142
G1 X20.334 Y47.927 E18.60378
G1 X20.069 Y47.499 E18.61843
G1 X19.875 Y47.035 E18.63307
G1 X19.78 Y46.675 E18.6439
G1 X15.966 Y27.808 E19.20409
G1 X15.906 Y27.308 E19.21875
G1 X15.925 Y26.805 E19.23339
G1 X16.024 Y26.311 E19.24806
G1 X16.2 Y25.839 E19.26272
G1 X16.448 Y25.401 E19.27737
G1 X16.762 Y25.007 E19.29203
G1 X17.134 Y24.668 E19.30668
G1 X17.556 Y24.393 E19.32133
G1 F1500 E12.82133
G0 F6000 X19.742 Y26.516
G0 X19.725 Y27.717
G0 X22.468 Y28.137
;TYPE:WALL-INNER
G1 F1500 E19.32133
G1 F2400 X23.499 Y26.937 E19.36738
G1 X24.638 Y27.895 E19.41069
G1 X25.129 Y28.054 E19.42571
G1 X26.285 Y27.679 E19.46108
G1 X26.483 Y27.615 E19.46714
G1 X26.51 Y27.822 E19.47087
G1 X27.663 Y36.431 E19.72366
G1 X27.708 Y36.692 E19.73136
G1 X26.957 Y44.951 E19.97271
G1 X23.58 Y45.125 E20.07112
G1 X20.181 Y28.271 E20.57149
G1 X20.139 Y28.06 E20.57776
G1 X20.354 Y28.061 E20.58159
G1 X20.355 Y28.062 E20.58163
G1 X21.987 Y28.084 E20.62913
G1 X22.468 Y28.137 E20.64321
G0 F6000 X22.323 Y27.769
G1 F2400 X23.46 Y26.447 E20.69396
G1 X24.811 Y27.583 E20.74533
G1 X25.129 Y27.686 E20.75506
G1 X26.576 Y27.217 E20.79933
G1 X26.774 Y27.153 E20.80538
G1 X26.801 Y27.36 E20.80912
G1 X28.009 Y36.378 E21.07391
G1 X28.061 Y36.68 E21.08283
G1 X27.279 Y45.285 E21.33429
G1 X23.297 Y45.491 E21.45033
G1 X19.752 Y27.916 E21.97211
G1 X19.71 Y27.705 E21.97837
G1 X19.925 Y27.706 E21.98221
G1 X19.926 Y27.707 E21.98225
G1 X22.01 Y27.734 E22.0429
G1 X22.323 Y27.769 E22.05207
G0 F6000 X22.189 Y27.427
;TYPE:WALL-OUTER
G1 F2400 X23.424 Y25.992 E22.10717
G1 X24.971 Y27.293 E22.16599
G1 X25.129 Y27.344 E22.17083
G1 X26.846 Y26.788 E22.22335
G1 X27.044 Y26.724 E22.22941
G1 X27.071 Y26.931 E22.23314
G1 X28.33 Y36.328 E22.50907
G1 X28.385 Y36.634 E22.51811
G1 X28.386 Y36.694 E22.51986
G1 X27.577 Y45.595 E22.77997
G1 X23.034 Y45.831 E22.91236
G1 X19.354 Y27.586 E23.45403
G1 X19.312 Y27.375 E23.46029
G1 X19.527 Y27.376 E23.46413
G1 X19.528 Y27.377 E23.46417
G1 X22.031 Y27.409 E23.53702
G1 X22.189 Y27.427 E23.54165
G0 F6000 X22.319 Y27.276
G0 X22.64 Y27.553
G0 X21.966 Y28.424
;TYPE:SKIN
G1 F2400 X22.609 Y28.495 E23.56047
G1 X23.538 Y27.414 E23.60195
G1 X24.471 Y28.198 E23.63742
G1 X25.129 Y28.411 E23.65755
G1 X26.2 Y28.064 E23.69031
G1 X27.327 Y36.482 E23.93748
G1 X27.366 Y36.708 E23.94416
G1 X26.646 Y44.626 E24.17554
G1 X23.856 Y44.77 E24.25685
G1 X20.556 Y28.406 E24.74267
G1 X21.966 Y28.424 E24.78371
G0 F6000 X25.863 Y28.338
G1 F2400 X26.112 Y28.586 E24.79394
G0 F6000 X26.189 Y29.158
G1 F2400 X25.489 Y28.458 E24.82275
G0 F6000 X25.102 Y28.567
G1 F2400 X26.265 Y29.73 E24.87061
G0 F6000 X26.341 Y30.301
G1 F2400 X24.289 Y28.249 E24.95507
G1 X24.227 Y28.187
G0 F6000 X23.381 Y27.835
G1 F2400 X26.418 Y30.872 E25.08006
G0 F6000 X26.494 Y31.444
G1 F2400 X23.152 Y28.102 E25.21761
G0 F6000 X22.923 Y28.368
G1 F2400 X26.571 Y32.016 E25.36775
G0 F6000 X26.648 Y32.587
G1 F2400 X22.694 Y28.634 E25.53047
G0 F6000 X22.169 Y28.603
G1 F2400 X26.724 Y33.159 E25.71796
G0 F6000 X26.8 Y33.73
G1 F2400 X21.647 Y28.577 E25.93004
G0 F6000 X21.146 Y28.57
G1 F2400 X26.877 Y34.301 E26.16592
G0 F6000 X26.953 Y34.873
G1 F2400 X20.774 Y28.693 E26.42025
G0 F6000 X20.899 Y29.313
G1 F2400 X27.03 Y35.445 E26.6726
G0 F6000 X27.106 Y36.016
G1 F2400 X21.024 Y29.933 E26.92294
G0 F6000 X21.149 Y30.554
G1 F2400 X27.186 Y36.591 E27.17141
G0 F6000 X27.175 Y37.075
G1 F2400 X21.274 Y31.174 E27.41428
G0 F6000 X21.399 Y31.793
G1 F2400 X27.134 Y37.528 E27.65032
G0 F6000 X27.093 Y37.982
G1 F2400 X21.524 Y32.413 E27.87952
G0 F6000 X21.649 Y33.033
G1 F2400 X27.051 Y38.436 E28.10187
G0 F6000 X27.01 Y38.89
G1 F2400 X21.774 Y33.654 E28.31737
G0 F6000 X21.899 Y34.274
G1 F2400 X26.969 Y39.344 E28.52604
G0 F6000 X26.928 Y39.797
G1 F2400 X22.024 Y34.893 E28.72788
G0 F6000 X22.149 Y35.513
G1 F2400 X26.887 Y40.251 E28.92288
G0 F6000 X26.846 Y40.705
G1 F2400 X22.274 Y36.133 E29.11105
G0 F6000 X22.399 Y36.753
G1 F2400 X26.805 Y41.159 E29.29239
G0 F6000 X26.763 Y41.612
G1 F2400 X22.524 Y37.374 E29.46683
G0 F6000 X22.649 Y37.993
G1 F2400 X26.722 Y42.066 E29.63447
G0 F6000 X26.681 Y42.52
G1 F2400 X22.774 Y38.613 E29.79527
G0 F6000 X22.899 Y39.233
G1 F2400 X26.639 Y42.973 E29.9492
G0 F6000 X26.598 Y43.427
G1 F2400 X23.024 Y39.853 E30.09629
G0 F6000 X23.149 Y40.474
G1 F2400 X26.557 Y43.881 E30.23654
G0 F6000 X26.515 Y44.334
G1 F2400 X23.274 Y41.093 E30.36993
G0 F6000 X23.399 Y41.713
G1 F2400 X26.177 Y44.491 E30.48426
G0 F6000 X25.706 Y44.515
G1 F2400 X23.524 Y42.333 E30.57407
G0 F6000 X23.649 Y42.953
G1 F2400 X25.235 Y44.539 E30.63935
G0 F6000 X24.765 Y44.563
G1 F2400 X23.775 Y43.574 E30.68007
G0 F6000 X23.899 Y44.193
G1 F2400 X24.294 Y44.588 E30.69633
G1 F1500 E24.19633
G0 F6000 X28.042 Y36.68
G0 X29.237 Y36.786
G0 X30.154 Y37.62
G0 X31.184 Y38.25
G0 X38.309 Y35.21
;TYPE:WALL-INNER
G1 F1500 E30.69633
G1 F2400 X40.225 Y38.338 E30.80308
G1 X39.931 Y43.52 E30.95413
G1 X36.716 Y64.12 E31.5609
G1 X35.874 Y64.6 E31.58911
G1 X35.025 Y64.115 E31.61757
G1 X31.814 Y43.521 E32.22415
G1 X31.52 Y38.336 E32.37529
G1 X33.437 Y35.211 E32.48198
G1 X35.873 Y34.745 E32.55416
G1 X38.309 Y35.21 E32.62633
G0 F6000 X38.526 Y34.895
G1 F2400 X40.58 Y38.248 E32.74077
G1 X40.279 Y43.563 E32.8957
G1 X37.036 Y64.34 E33.50768
G1 X35.873 Y65.003 E33.54664
G1 X34.705 Y64.336 E33.58579
G1 X31.466 Y43.564 E34.19761
G1 X31.165 Y38.246 E34.35263
G1 X33.22 Y34.896 E34.467
G1 X35.873 Y34.388 E34.54562
G1 X38.526 Y34.895 E34.62422
G0 F6000 X38.728 Y34.603
;TYPE:WALL-OUTER
G1 F2400 X40.91 Y38.164 E34.74576
G1 X40.602 Y43.601 E34.90425
G1 X37.333 Y64.545 E35.52115
G1 X35.937 Y65.34 E35.56791
G1 X35.874 Y65.365 E35.56988
G1 X35.806 Y65.338 E35.57201
G1 X34.414 Y64.544 E35.61865
G1 X34.38 Y64.364 E35.62398
G1 X31.143 Y43.602 E36.23551
G1 X30.835 Y38.162 E36.39408
G1 X33.018 Y34.604 E36.51556
G1 X35.873 Y34.057 E36.60016
G1 X38.728 Y34.603 E36.68475
G0 F6000 X38.832 Y34.773
G0 X38.469 Y34.993
G0 X38.098 Y35.516
;TYPE:SKIN
G1 F2400 X39.879 Y38.424 E36.784
G1 X39.591 Y43.489 E36.93164
G1 X36.405 Y63.906 E37.53302
G1 X35.874 Y64.208 E37.5508
G1 X35.336 Y63.901 E37.56882
G1 X32.154 Y43.49 E38.17001
G1 X31.866 Y38.423 E38.31771
G1 X33.649 Y35.516 E38.41696
G1 X35.873 Y35.091 E38.48285
G1 X38.098 Y35.516 E38.54878
G0 F6000 X37.553 Y35.573
G1 F2400 X38.573 Y36.593 E38.59076
G1 X38.635 Y36.655
G0 F6000 X39.356 Y37.871
G1 F2400 X36.94 Y35.455 E38.69019
G0 F6000 X36.329 Y35.339
G1 F2400 X39.704 Y38.714 E38.8291
G0 F6000 X39.678 Y39.183
G1 F2400 X35.766 Y35.271 E38.99011
G0 F6000 X35.351 Y35.351
G1 F2400 X39.651 Y39.651 E39.16708
G0 F6000 X39.624 Y40.119
G1 F2400 X34.936 Y35.43 E39.36005
G0 F6000 X34.52 Y35.51
G1 F2400 X39.598 Y40.588 E39.56905
G0 F6000 X39.571 Y41.056
G1 F2400 X34.104 Y35.589 E39.79405
G0 F6000 X33.719 Y35.699
G1 F2400 X39.544 Y41.524 E40.0338
G0 F6000 X39.518 Y41.993
G1 F2400 X33.531 Y36.006 E40.2802
G0 F6000 X33.343 Y36.313
G1 F2400 X39.491 Y42.461 E40.53324
G0 F6000 X39.465 Y42.929
G1 F2400 X33.155 Y36.62 E40.79292
G0 F6000 X32.966 Y36.926
G1 F2400 X39.438 Y43.398 E41.05929
G0 F6000 X39.378 Y43.832
G1 F2400 X32.778 Y37.233 E41.33091
G0 F6000 X32.59 Y37.54
G1 F2400 X39.311 Y44.261 E41.60753
G0 F6000 X39.244 Y44.689
G1 F2400 X32.402 Y37.847 E41.88913
G0 F6000 X32.214 Y38.154
G1 F2400 X39.177 Y45.117 E42.17571
G0 F6000 X39.11 Y45.545
G1 F2400 X32.026 Y38.46 E42.46728
G0 F6000 X32.055 Y38.985
G1 F2400 X39.044 Y45.973 E42.75491
G0 F6000 X38.977 Y46.401
G1 F2400 X32.085 Y39.51 E43.03855
G0 F6000 X32.115 Y40.034
G1 F2400 X38.91 Y46.83 E43.31823
G0 F6000 X38.843 Y47.258
G1 F2400 X32.145 Y40.559 E43.59392
G0 F6000 X32.174 Y41.084
G1 F2400 X38.777 Y47.686 E43.86567
G0 F6000 X38.709 Y48.114
G1 F2400 X32.204 Y41.608 E44.13341
G0 F6000 X32.234 Y42.133
G1 F2400 X38.643 Y48.542 E44.39719
G0 F6000 X38.576 Y48.97
G1 F2400 X32.263 Y42.658 E44.657
G0 F6000 X32.293 Y43.183
G1 F2400 X38.509 Y49.399 E44.91283
G0 F6000 X38.442 Y49.826
G1 F2400 X32.35 Y43.735 E45.16354
G0 F6000 X32.442 Y44.321
G1 F2400 X38.376 Y50.255 E45.40777
G0 F6000 X38.308 Y50.683
G1 F2400 X32.533 Y44.908 E45.64545
G0 F6000 X32.625 Y45.494
G1 F2400 X38.242 Y51.111 E45.87663
G0 F6000 X38.175 Y51.539
G1 F2400 X32.716 Y46.08 E46.10131
G0 F6000 X32.808 Y46.667
G1 F2400 X38.108 Y51.968 E46.31947
G0 F6000 X38.041 Y52.395
G1 F2400 X32.899 Y47.253 E46.5311
G0 F6000 X32.99 Y47.84
G1 F2400 X37.975 Y52.824 E46.73624
G0 F6000 X37.907 Y53.252
G1 F2400 X33.082 Y48.426 E46.93485
