;FLAVOR:Marlin
;TIME:2346
;Filament used: 1.15442m
;Layer height: 0.2
;Generated with Cura_SteamEngine 3.4.1
M190 S75
M104 S220
M109 S220
M82 ;absolute extrusion mode
G21 ;metric values
G90 ;absolute positioning
M82 ;set extruder to absolute mode
M107 ;start with the fan off
G28 X0 Y0 ;move X/Y to min endstops
G28 Z0 ;move Z to min endstops
G1 Z15.0 F9000 ;move the platform down 15mm
G92 E0 ;zero the extruded length
G1 F200 E3 ;extrude 3mm of feed stock
G92 E0 ;zero the extruded length again
G1 F9000
;Put printing message on LCD screen
M117 Printing...
G92 E0
G1 F1500 E-6.5
;LAYER_COUNT:51
;LAYER:0
M107
G0 F3000 X37.767 Y27.345 Z0.2
;TYPE:SKIRT
G1 F1500 E0
G1 F1200 X38.261 Y26.719 E0.01989
G1 X38.814 Y26.146 E0.03976
G1 X39.591 Y25.506 E0.06487
G1 X39.84 Y25.326 E0.07253
G1 X40.508 Y24.892 E0.0924
G1 X41.217 Y24.527 E0.1123
G1 X41.959 Y24.235 E0.13219
G1 X42.726 Y24.019 E0.15206
G1 X43.511 Y23.88 E0.17195
G1 X44.485 Y23.819 E0.19629
G1 X56.717 Y23.8 E0.50142
G1 X57.513 Y23.839 E0.5213
G1 X58.301 Y23.957 E0.54118
G1 X59.074 Y24.154 E0.56108
G1 X59.823 Y24.427 E0.58096
G1 X60.325 Y24.66 E0.59477
G1 X60.601 Y24.8 E0.60249
G1 X61.293 Y25.196 E0.62238
G1 X61.942 Y25.659 E0.64227
G1 X62.542 Y26.185 E0.66217
G1 X63.085 Y26.768 E0.68204
G1 X63.568 Y27.403 E0.70194
G1 X64.095 Y28.294 E0.72777
G1 X64.235 Y28.57 E0.73549
G1 X64.56 Y29.298 E0.75538
G1 X64.81 Y30.055 E0.77526
G1 X64.982 Y30.833 E0.79514
G1 X65.077 Y31.625 E0.81504
G1 X65.095 Y32.195 E0.82926
G1 X65.076 Y37.427 E0.95978
G1 X65.033 Y38.223 E0.97966
G1 X64.911 Y39.011 E0.99955
G1 X64.71 Y39.782 E1.01943
G1 X64.433 Y40.53 E1.03932
G1 X64.083 Y41.246 E1.0592
G1 X63.569 Y42.055 E1.08311
G1 X63.389 Y42.304 E1.09078
G1 X63.142 Y42.612 E1.10063
G1 X63.124 Y48.785 E1.25461
G1 X69.747 Y48.8 E1.41983
G1 X70.543 Y48.842 E1.43971
G1 X71.331 Y48.963 E1.4596
G1 X72.103 Y49.163 E1.47949
G1 X72.851 Y49.439 E1.49938
G1 X73.325 Y49.66 E1.51242
G1 X73.601 Y49.8 E1.52014
G1 X74.293 Y50.196 E1.54003
G1 X74.942 Y50.659 E1.55992
G1 X75.542 Y51.185 E1.57982
G1 X76.085 Y51.768 E1.5997
G1 X76.568 Y52.403 E1.6196
G1 X77.095 Y53.294 E1.64542
G1 X77.235 Y53.57 E1.65314
G1 X77.56 Y54.298 E1.67303
G1 X77.81 Y55.055 E1.69292
G1 X77.982 Y55.833 E1.71279
G1 X78.077 Y56.625 E1.73269
G1 X78.094 Y57.289 E1.74926
G1 X78.075 Y58.521 E1.78
G1 X78.023 Y59.316 E1.79987
G1 X77.891 Y60.102 E1.81975
G1 X77.681 Y60.872 E1.83966
G1 X77.396 Y61.616 E1.85953
G1 X77.037 Y62.328 E1.87942
G1 X76.569 Y63.055 E1.90099
G1 X76.389 Y63.304 E1.90866
G1 X75.89 Y63.926 E1.92855
G1 X75.331 Y64.495 E1.94845
G1 X74.719 Y65.005 E1.96832
G1 X74.058 Y65.451 E1.98821
G1 X73.356 Y65.829 E2.0081
G1 X72.422 Y66.202 E2.03319
G1 X72.126 Y66.299 E2.04096
G1 X71.357 Y66.509 E2.06084
G1 X70.57 Y66.641 E2.08075
G1 X69.68 Y66.694 E2.10299
G1 X63.133 Y66.719 E2.2663
G1 X63.114 Y72.807 E2.41817
G1 X63.568 Y73.403 E2.43686
G1 X64.095 Y74.294 E2.46268
G1 X64.235 Y74.57 E2.4704
G1 X64.56 Y75.298 E2.49029
G1 X64.81 Y76.055 E2.51018
G1 X64.982 Y76.833 E2.53005
G1 X65.077 Y77.625 E2.54995
G1 X65.095 Y78.195 E2.56418
G1 X65.076 Y83.427 E2.69469
G1 X65.033 Y84.223 E2.71458
G1 X64.911 Y85.011 E2.73447
G1 X64.71 Y85.782 E2.75434
G1 X64.433 Y86.53 E2.77424
G1 X64.083 Y87.246 E2.79412
G1 X63.569 Y88.055 E2.81803
G1 X63.389 Y88.304 E2.82569
G1 X62.89 Y88.926 E2.84559
G1 X62.331 Y89.495 E2.86548
G1 X61.719 Y90.005 E2.88536
G1 X61.058 Y90.451 E2.90525
G1 X60.356 Y90.829 E2.92514
G1 X59.422 Y91.202 E2.95022
G1 X59.126 Y91.299 E2.95799
G1 X58.357 Y91.509 E2.97788
G1 X57.57 Y91.641 E2.99778
G1 X56.614 Y91.694 E3.02167
G1 X44.388 Y91.639 E3.32665
G1 X43.592 Y91.595 E3.34654
G1 X42.804 Y91.472 E3.36643
G1 X42.033 Y91.271 E3.38631
G1 X41.286 Y90.993 E3.40619
G1 X40.57 Y90.642 E3.42608
G1 X39.893 Y90.221 E3.44597
G1 X39.261 Y89.735 E3.46586
G1 X38.803 Y89.31 E3.48144
G1 X38.585 Y89.092 E3.48913
G1 X38.05 Y88.501 E3.50902
G1 X37.577 Y87.859 E3.52891
G1 X37.171 Y87.173 E3.5488
G1 X36.835 Y86.45 E3.56868
G1 X36.574 Y85.697 E3.58856
G1 X36.389 Y84.921 E3.60846
G1 X36.283 Y84.131 E3.62835
G1 X36.256 Y83.555 E3.64273
G1 X36.201 Y78.329 E3.7731
G1 X36.233 Y77.532 E3.793
G1 X36.344 Y76.743 E3.81287
G1 X36.596 Y75.769 E3.83797
G1 X36.693 Y75.473 E3.84574
G1 X36.979 Y74.729 E3.86562
G1 X37.338 Y74.017 E3.88551
G1 X37.767 Y73.345 E3.9054
G1 X38.19 Y72.809 E3.92243
G1 X38.184 Y66.665 E4.0757
G1 X31.393 Y66.639 E4.2451
G1 X30.597 Y66.596 E4.26499
G1 X29.809 Y66.473 E4.28488
G1 X29.038 Y66.272 E4.30476
G1 X28.29 Y65.995 E4.32465
G1 X27.574 Y65.645 E4.34453
G1 X26.897 Y65.224 E4.36442
G1 X26.265 Y64.738 E4.38431
G1 X25.803 Y64.31 E4.40002
G1 X25.585 Y64.092 E4.40771
G1 X25.05 Y63.501 E4.4276
G1 X24.577 Y62.859 E4.44749
G1 X24.171 Y62.173 E4.46737
G1 X23.835 Y61.45 E4.48726
G1 X23.574 Y60.697 E4.50714
G1 X23.389 Y59.921 E4.52704
G1 X23.264 Y58.827 E4.55451
G1 X23.209 Y57.601 E4.58512
G1 X23.213 Y56.804 E4.605
G1 X23.297 Y56.011 E4.62489
G1 X23.46 Y55.231 E4.64477
G1 X23.596 Y54.769 E4.65679
G1 X23.693 Y54.473 E4.66456
G1 X23.979 Y53.729 E4.68444
G1 X24.338 Y53.017 E4.70433
G1 X24.767 Y52.345 E4.72422
G1 X25.261 Y51.719 E4.74411
G1 X25.814 Y51.146 E4.76397
G1 X26.591 Y50.506 E4.78908
G1 X26.84 Y50.326 E4.79675
G1 X27.508 Y49.892 E4.81662
G1 X28.217 Y49.527 E4.83651
G1 X28.959 Y49.235 E4.8564
G1 X29.726 Y49.019 E4.87628
G1 X30.511 Y48.88 E4.89617
G1 X31.48 Y48.819 E4.92039
G1 X38.187 Y48.804 E5.08769
G1 X38.181 Y42.645 E5.24133
G1 X38.05 Y42.501 E5.24619
G1 X37.577 Y41.859 E5.26608
G1 X37.171 Y41.173 E5.28596
G1 X36.835 Y40.45 E5.30585
G1 X36.574 Y39.697 E5.32573
G1 X36.389 Y38.921 E5.34563
G1 X36.283 Y38.131 E5.36551
G1 X36.256 Y37.555 E5.3799
G1 X36.201 Y32.329 E5.51027
G1 X36.233 Y31.532 E5.53017
G1 X36.344 Y30.743 E5.55004
G1 X36.596 Y29.769 E5.57514
G1 X36.693 Y29.473 E5.58291
G1 X36.979 Y28.729 E5.60279
G1 X37.338 Y28.017 E5.62268
G1 X37.767 Y27.345 E5.64257
G0 F3000 X38.037 Y27.482
G1 F1200 X38.526 Y26.872 E5.66207
G1 X39.074 Y26.314 E5.68158
G1 X39.766 Y25.749 E5.70387
G1 X40.015 Y25.569 E5.71153
G1 X40.672 Y25.144 E5.73105
G1 X41.368 Y24.788 E5.75055
G1 X42.097 Y24.505 E5.77006
G1 X42.851 Y24.298 E5.78956
G1 X43.623 Y24.169 E5.80909
G1 X44.485 Y24.119 E5.83063
G1 X56.717 Y24.1 E6.13576
G1 X57.498 Y24.139 E6.15526
G1 X58.271 Y24.257 E6.17477
G1 X59.028 Y24.454 E6.19428
G1 X59.761 Y24.727 E6.21379
G1 X60.19 Y24.928 E6.22561
G1 X60.466 Y25.068 E6.23333
G1 X61.144 Y25.456 E6.25282
G1 X61.779 Y25.913 E6.27233
G1 X62.365 Y26.431 E6.29184
G1 X62.894 Y27.007 E6.31135
G1 X63.362 Y27.634 E6.33087
G1 X63.827 Y28.429 E6.35384
G1 X63.967 Y28.705 E6.36156
G1 X64.285 Y29.42 E6.38108
G1 X64.528 Y30.163 E6.40058
G1 X64.694 Y30.928 E6.42011
G1 X64.781 Y31.705 E6.43961
G1 X64.795 Y32.194 E6.45182
G1 X64.776 Y37.426 E6.58233
G1 X64.733 Y38.207 E6.60184
G1 X64.611 Y38.979 E6.62134
G1 X64.41 Y39.735 E6.64085
G1 X64.134 Y40.466 E6.66034
G1 X63.784 Y41.166 E6.67987
G1 X63.326 Y41.88 E6.70103
G1 X63.146 Y42.129 E6.70869
G1 X62.843 Y42.506 E6.72076
G1 X62.823 Y49.084 E6.88484
G1 X69.746 Y49.1 E7.05754
G1 X70.527 Y49.142 E7.07705
G1 X71.3 Y49.263 E7.09657
G1 X72.056 Y49.462 E7.11607
G1 X72.788 Y49.738 E7.13558
G1 X73.19 Y49.928 E7.14668
G1 X73.466 Y50.068 E7.1544
G1 X74.144 Y50.456 E7.17388
G1 X74.779 Y50.913 E7.1934
G1 X75.365 Y51.431 E7.21291
G1 X75.894 Y52.007 E7.23242
G1 X76.362 Y52.634 E7.25193
G1 X76.827 Y53.429 E7.27491
G1 X76.967 Y53.705 E7.28263
G1 X77.285 Y54.42 E7.30215
G1 X77.528 Y55.163 E7.32165
G1 X77.694 Y55.928 E7.34118
G1 X77.781 Y56.705 E7.36068
G1 X77.794 Y57.284 E7.37513
G1 X77.775 Y58.516 E7.40586
G1 X77.723 Y59.296 E7.42536
G1 X77.592 Y60.067 E7.44487
G1 X77.382 Y60.821 E7.46439
G1 X77.097 Y61.549 E7.4839
G1 X76.739 Y62.244 E7.5034
G1 X76.326 Y62.88 E7.52232
G1 X76.146 Y63.129 E7.52998
G1 X75.656 Y63.738 E7.54948
G1 X75.106 Y64.295 E7.569
G1 X74.503 Y64.792 E7.5885
G1 X73.851 Y65.225 E7.60802
G1 X73.159 Y65.589 E7.62753
G1 X72.328 Y65.917 E7.64981
G1 X72.032 Y66.014 E7.65758
G1 X71.278 Y66.219 E7.67707
G1 X70.506 Y66.346 E7.69659
G1 X69.679 Y66.394 E7.71725
G1 X62.834 Y66.42 E7.888
G1 X62.814 Y72.92 E8.05015
G1 X62.894 Y73.007 E8.0531
G1 X63.362 Y73.634 E8.07261
G1 X63.827 Y74.429 E8.09559
G1 X63.967 Y74.705 E8.10331
G1 X64.285 Y75.42 E8.12283
G1 X64.528 Y76.163 E8.14233
G1 X64.694 Y76.928 E8.16186
G1 X64.781 Y77.705 E8.18136
G1 X64.795 Y78.194 E8.19356
G1 X64.776 Y83.426 E8.32408
G1 X64.733 Y84.207 E8.34359
G1 X64.611 Y84.979 E8.36308
G1 X64.41 Y85.735 E8.3826
G1 X64.134 Y86.466 E8.40209
G1 X63.784 Y87.166 E8.42161
G1 X63.326 Y87.88 E8.44277
G1 X63.146 Y88.129 E8.45044
G1 X62.656 Y88.738 E8.46993
G1 X62.106 Y89.295 E8.48946
G1 X61.503 Y89.792 E8.50895
G1 X60.851 Y90.225 E8.52848
G1 X60.159 Y90.589 E8.54798
G1 X59.328 Y90.917 E8.57027
G1 X59.032 Y91.014 E8.57804
G1 X58.278 Y91.219 E8.59753
G1 X57.506 Y91.346 E8.61705
G1 X56.616 Y91.394 E8.63928
G1 X44.39 Y91.339 E8.94426
G1 X43.609 Y91.295 E8.96377
G1 X42.836 Y91.172 E8.9833
G1 X42.081 Y90.971 E9.00279
G1 X41.349 Y90.694 E9.02231
G1 X40.65 Y90.343 E9.04182
G1 X39.991 Y89.923 E9.06132
G1 X39.377 Y89.438 E9.08084
G1 X39.015 Y89.098 E9.09322
G1 X38.797 Y88.88 E9.10091
G1 X38.273 Y88.3 E9.12041
G1 X37.811 Y87.669 E9.13992
G1 X37.415 Y86.994 E9.15944
G1 X37.091 Y86.282 E9.17896
G1 X36.841 Y85.541 E9.19846
G1 X36.669 Y84.779 E9.21795
G1 X36.574 Y84.002 E9.23748
G1 X36.556 Y83.552 E9.24871
G1 X36.501 Y78.326 E9.37908
G1 X36.533 Y77.544 E9.39861
G1 X36.645 Y76.77 E9.41811
G1 X36.881 Y75.863 E9.44149
G1 X36.978 Y75.567 E9.44926
G1 X37.26 Y74.837 E9.46878
G1 X37.614 Y74.14 E9.48828
G1 X38.037 Y73.482 E9.5078
G1 X38.49 Y72.916 E9.52588
G1 X38.484 Y66.366 E9.68927
G1 X31.394 Y66.339 E9.86613
G1 X30.614 Y66.296 E9.88562
G1 X29.841 Y66.173 E9.90515
G1 X29.085 Y65.973 E9.92465
G1 X28.354 Y65.696 E9.94415
G1 X27.655 Y65.346 E9.96365
G1 X26.995 Y64.926 E9.98317
G1 X26.381 Y64.441 E10.00269
G1 X26.015 Y64.098 E10.0152
G1 X25.797 Y63.88 E10.02289
G1 X25.273 Y63.3 E10.04239
G1 X24.811 Y62.669 E10.0619
G1 X24.415 Y61.994 E10.08142
G1 X24.091 Y61.282 E10.10093
G1 X23.841 Y60.541 E10.12044
G1 X23.669 Y59.779 E10.13993
G1 X23.564 Y58.814 E10.16414
G1 X23.509 Y57.588 E10.19475
G1 X23.514 Y56.806 E10.21426
G1 X23.598 Y56.028 E10.23378
G1 X23.762 Y55.264 E10.25327
G1 X23.881 Y54.863 E10.26371
G1 X23.978 Y54.567 E10.27148
G1 X24.26 Y53.837 E10.291
G1 X24.614 Y53.14 E10.3105
G1 X25.037 Y52.482 E10.33001
G1 X25.526 Y51.872 E10.34952
G1 X26.074 Y51.314 E10.36902
G1 X26.766 Y50.749 E10.39131
G1 X27.015 Y50.569 E10.39897
G1 X27.672 Y50.144 E10.41849
G1 X28.368 Y49.788 E10.43799
G1 X29.097 Y49.505 E10.4575
G1 X29.851 Y49.298 E10.47701
G1 X30.623 Y49.169 E10.49653
G1 X31.48 Y49.119 E10.51794
G1 X38.487 Y49.104 E10.69274
G1 X38.481 Y42.53 E10.85672
G1 X38.273 Y42.3 E10.86446
G1 X37.811 Y41.669 E10.88397
G1 X37.415 Y40.994 E10.90349
G1 X37.091 Y40.282 E10.923
G1 X36.841 Y39.541 E10.94251
G1 X36.669 Y38.779 E10.962
G1 X36.574 Y38.002 E10.98152
G1 X36.556 Y37.552 E10.99276
G1 X36.501 Y32.326 E11.12313
G1 X36.533 Y31.544 E11.14265
G1 X36.645 Y30.77 E11.16216
G1 X36.881 Y29.863 E11.18554
G1 X36.978 Y29.567 E11.19331
G1 X37.26 Y28.837 E11.21283
G1 X37.614 Y28.14 E11.23233
G1 X38.037 Y27.482 E11.25184
G0 F3000 X38.308 Y27.621
G1 F1200 X38.791 Y27.025 E11.27098
G1 X39.333 Y26.484 E11.29008
G1 X39.942 Y25.992 E11.30961
G1 X40.191 Y25.812 E11.31728
G1 X40.835 Y25.396 E11.3364
G1 X41.518 Y25.05 E11.3555
G1 X42.234 Y24.776 E11.37463
G1 X42.975 Y24.578 E11.39376
G1 X43.732 Y24.459 E11.41287
G1 X44.486 Y24.419 E11.43171
G1 X56.718 Y24.4 E11.73684
G1 X57.483 Y24.439 E11.75595
G1 X58.241 Y24.557 E11.77508
G1 X58.981 Y24.754 E11.79418
G1 X59.698 Y25.026 E11.81331
G1 X60.054 Y25.195 E11.82314
G1 X60.33 Y25.335 E11.83086
G1 X60.995 Y25.717 E11.84999
G1 X61.616 Y26.166 E11.86911
G1 X62.187 Y26.677 E11.88822
G1 X62.702 Y27.245 E11.90735
G1 X63.154 Y27.864 E11.92647
G1 X63.56 Y28.565 E11.94668
G1 X63.7 Y28.841 E11.9544
G1 X64.011 Y29.542 E11.97353
G1 X64.247 Y30.271 E11.99264
G1 X64.405 Y31.021 E12.01176
G1 X64.485 Y31.783 E12.03087
G1 X64.495 Y32.193 E12.0411
G1 X64.476 Y37.425 E12.17162
G1 X64.433 Y38.19 E12.19073
G1 X64.311 Y38.947 E12.20986
G1 X64.111 Y39.687 E12.22898
G1 X63.834 Y40.402 E12.24811
G1 X63.485 Y41.084 E12.26722
G1 X63.083 Y41.704 E12.28565
G1 X62.903 Y41.953 E12.29331
G1 X62.543 Y42.4 E12.30763
G1 X62.522 Y49.384 E12.48185
G1 X69.746 Y49.4 E12.66205
G1 X70.511 Y49.442 E12.68116
G1 X71.268 Y49.563 E12.70029
G1 X72.008 Y49.762 E12.7194
G1 X73.054 Y50.195 E12.74764
G1 X73.33 Y50.335 E12.75536
G1 X73.995 Y50.717 E12.77449
G1 X74.616 Y51.166 E12.79361
G1 X75.187 Y51.677 E12.81272
G1 X75.702 Y52.245 E12.83185
G1 X76.154 Y52.864 E12.85097
G1 X76.56 Y53.565 E12.87118
G1 X76.7 Y53.841 E12.8789
G1 X77.011 Y54.542 E12.89803
G1 X77.247 Y55.271 E12.91714
G1 X77.405 Y56.021 E12.93626
G1 X77.485 Y56.783 E12.95537
G1 X77.494 Y57.279 E12.96775
G1 X77.475 Y58.511 E12.99848
G1 X77.423 Y59.276 E13.01761
G1 X77.292 Y60.031 E13.03673
G1 X77.083 Y60.769 E13.05586
G1 X76.798 Y61.481 E13.07499
G1 X76.441 Y62.159 E13.0941
G1 X76.083 Y62.704 E13.11037
G1 X75.903 Y62.953 E13.11803
G1 X75.422 Y63.55 E13.13716
G1 X74.881 Y64.094 E13.1563
G1 X74.287 Y64.578 E13.17541
G1 X73.646 Y64.998 E13.19453
G1 X72.964 Y65.349 E13.21366
G1 X72.235 Y65.632 E13.23317
G1 X71.939 Y65.729 E13.24094
G1 X71.199 Y65.929 E13.26006
G1 X70.442 Y66.051 E13.27919
G1 X69.678 Y66.094 E13.29827
G1 X62.535 Y66.121 E13.47646
G1 X62.514 Y73.037 E13.64898
G1 X62.702 Y73.245 E13.65597
G1 X63.154 Y73.864 E13.67509
G1 X63.56 Y74.565 E13.6953
G1 X63.7 Y74.841 E13.70302
G1 X64.011 Y75.542 E13.72215
G1 X64.247 Y76.271 E13.74127
G1 X64.405 Y77.021 E13.76038
G1 X64.485 Y77.783 E13.7795
G1 X64.495 Y78.193 E13.78973
G1 X64.476 Y83.425 E13.92024
G1 X64.433 Y84.19 E13.93935
G1 X64.311 Y84.947 E13.95848
G1 X64.111 Y85.687 E13.9776
G1 X63.834 Y86.402 E13.99673
G1 X63.485 Y87.084 E14.01584
G1 X63.083 Y87.704 E14.03427
G1 X62.903 Y87.953 E14.04194
G1 X62.422 Y88.55 E14.06106
G1 X61.881 Y89.094 E14.0802
G1 X61.287 Y89.578 E14.09931
G1 X60.646 Y89.998 E14.11843
G1 X59.964 Y90.349 E14.13756
G1 X59.235 Y90.632 E14.15707
G1 X58.939 Y90.729 E14.16484
G1 X58.199 Y90.929 E14.18396
G1 X57.442 Y91.051 E14.20309
G1 X56.617 Y91.094 E14.2237
G1 X44.391 Y91.039 E14.52868
G1 X43.626 Y90.996 E14.54779
G1 X42.869 Y90.873 E14.56692
G1 X42.129 Y90.672 E14.58605
G1 X41.414 Y90.395 E14.60518
G1 X40.732 Y90.045 E14.6243
G1 X40.091 Y89.626 E14.64341
G1 X39.227 Y88.886 E14.67178
G1 X39.009 Y88.668 E14.67947
G1 X38.496 Y88.099 E14.69858
G1 X38.045 Y87.479 E14.71771
G1 X37.661 Y86.815 E14.73684
G1 X37.348 Y86.115 E14.75597
G1 X37.11 Y85.387 E14.77508
G1 X36.949 Y84.637 E14.79421
G1 X36.856 Y83.548 E14.82148
G1 X36.801 Y78.322 E14.95185
G1 X36.833 Y77.556 E14.97097
G1 X36.945 Y76.798 E14.99008
G1 X37.166 Y75.956 E15.0118
G1 X37.263 Y75.66 E15.01957
G1 X37.54 Y74.945 E15.0387
G1 X37.889 Y74.263 E15.05781
G1 X38.308 Y73.621 E15.07693
G1 X38.791 Y73.025 E15.09607
G1 X38.783 Y66.068 E15.26961
G1 X31.396 Y66.039 E15.45388
G1 X30.63 Y65.996 E15.47302
G1 X29.874 Y65.874 E15.49212
G1 X29.134 Y65.673 E15.51125
G1 X28.419 Y65.397 E15.53037
G1 X27.736 Y65.047 E15.54951
G1 X27.094 Y64.628 E15.56864
G1 X26.227 Y63.886 E15.5971
G1 X26.009 Y63.668 E15.60479
G1 X25.496 Y63.099 E15.6239
G1 X25.045 Y62.479 E15.64303
G1 X24.661 Y61.815 E15.66216
G1 X24.348 Y61.115 E15.68129
G1 X24.11 Y60.387 E15.7004
G1 X23.949 Y59.637 E15.71953
G1 X23.863 Y58.8 E15.74052
G1 X23.808 Y57.574 E15.77113
G1 X23.814 Y56.808 E15.79024
G1 X23.899 Y56.046 E15.80937
G1 X24.166 Y54.956 E15.83736
G1 X24.263 Y54.66 E15.84513
G1 X24.54 Y53.945 E15.86426
G1 X24.889 Y53.263 E15.88337
G1 X25.308 Y52.621 E15.90249
G1 X25.791 Y52.025 E15.92163
G1 X26.333 Y51.484 E15.94073
G1 X26.942 Y50.992 E15.96026
G1 X27.191 Y50.812 E15.96793
G1 X27.835 Y50.396 E15.98705
G1 X28.518 Y50.05 E16.00615
G1 X29.234 Y49.776 E16.02528
G1 X29.975 Y49.578 E16.04441
G1 X30.732 Y49.459 E16.06352
G1 X31.481 Y49.419 E16.08223
G1 X38.788 Y49.403 E16.26451
G1 X38.78 Y42.415 E16.43883
G1 X38.496 Y42.099 E16.44942
G1 X38.045 Y41.479 E16.46855
G1 X37.661 Y40.815 E16.48768
G1 X37.348 Y40.115 E16.50681
G1 X37.11 Y39.387 E16.52592
