;FLAVOR:Marlin
;TIME:3188
;Filament used: 1.39883m
;Layer height: 0.2
;Generated with Cura_SteamEngine 3.4.1
M190 S55
M104 S200
M109 S200
M82 ;absolute extrusion mode
G21 ;metric values
G90 ;absolute positioning
M82 ;set extruder to absolute mode
M107 ;start with the fan off
G28 X0 Y0 ;move X/Y to min endstops
G28 Z0 ;move Z to min endstops
G1 Z15.0 F9000 ;move the platform down 15mm
G92 E0 ;zero the extruded length
G1 F200 E3 ;extrude 3mm of feed stock
G92 E0 ;zero the extruded length again
G1 F9000
;Put printing message on LCD screen
M117 Printing...
G92 E0
G1 F1500 E-6.5
;LAYER_COUNT:240
;LAYER:0
M107
G0 F3000 X30.393 Y15.069 Z0.2
;TYPE:SKIRT
G1 F1500 E0
G1 F900 X30.67 Y14.501 E0.02102
G1 X31.017 Y13.972 E0.04206
G1 X31.427 Y13.492 E0.06306
G1 X31.895 Y13.066 E0.08411
G1 X32.277 Y12.79 E0.09978
G1 X32.683 Y12.524 E0.11592
G1 X33.232 Y12.211 E0.13694
G1 X33.817 Y11.971 E0.15797
G1 X34.427 Y11.806 E0.17899
G1 X35.004 Y11.724 E0.19838
G1 X35.408 Y11.69 E0.21186
G1 X36.04 Y11.677 E0.23288
G1 X36.668 Y11.743 E0.25389
G1 X37.283 Y11.889 E0.27491
G1 X37.772 Y12.066 E0.29221
G1 X38.113 Y12.21 E0.30452
G1 X38.679 Y12.492 E0.32555
G1 X39.204 Y12.843 E0.34656
G1 X39.681 Y13.258 E0.36759
G1 X39.99 Y13.593 E0.38274
G1 X40.259 Y13.912 E0.39662
G1 X40.636 Y14.42 E0.41766
G1 X40.945 Y14.971 E0.43867
G1 X41.246 Y15.765 E0.46692
G1 X41.338 Y16.088 E0.47809
G1 X41.472 Y16.706 E0.49912
G1 X41.528 Y17.336 E0.52016
G1 X41.461 Y18.28 E0.55163
G1 X41.396 Y18.67 E0.56478
G1 X41.253 Y19.286 E0.58582
G1 X41.033 Y19.878 E0.60682
G1 X40.74 Y20.439 E0.62787
G1 X40.243 Y21.122 E0.65597
G1 X39.9 Y21.518 E0.67339
G1 X39.481 Y21.944 E0.69327
G1 X39.866 Y22.305 E0.71082
G1 X40.33 Y22.877 E0.73532
G1 X40.584 Y23.242 E0.75011
G1 X40.912 Y23.783 E0.77115
G1 X41.168 Y24.36 E0.79214
G1 X41.35 Y24.966 E0.81319
G1 X41.459 Y25.639 E0.83586
G1 X41.496 Y26.04 E0.84926
G1 X41.514 Y26.671 E0.87025
G1 X41.452 Y27.301 E0.89131
G1 X41.312 Y27.917 E0.91232
G1 X41.174 Y28.319 E0.92646
G1 X41.022 Y28.708 E0.94035
G1 X40.755 Y29.281 E0.96137
G1 X40.418 Y29.816 E0.9824
G1 X40.016 Y30.304 E1.00343
G1 X39.774 Y30.545 E1.01479
G1 X39.553 Y30.751 E1.02484
G1 X39.065 Y31.152 E1.04585
G1 X38.529 Y31.488 E1.06689
G1 X37.852 Y31.793 E1.09159
G1 X37.508 Y31.918 E1.10376
G1 X36.901 Y32.096 E1.1248
G1 X36.277 Y32.196 E1.14582
G1 X35.403 Y32.203 E1.17489
G1 X35.026 Y32.173 E1.18747
G1 X34.401 Y32.083 E1.20847
G1 X33.791 Y31.915 E1.22951
G1 X33.208 Y31.672 E1.25052
G1 X32.604 Y31.318 E1.2738
G1 X32.169 Y31.021 E1.29132
G1 X31.67 Y30.633 E1.31235
G1 X31.225 Y30.184 E1.33337
G1 X30.839 Y29.683 E1.35441
G1 X30.52 Y29.137 E1.37544
G1 X30.35 Y28.759 E1.38923
G1 X30.191 Y28.364 E1.40339
G1 X29.992 Y27.764 E1.42441
G1 X29.871 Y27.143 E1.44546
G1 X29.829 Y26.513 E1.46646
G1 X29.864 Y25.903 E1.48678
G1 X29.912 Y25.502 E1.50021
G1 X30.027 Y24.88 E1.52125
G1 X30.219 Y24.278 E1.54227
G1 X30.486 Y23.705 E1.56329
G1 X30.964 Y22.984 E1.59206
G1 X31.271 Y22.598 E1.60847
G1 X31.695 Y22.129 E1.6295
G1 X31.911 Y21.943 E1.63898
G1 X31.685 Y21.732 E1.64926
G1 X31.307 Y21.343 E1.6673
G1 X30.896 Y20.863 E1.68832
G1 X30.549 Y20.335 E1.70933
G1 X30.271 Y19.767 E1.73037
G1 X30.068 Y19.169 E1.75137
G1 X29.98 Y18.79 E1.76431
G1 X29.904 Y18.389 E1.77789
G1 X29.826 Y17.762 E1.7989
G1 X29.828 Y17.13 E1.81992
G1 X29.909 Y16.503 E1.84095
G1 X30.069 Y15.891 E1.86199
G1 X30.193 Y15.555 E1.8739
G1 X30.393 Y15.069 E1.89138
G0 F3000 X30.763 Y15.221
G1 F900 X31.03 Y14.677 E1.91154
G1 X31.367 Y14.173 E1.9317
G1 X31.767 Y13.717 E1.95188
G1 X32.223 Y13.318 E1.97203
G1 X32.496 Y13.124 E1.98317
G1 X32.902 Y12.858 E1.99931
G1 X33.43 Y12.56 E2.01948
G1 X33.993 Y12.334 E2.03965
G1 X34.58 Y12.184 E2.05981
G1 X35.037 Y12.122 E2.07514
G1 X35.441 Y12.088 E2.08863
G1 X36.047 Y12.077 E2.10879
G1 X36.65 Y12.146 E2.12897
G1 X37.238 Y12.294 E2.14914
G1 X37.617 Y12.434 E2.16258
G1 X37.958 Y12.578 E2.17489
G1 X38.499 Y12.851 E2.19505
G1 X39.001 Y13.192 E2.21523
G1 X39.453 Y13.596 E2.23539
G1 X39.685 Y13.851 E2.24686
G1 X39.954 Y14.17 E2.26074
G1 X40.313 Y14.658 E2.28089
G1 X40.605 Y15.189 E2.30104
G1 X40.861 Y15.875 E2.3254
G1 X40.953 Y16.198 E2.33657
G1 X41.08 Y16.791 E2.35674
G1 X41.129 Y17.395 E2.37689
G1 X41.066 Y18.214 E2.40421
G1 X41.001 Y18.604 E2.41736
G1 X40.863 Y19.194 E2.43752
G1 X40.647 Y19.761 E2.4577
G1 X40.359 Y20.295 E2.47788
G1 X39.941 Y20.86 E2.50125
G1 X39.598 Y21.256 E2.51868
G1 X39.172 Y21.687 E2.53883
G1 X38.83 Y21.951 E2.5532
G1 X39.188 Y22.214 E2.56798
G1 X39.626 Y22.634 E2.58816
G1 X40.002 Y23.105 E2.60821
G1 X40.256 Y23.47 E2.623
G1 X40.569 Y23.99 E2.64318
G1 X40.81 Y24.546 E2.66334
G1 X40.977 Y25.129 E2.68351
G1 X41.061 Y25.675 E2.70188
G1 X41.098 Y26.076 E2.71528
G1 X41.113 Y26.682 E2.73544
G1 X41.049 Y27.285 E2.75561
G1 X40.907 Y27.875 E2.77579
G1 X40.802 Y28.173 E2.7863
G1 X40.65 Y28.562 E2.80019
G1 X40.392 Y29.111 E2.82037
G1 X40.065 Y29.621 E2.84052
G1 X39.501 Y30.253 E2.86869
G1 X39.28 Y30.459 E2.87874
G1 X38.811 Y30.842 E2.89888
G1 X38.295 Y31.16 E2.91904
G1 X37.715 Y31.417 E2.94014
G1 X37.371 Y31.542 E2.95231
G1 X36.789 Y31.711 E2.97247
G1 X36.189 Y31.802 E2.99265
G1 X35.435 Y31.805 E3.01773
G1 X35.058 Y31.775 E3.03031
G1 X34.458 Y31.687 E3.05048
G1 X33.875 Y31.521 E3.07064
G1 X33.319 Y31.28 E3.0908
G1 X32.829 Y30.988 E3.10977
G1 X32.394 Y30.691 E3.12729
G1 X31.917 Y30.317 E3.14745
G1 X31.493 Y29.883 E3.16763
G1 X31.13 Y29.398 E3.18778
G1 X30.721 Y28.61 E3.2173
G1 X30.562 Y28.215 E3.23147
G1 X30.373 Y27.639 E3.25163
G1 X30.261 Y27.043 E3.2718
G1 X30.229 Y26.437 E3.29198
G1 X30.262 Y25.95 E3.30822
G1 X30.31 Y25.549 E3.32165
G1 X30.421 Y24.953 E3.34181
G1 X30.61 Y24.377 E3.36198
G1 X30.873 Y23.831 E3.38213
G1 X31.277 Y23.233 E3.40614
G1 X31.584 Y22.847 E3.42254
G1 X31.992 Y22.398 E3.44272
G1 X32.455 Y22.007 E3.46288
G1 X32.549 Y21.946 E3.4666
G1 X32.214 Y21.686 E3.48071
G1 X31.972 Y21.454 E3.49186
G1 X31.594 Y21.065 E3.5099
G1 X31.201 Y20.603 E3.53007
G1 X30.872 Y20.094 E3.55023
G1 X30.613 Y19.545 E3.57042
G1 X30.373 Y18.716 E3.59912
G1 X30.297 Y18.315 E3.6127
G1 X30.224 Y17.713 E3.63287
G1 X30.23 Y17.106 E3.65306
G1 X30.317 Y16.506 E3.67322
G1 X30.563 Y15.707 E3.70103
G1 X30.763 Y15.221 E3.71851
G0 F3000 X31.133 Y15.374
G1 F900 X31.39 Y14.854 E3.7378
G1 X31.716 Y14.375 E3.75707
G1 X32.104 Y13.946 E3.77631
G1 X32.715 Y13.459 E3.8023
G1 X33.121 Y13.193 E3.81844
G1 X33.627 Y12.91 E3.83772
G1 X34.166 Y12.698 E3.85699
G1 X34.729 Y12.564 E3.87624
G1 X35.071 Y12.521 E3.8877
G1 X35.475 Y12.487 E3.90119
G1 X36.054 Y12.478 E3.92045
G1 X36.629 Y12.549 E3.93972
G1 X37.189 Y12.699 E3.959
G1 X37.461 Y12.803 E3.96868
G1 X37.802 Y12.947 E3.981
G1 X38.319 Y13.208 E4.00026
G1 X38.795 Y13.539 E4.01954
G1 X39.379 Y14.108 E4.04666
G1 X39.648 Y14.427 E4.06054
G1 X39.99 Y14.895 E4.07982
G1 X40.264 Y15.405 E4.09907
G1 X40.476 Y15.984 E4.11958
G1 X40.568 Y16.307 E4.13075
G1 X40.688 Y16.874 E4.15003
G1 X40.729 Y17.452 E4.1693
G1 X40.672 Y18.148 E4.19253
G1 X40.607 Y18.538 E4.20568
G1 X40.472 Y19.102 E4.22497
G1 X40.262 Y19.642 E4.24424
G1 X39.979 Y20.147 E4.26349
G1 X39.639 Y20.598 E4.28228
G1 X39.296 Y20.994 E4.2997
G1 X38.887 Y21.404 E4.31896
G1 X38.426 Y21.755 E4.33823
G1 X38.061 Y21.96 E4.35216
G1 X38.506 Y22.206 E4.36907
G1 X38.97 Y22.553 E4.38834
G1 X39.382 Y22.961 E4.40763
G1 X39.673 Y23.334 E4.42336
G1 X39.927 Y23.699 E4.43815
G1 X40.225 Y24.196 E4.45743
G1 X40.451 Y24.73 E4.47671
G1 X40.601 Y25.289 E4.49596
G1 X40.662 Y25.712 E4.51018
G1 X40.699 Y26.113 E4.52357
G1 X40.713 Y26.692 E4.54283
G1 X40.646 Y27.268 E4.56212
G1 X40.429 Y28.028 E4.58841
G1 X40.277 Y28.417 E4.6023
G1 X40.029 Y28.94 E4.62155
G1 X39.712 Y29.425 E4.64082
G1 X39.229 Y29.96 E4.66479
G1 X39.008 Y30.166 E4.67484
G1 X38.558 Y30.531 E4.69411
G1 X38.062 Y30.831 E4.71339
G1 X37.578 Y31.041 E4.73094
G1 X37.234 Y31.166 E4.74312
G1 X36.678 Y31.326 E4.76236
G1 X36.104 Y31.408 E4.78164
G1 X35.467 Y31.406 E4.80283
G1 X35.09 Y31.376 E4.81541
G1 X34.517 Y31.29 E4.83468
G1 X33.961 Y31.126 E4.85396
G1 X33.433 Y30.888 E4.87322
G1 X33.055 Y30.658 E4.88794
G1 X32.62 Y30.361 E4.90546
G1 X32.165 Y30.002 E4.92474
G1 X31.764 Y29.584 E4.944
G1 X31.424 Y29.114 E4.9633
G1 X31.092 Y28.46 E4.98769
G1 X30.933 Y28.065 E5.00185
G1 X30.754 Y27.514 E5.02112
G1 X30.653 Y26.944 E5.04038
G1 X30.631 Y26.365 E5.05965
G1 X30.659 Y25.998 E5.07189
G1 X30.707 Y25.597 E5.08532
G1 X30.815 Y25.028 E5.10458
G1 X31.001 Y24.479 E5.12386
G1 X31.26 Y23.961 E5.14313
G1 X31.59 Y23.482 E5.16247
G1 X31.897 Y23.096 E5.17888
G1 X32.288 Y22.668 E5.19816
G1 X32.734 Y22.299 E5.21741
G1 X33.135 Y22.044 E5.23322
G1 X33.299 Y21.953 E5.23945
G1 X32.854 Y21.683 E5.25677
G1 X32.259 Y21.175 E5.28279
G1 X31.881 Y20.786 E5.30083
G1 X31.507 Y20.344 E5.32009
G1 X31.197 Y19.854 E5.33937
G1 X30.958 Y19.327 E5.35862
G1 X30.766 Y18.641 E5.38231
G1 X30.69 Y18.24 E5.39589
G1 X30.622 Y17.665 E5.41514
G1 X30.634 Y17.086 E5.43441
G1 X30.725 Y16.514 E5.45367
G1 X30.933 Y15.86 E5.4765
G1 X31.133 Y15.374 E5.49397
G0 F3000 X31.503 Y15.526
G1 F900 X31.749 Y15.033 E5.5123
G1 X32.064 Y14.581 E5.53062
G1 X32.441 Y14.179 E5.54895
G1 X32.935 Y13.793 E5.56981
G1 X33.341 Y13.527 E5.58595
G1 X33.822 Y13.26 E5.60425
G1 X34.337 Y13.064 E5.62257
G1 X35.104 Y12.919 E5.64854
G1 X35.508 Y12.885 E5.66202
G1 X36.059 Y12.879 E5.68035
G1 X36.605 Y12.953 E5.69868
G1 X37.305 Y13.171 E5.72306
G1 X37.646 Y13.315 E5.73537
G1 X38.137 Y13.566 E5.75371
G1 X38.586 Y13.885 E5.77203
G1 X39.073 Y14.366 E5.7948
G1 X39.342 Y14.685 E5.80868
G1 X39.666 Y15.131 E5.82701
G1 X39.922 Y15.619 E5.84534
G1 X40.092 Y16.094 E5.86212
G1 X40.184 Y16.417 E5.87329
G1 X40.296 Y16.957 E5.89163
G1 X40.329 Y17.507 E5.90996
G1 X40.277 Y18.083 E5.9292
G1 X40.212 Y18.473 E5.94235
G1 X40.083 Y19.008 E5.96065
G1 X39.877 Y19.519 E5.97897
G1 X39.599 Y19.995 E5.99731
G1 X39.336 Y20.336 E6.01163
G1 X38.993 Y20.732 E6.02906
G1 X38.603 Y21.121 E6.04738
G1 X38.161 Y21.45 E6.0657
G1 X37.676 Y21.711 E6.08402
G1 X37.394 Y21.824 E6.09413
G1 X37.079 Y21.936 E6.10525
G1 X37.004 Y21.957 E6.10784
G1 X37.436 Y22.104 E6.12301
G1 X37.831 Y22.288 E6.13751
G1 X38.312 Y22.557 E6.15584
G1 X38.749 Y22.892 E6.17415
G1 X39.134 Y23.286 E6.19247
G1 X39.345 Y23.562 E6.20403
G1 X39.599 Y23.927 E6.21882
G1 X39.88 Y24.401 E6.23715
G1 X40.09 Y24.911 E6.25549
G1 X40.224 Y25.445 E6.2738
G1 X40.264 Y25.749 E6.284
G1 X40.301 Y26.15 E6.29739
G1 X40.312 Y26.701 E6.31572
G1 X40.243 Y27.247 E6.33403
G1 X40.056 Y27.882 E6.35605
G1 X39.904 Y28.271 E6.36994
G1 X39.667 Y28.768 E6.38825
G1 X39.361 Y29.226 E6.40657
G1 X38.956 Y29.668 E6.42651
G1 X38.735 Y29.874 E6.43656
G1 X38.306 Y30.219 E6.45487
G1 X37.831 Y30.499 E6.47321
G1 X37.442 Y30.666 E6.48729
G1 X37.098 Y30.791 E6.49946
G1 X36.568 Y30.941 E6.51778
G1 X36.021 Y31.013 E6.53613
G1 X35.499 Y31.007 E6.55349
G1 X35.122 Y30.977 E6.56607
G1 X34.577 Y30.894 E6.58441
G1 X34.05 Y30.732 E6.60275
G1 X33.552 Y30.497 E6.62106
G1 X33.28 Y30.327 E6.63173
G1 X32.845 Y30.03 E6.64925
G1 X32.414 Y29.687 E6.66757
G1 X32.037 Y29.286 E6.68588
G1 X31.722 Y28.834 E6.7042
G1 X31.463 Y28.311 E6.72361
G1 X31.304 Y27.916 E6.73777
G1 X31.136 Y27.391 E6.75611
G1 X31.045 Y26.848 E6.77442
G1 X31.056 Y26.045 E6.80113
G1 X31.104 Y25.644 E6.81456
G1 X31.209 Y25.103 E6.83289
G1 X31.391 Y24.583 E6.85122
G1 X31.646 Y24.095 E6.86953
G1 X31.903 Y23.731 E6.88435
G1 X32.21 Y23.345 E6.90075
G1 X32.583 Y22.939 E6.91909
G1 X33.011 Y22.592 E6.93742
G1 X33.33 Y22.393 E6.94992
G1 X33.568 Y22.26 E6.95899
G1 X34.067 Y22.027 E6.97731
G1 X34.377 Y21.934 E6.98807
G1 X33.988 Y21.825 E7.00151
G1 X33.484 Y21.602 E7.01984
G1 X33.018 Y21.308 E7.03816
G1 X32.546 Y20.896 E7.059
G1 X32.168 Y20.507 E7.07704
G1 X31.813 Y20.085 E7.09538
G1 X31.524 Y19.616 E7.11371
G1 X31.305 Y19.111 E7.13202
G1 X31.159 Y18.567 E7.15075
G1 X31.083 Y18.166 E7.16432
G1 X31.02 Y17.618 E7.18267
G1 X31.037 Y17.067 E7.20101
G1 X31.133 Y16.525 E7.21931
G1 X31.303 Y16.012 E7.23729
G1 X31.503 Y15.526 E7.25477
G0 F3000 X31.873 Y15.678
G1 F900 X32.108 Y15.213 E7.2721
G1 X32.411 Y14.789 E7.28943
G1 X32.775 Y14.416 E7.30676
G1 X33.154 Y14.128 E7.3226
G1 X33.56 Y13.862 E7.33874
G1 X34.016 Y13.611 E7.35605
G1 X34.506 Y13.432 E7.3734
G1 X35.138 Y13.318 E7.39476
G1 X35.542 Y13.284 E7.40825
G1 X36.063 Y13.28 E7.42558
G1 X36.579 Y13.356 E7.44292
G1 X37.15 Y13.54 E7.46288
G1 X37.491 Y13.684 E7.47519
G1 X37.954 Y13.923 E7.49252
G1 X38.375 Y14.23 E7.50985
G1 X38.767 Y14.624 E7.52833
G1 X39.036 Y14.943 E7.54221
G1 X39.341 Y15.366 E7.55956
G1 X39.577 Y15.831 E7.5769
G1 X39.707 Y16.204 E7.59004
G1 X39.799 Y16.527 E7.60121
G1 X39.903 Y17.037 E7.61852
G1 X39.928 Y17.558 E7.63587
G1 X39.883 Y18.017 E7.65121
G1 X39.818 Y18.407 E7.66436
G1 X39.693 Y18.913 E7.6817
G1 X39.492 Y19.394 E7.69903
G1 X39.22 Y19.839 E7.71638
G1 X39.034 Y20.074 E7.72635
G1 X38.691 Y20.47 E7.74377
G1 X38.321 Y20.837 E7.76111
G1 X37.899 Y21.142 E7.77843
G1 X37.26 Y21.448 E7.80199
G1 X36.945 Y21.56 E7.81311
G1 X36.442 Y21.696 E7.83044
G1 X35.924 Y21.754 E7.84778
G1 X35.403 Y21.732 E7.86512
G1 X35.133 Y21.689 E7.87421
G1 X34.598 Y21.581 E7.89237
G1 X34.097 Y21.439 E7.90969
G1 X33.623 Y21.222 E7.92703
G1 X33.188 Y20.935 E7.94436
G1 X32.833 Y20.617 E7.96021
G1 X32.455 Y20.228 E7.97825
G1 X32.121 Y19.828 E7.99558
G1 X31.853 Y19.381 E8.01292
G1 X31.656 Y18.899 E8.03024
G1 X31.552 Y18.492 E8.04421
G1 X31.476 Y18.091 E8.05778
G1 X31.419 Y17.573 E8.07512
G1 X31.441 Y17.052 E8.09246
G1 X31.543 Y16.541 E8.10979
G1 X31.673 Y16.164 E8.12305
G1 X31.873 Y15.678 E8.14053
G0 F3000 X32.243 Y15.83
G1 F900 X32.465 Y15.394 E8.15681
G1 X32.756 Y15 E8.1731
G1 X33.107 Y14.659 E8.18938
G1 X33.373 Y14.463 E8.20036
G1 X33.779 Y14.197 E8.21651
G1 X34.209 Y13.963 E8.23279
G1 X34.671 Y13.802 E8.24906
G1 X35.171 Y13.717 E8.26593
G1 X35.575 Y13.683 E8.27942
G1 X36.065 Y13.681 E8.29571
G1 X36.548 Y13.76 E8.31199
G1 X36.994 Y13.908 E8.32762
G1 X37.335 Y14.052 E8.33993
G1 X37.769 Y14.279 E8.35622
G1 X38.16 Y14.573 E8.37249
G1 X38.461 Y14.882 E8.38684
G1 X38.73 Y15.201 E8.40072
G1 X39.014 Y15.6 E8.41701
G1 X39.23 Y16.039 E8.43328
G1 X39.322 Y16.313 E8.4429
G1 X39.414 Y16.636 E8.45407
G1 X39.509 Y17.116 E8.47034
G1 X39.525 Y17.606 E8.48665
G1 X39.488 Y17.951 E8.49819
G1 X39.423 Y18.341 E8.51134
G1 X39.304 Y18.816 E8.52762
G1 X39.108 Y19.265 E8.54392
G1 X38.732 Y19.812 E8.566
G1 X38.389 Y20.208 E8.58342
G1 X38.039 Y20.551 E8.59972
G1 X37.638 Y20.832 E8.61601
G1 X37.126 Y21.071 E8.6348
G1 X36.811 Y21.183 E8.64592
G1 X36.338 Y21.308 E8.66219
G1 X35.851 Y21.356 E8.67847
G1 X35.212 Y21.297 E8.69981
G1 X34.677 Y21.189 E8.71796
G1 X34.207 Y21.053 E8.73424
G1 X33.765 Y20.843 E8.75051
G1 X33.363 Y20.563 E8.76681
G1 X33.119 Y20.339 E8.77782
G1 X32.741 Y19.95 E8.79586
G1 X32.43 Y19.572 E8.81215
G1 X32.184 Y19.149 E8.82842
G1 X32.011 Y18.691 E8.8447
G1 X31.945 Y18.418 E8.85405
G1 X31.869 Y18.017 E8.86762
G1 X31.818 Y17.53 E8.88391
G1 X31.846 Y17.041 E8.9002
G1 X31.953 Y16.564 E8.91646
G1 X32.043 Y16.316 E8.92523
G1 X32.243 Y15.83 E8.94271
G0 F3000 X32.613 Y15.983
G1 F900 X32.822 Y15.578 E8.95787
G1 X33.099 Y15.216 E8.97303
G1 X33.592 Y14.797 E8.99455
G1 X33.998 Y14.531 E9.01069
G1 X34.4 Y14.316 E9.02586
G1 X34.833 Y14.174 E9.04101
G1 X35.205 Y14.115 E9.05354
G1 X35.609 Y14.081 E9.06702
G1 X36.065 Y14.083 E9.08219
G1 X36.513 Y14.164 E9.09733
G1 X36.838 Y14.277 E9.10878
G1 X37.179 Y14.421 E9.12109
G1 X37.582 Y14.634 E9.13625
G1 X37.941 Y14.915 E9.15141
G1 X38.156 Y15.14 E9.16176
G1 X38.425 Y15.459 E9.17564
G1 X38.687 Y15.832 E9.1908
G1 X38.938 Y16.423 E9.21216
G1 X39.03 Y16.746 E9.22333
G1 X39.115 Y17.193 E9.23846
G1 X39.122 Y17.649 E9.25363
G1 X39.094 Y17.885 E9.26154
G1 X39.029 Y18.275 E9.27469
G1 X38.915 Y18.717 E9.28987
G1 X38.725 Y19.131 E9.30502
G1 X38.429 Y19.55 E9.32208
G1 X38.086 Y19.946 E9.33951
G1 X37.759 Y20.263 E9.35465
G1 X37.381 Y20.518 E9.36982
G1 X36.992 Y20.694 E9.38402
G1 X36.677 Y20.806 E9.39514
G1 X36.236 Y20.92 E9.41029
G1 X35.782 Y20.956 E9.42544
G1 X35.292 Y20.905 E9.44182
G1 X34.757 Y20.797 E9.45998
G1 X34.32 Y20.668 E9.47513
G1 X33.912 Y20.464 E9.4903
G1 X33.406 Y20.06 E9.51184
G1 X33.028 Y19.671 E9.52988
G1 X32.741 Y19.318 E9.54501
G1 X32.519 Y18.919 E9.5602
G1 X32.338 Y18.343 E9.58028
