;FLAVOR:Marlin
;TIME:3300
;Filament used: 4.39729m
;Layer height: 0.2
;Generated with Cura_SteamEngine 3.6.0
M140 S55
M105
M190 S55
M104 S190
M105
M109 S190
M82 ;absolute extrusion mode
G21 ;metric values
G90 ;absolute positioning
M82 ;set extruder to absolute mode
M107 ;start with the fan off
G28 X0 Y0 ;move X/Y to min endstops
G28 Z0 ;move Z to min endstops
G1 Z15.0 F9000 ;move the platform down 15mm
G92 E0 ;zero the extruded length
G1 F200 E3 ;extrude 3mm of feed stock
G92 E0 ;zero the extruded length again
G1 F9000
;Put printing message on LCD screen
M117 Printing...
G92 E0
G1 F600 E-4
;LAYER_COUNT:118
;LAYER:0
M107
G0 F3600 X71.616 Y91.109 Z0.3
;TYPE:SKIRT
G1 F600 E0
G1 F1800 X72.111 Y90.782 E0.0296
G1 X72.646 Y90.525 E0.05921
G1 X73.21 Y90.342 E0.08879
G1 X73.793 Y90.237 E0.11835
G1 X74.281 Y90.21 E0.14273
G1 X78.481 Y90.21 E0.35227
G1 X78.615 Y90.212 E0.35895
G1 X84.777 Y90.4 E0.66652
G1 X95.157 Y90.448 E1.18439
G1 X95.446 Y90.459 E1.19881
G1 X100.955 Y90.847 E1.47434
G1 X106.377 Y90.92 E1.74487
G1 X111.806 Y90.688 E2.01597
G1 X114.887 Y90.425 E2.17024
G1 X115.257 Y90.409 E2.18872
G1 X125.267 Y90.4 E2.68812
G1 X131.712 Y90.202 E3.00981
G1 X131.858 Y90.2 E3.0171
G1 X135.728 Y90.21 E3.21017
G1 X136.32 Y90.251 E3.23978
G1 X136.9 Y90.372 E3.26934
G1 X137.459 Y90.57 E3.29893
G1 X137.987 Y90.841 E3.32853
G1 X138.473 Y91.18 E3.3581
G1 X138.808 Y91.478 E3.38047
G1 X139.037 Y91.704 E3.39652
G1 X139.43 Y92.148 E3.4261
G1 X139.759 Y92.641 E3.45567
G1 X140.02 Y93.174 E3.48528
G1 X140.206 Y93.737 E3.51486
G1 X140.316 Y94.319 E3.54441
G1 X140.346 Y94.837 E3.5703
G1 X140.344 Y106.966 E4.17541
G1 X140.304 Y107.557 E4.20497
G1 X140.185 Y108.138 E4.23455
G1 X139.988 Y108.698 E4.26417
G1 X139.719 Y109.226 E4.29374
G1 X139.381 Y109.713 E4.32331
G1 X139.17 Y109.957 E4.3394
G1 X139.106 Y110.026 E4.3441
G1 X138.961 Y110.175 E4.35447
G1 X138.803 Y110.33 E4.36551
G1 X138.353 Y110.716 E4.39509
G1 X137.855 Y111.037 E4.42465
G1 X137.318 Y111.289 E4.45425
G1 X136.752 Y111.467 E4.48385
G1 X136.42 Y111.533 E4.50074
G1 X132.652 Y112.138 E4.69113
G1 X127.308 Y113.252 E4.96347
G1 X124.772 Y113.894 E5.09399
G1 X119.507 Y115.465 E5.3681
G1 X116.982 Y116.339 E5.50141
G1 X110.624 Y118.743 E5.84053
G1 X109.855 Y118.956 E5.88034
G1 X107.263 Y119.427 E6.01177
G1 X106.725 Y119.491 E6.0388
G1 X105.152 Y119.58 E6.1174
G1 X104.591 Y119.576 E6.14539
G1 X102.633 Y119.437 E6.24332
G1 X102.043 Y119.355 E6.27304
G1 X100.032 Y118.934 E6.37555
G1 X99.396 Y118.749 E6.40859
G1 X91.499 Y115.802 E6.82911
G1 X86.345 Y114.199 E7.0984
G1 X81.044 Y112.874 E7.371
G1 X78.457 Y112.344 E7.50275
G1 X73.561 Y111.531 E7.75036
G1 X72.984 Y111.394 E7.77994
G1 X72.431 Y111.182 E7.80949
G1 X71.911 Y110.897 E7.83907
G1 X71.434 Y110.544 E7.86868
G1 X71.178 Y110.308 E7.88605
G1 X70.949 Y110.08 E7.90217
G1 X70.557 Y109.634 E7.9318
G1 X70.23 Y109.14 E7.96135
G1 X69.972 Y108.606 E7.99094
G1 X69.788 Y108.043 E8.02049
G1 X69.681 Y107.459 E8.05011
G1 X69.653 Y106.962 E8.07495
G1 X69.652 Y94.839 E8.67976
G1 X69.692 Y94.248 E8.70932
G1 X69.811 Y93.667 E8.73891
G1 X70.007 Y93.107 E8.76851
G1 X70.277 Y92.579 E8.79809
G1 X70.615 Y92.092 E8.82767
G1 X70.941 Y91.728 E8.85205
G1 X71.17 Y91.499 E8.8682
G1 X71.616 Y91.109 E8.89776
G0 F3600 X71.88 Y91.411
G1 F1800 X72.355 Y91.104 E8.92598
G1 X72.868 Y90.868 E8.95415
G1 X73.41 Y90.706 E8.98237
G1 X73.969 Y90.622 E9.01057
G1 X74.281 Y90.61 E9.02615
G1 X78.481 Y90.61 E9.23569
G1 X78.603 Y90.612 E9.24178
G1 X84.763 Y90.8 E9.54924
G1 X95.155 Y90.848 E10.06771
G1 X95.418 Y90.858 E10.08084
G1 X100.939 Y91.246 E10.35696
G1 X106.388 Y91.321 E10.62884
G1 X111.81 Y91.088 E10.89959
G1 X114.921 Y90.823 E11.05536
G1 X115.257 Y90.809 E11.07214
G1 X125.279 Y90.8 E11.57214
G1 X131.724 Y90.602 E11.89384
G1 X131.857 Y90.6 E11.90047
G1 X135.727 Y90.61 E12.09355
G1 X136.291 Y90.651 E12.12176
G1 X136.843 Y90.772 E12.14995
G1 X137.373 Y90.969 E12.17816
G1 X137.87 Y91.239 E12.20638
G1 X138.527 Y91.763 E12.24831
G1 X138.756 Y91.989 E12.26436
G1 X139.129 Y92.414 E12.29257
G1 X139.439 Y92.886 E12.32074
G1 X139.679 Y93.398 E12.34895
G1 X139.844 Y93.939 E12.37717
G1 X139.932 Y94.497 E12.40536
G1 X139.946 Y94.837 E12.42233
G1 X139.944 Y106.966 E13.02745
G1 X139.904 Y107.53 E13.05566
G1 X139.785 Y108.082 E13.08383
G1 X139.589 Y108.613 E13.11207
G1 X139.32 Y109.11 E13.14026
G1 X138.877 Y109.685 E13.17648
G1 X138.813 Y109.754 E13.18117
G1 X138.681 Y109.889 E13.19059
G1 X138.523 Y110.044 E13.20164
G1 X138.093 Y110.411 E13.22984
G1 X137.615 Y110.713 E13.25805
G1 X137.099 Y110.944 E13.28625
G1 X136.356 Y111.138 E13.32456
G1 X132.593 Y111.742 E13.5147
G1 X127.225 Y112.861 E13.78827
G1 X124.657 Y113.511 E13.92043
G1 X119.374 Y115.087 E14.19548
G1 X116.827 Y115.969 E14.32995
G1 X110.483 Y118.368 E14.66833
G1 X109.783 Y118.563 E14.70458
G1 X107.191 Y119.034 E14.83601
G1 X106.702 Y119.092 E14.86058
G1 X105.129 Y119.181 E14.93918
G1 X104.62 Y119.177 E14.96458
G1 X102.662 Y119.038 E15.06251
G1 X102.125 Y118.963 E15.08956
G1 X100.114 Y118.542 E15.19207
G1 X99.535 Y118.375 E15.22213
G1 X91.609 Y115.417 E15.6442
G1 X86.456 Y113.814 E15.91344
G1 X81.13 Y112.483 E16.18732
G1 X78.52 Y111.948 E16.32024
G1 X73.627 Y111.136 E16.5677
G1 X73.077 Y111.004 E16.59591
G1 X72.552 Y110.796 E16.62409
G1 X72.06 Y110.516 E16.65233
G1 X71.46 Y110.025 E16.69101
G1 X71.231 Y109.797 E16.70713
G1 X70.859 Y109.37 E16.73538
G1 X70.552 Y108.896 E16.76356
G1 X70.314 Y108.383 E16.79177
G1 X70.151 Y107.842 E16.81996
G1 X70.066 Y107.283 E16.84817
G1 X70.053 Y106.962 E16.8642
G1 X70.052 Y94.839 E17.46902
G1 X70.092 Y94.275 E17.49723
G1 X70.211 Y93.723 E17.5254
G1 X70.407 Y93.192 E17.55364
G1 X70.675 Y92.695 E17.58181
G1 X71.011 Y92.24 E17.61003
G1 X71.224 Y92.011 E17.62563
G1 X71.453 Y91.782 E17.64179
G1 X71.88 Y91.411 E17.67001
G0 F3600 X72.142 Y91.715
G1 F1800 X72.596 Y91.429 E17.69678
G1 X73.087 Y91.214 E17.72352
G1 X73.605 Y91.074 E17.75029
G1 X74.281 Y91.01 E17.78417
G1 X78.481 Y91.01 E17.99371
G1 X78.591 Y91.012 E17.99919
G1 X84.749 Y91.2 E18.30656
G1 X95.154 Y91.248 E18.82567
G1 X95.39 Y91.257 E18.83746
G1 X100.923 Y91.646 E19.11418
G1 X106.382 Y91.721 E19.38656
G1 X111.861 Y91.486 E19.66016
G1 X114.955 Y91.222 E19.81508
G1 X115.258 Y91.209 E19.83021
G1 X125.292 Y91.2 E20.33081
G1 X131.736 Y91.002 E20.65245
G1 X131.856 Y91 E20.65844
G1 X135.726 Y91.01 E20.85151
G1 X136.261 Y91.051 E20.87828
G1 X136.784 Y91.172 E20.90507
G1 X137.283 Y91.368 E20.93181
G1 X137.747 Y91.637 E20.95857
G1 X138.246 Y92.048 E20.99082
G1 X138.475 Y92.274 E21.00688
G1 X138.827 Y92.678 E21.03361
G1 X139.116 Y93.13 E21.06037
G1 X139.334 Y93.62 E21.08713
G1 X139.477 Y94.136 E21.11384
G1 X139.546 Y94.837 E21.14899
G1 X139.544 Y106.966 E21.7541
G1 X139.504 Y107.5 E21.78082
G1 X139.385 Y108.023 E21.80758
G1 X139.19 Y108.523 E21.83435
G1 X138.922 Y108.988 E21.86113
G1 X138.583 Y109.413 E21.88825
G1 X138.519 Y109.482 E21.89295
G1 X138.401 Y109.604 E21.90142
G1 X138.243 Y109.759 E21.91246
G1 X137.833 Y110.105 E21.93922
G1 X137.377 Y110.386 E21.96595
G1 X136.883 Y110.597 E21.99275
G1 X136.293 Y110.743 E22.02307
G1 X132.514 Y111.35 E22.21402
G1 X127.131 Y112.472 E22.48835
G1 X124.563 Y113.122 E22.62051
G1 X119.248 Y114.708 E22.89723
G1 X116.691 Y115.593 E23.03222
G1 X110.341 Y117.994 E23.37092
G1 X109.712 Y118.169 E23.40349
G1 X107.12 Y118.64 E23.53492
G1 X106.679 Y118.692 E23.55708
G1 X105.106 Y118.781 E23.63568
G1 X104.648 Y118.778 E23.65853
G1 X102.69 Y118.639 E23.75646
G1 X102.207 Y118.572 E23.78079
G1 X100.196 Y118.151 E23.88329
G1 X99.675 Y118 E23.91036
G1 X91.758 Y115.045 E24.33195
G1 X86.55 Y113.426 E24.60405
G1 X81.233 Y112.097 E24.87747
G1 X78.566 Y111.55 E25.0133
G1 X73.692 Y110.741 E25.25979
G1 X73.171 Y110.614 E25.28655
G1 X72.675 Y110.411 E25.31328
G1 X72.214 Y110.137 E25.34004
G1 X71.742 Y109.741 E25.37078
G1 X71.513 Y109.513 E25.3869
G1 X71.162 Y109.108 E25.41364
G1 X70.876 Y108.654 E25.44041
G1 X70.659 Y108.163 E25.46719
G1 X70.519 Y107.646 E25.49391
G1 X70.453 Y106.962 E25.52819
G1 X70.452 Y94.839 E26.13301
G1 X70.492 Y94.304 E26.15978
G1 X70.611 Y93.782 E26.18649
G1 X70.806 Y93.282 E26.21326
G1 X71.073 Y92.817 E26.24002
G1 X71.506 Y92.293 E26.27393
G1 X71.735 Y92.064 E26.29009
G1 X72.142 Y91.715 E26.31683
G0 F3600 X72.403 Y92.019
G1 F1800 X72.834 Y91.756 E26.34202
G1 X73.302 Y91.563 E26.36728
G1 X73.794 Y91.447 E26.3925
G1 X74.281 Y91.41 E26.41687
G1 X78.481 Y91.41 E26.6264
G1 X78.579 Y91.411 E26.63129
G1 X84.774 Y91.6 E26.94051
G1 X95.152 Y91.648 E27.45827
G1 X95.362 Y91.656 E27.46876
G1 X100.907 Y92.046 E27.74608
G1 X106.394 Y92.121 E28.01986
G1 X111.889 Y91.886 E28.29425
G1 X114.989 Y91.621 E28.44948
G1 X115.258 Y91.609 E28.46291
G1 X125.305 Y91.6 E28.96416
G1 X131.749 Y91.402 E29.2858
G1 X131.855 Y91.4 E29.29109
G1 X135.725 Y91.41 E29.48417
G1 X136.229 Y91.451 E29.50939
G1 X136.72 Y91.571 E29.53461
G1 X137.186 Y91.767 E29.55983
G1 X137.616 Y92.034 E29.58509
G1 X137.965 Y92.332 E29.60798
G1 X138.194 Y92.558 E29.62403
G1 X138.524 Y92.941 E29.64926
G1 X138.791 Y93.371 E29.67451
G1 X138.986 Y93.837 E29.69971
G1 X139.105 Y94.328 E29.72491
G1 X139.146 Y94.837 E29.75039
G1 X139.144 Y106.966 E30.35551
G1 X139.104 Y107.47 E30.38073
G1 X138.985 Y107.961 E30.40594
G1 X138.79 Y108.427 E30.43114
G1 X138.524 Y108.857 E30.45637
G1 X138.29 Y109.141 E30.47472
G1 X138.226 Y109.21 E30.47942
G1 X138.121 Y109.318 E30.48694
G1 X137.963 Y109.473 E30.49798
G1 X137.575 Y109.798 E30.52323
G1 X137.141 Y110.057 E30.54844
G1 X136.672 Y110.245 E30.57365
G1 X136.23 Y110.348 E30.59629
G1 X132.452 Y110.955 E30.7872
G1 X127.026 Y112.086 E31.06372
G1 X124.448 Y112.738 E31.19639
G1 X119.136 Y114.323 E31.47295
G1 X116.567 Y115.213 E31.60859
G1 X110.2 Y117.62 E31.94818
G1 X109.64 Y117.775 E31.97717
G1 X107.048 Y118.246 E32.1086
G1 X106.657 Y118.293 E32.12825
G1 X105.084 Y118.382 E32.20685
G1 X104.676 Y118.379 E32.22721
G1 X102.718 Y118.24 E32.32514
G1 X102.289 Y118.18 E32.34675
G1 X100.278 Y117.759 E32.44926
G1 X99.815 Y117.625 E32.4733
G1 X91.89 Y114.668 E32.89531
G1 X86.661 Y113.041 E33.16852
G1 X81.319 Y111.706 E33.44323
G1 X78.654 Y111.16 E33.57895
G1 X73.758 Y110.347 E33.82656
G1 X73.267 Y110.225 E33.8518
G1 X72.802 Y110.027 E33.87701
G1 X72.374 Y109.759 E33.90221
G1 X72.024 Y109.458 E33.92524
G1 X71.795 Y109.23 E33.94136
G1 X71.466 Y108.846 E33.96659
G1 X71.202 Y108.415 E33.9918
G1 X71.009 Y107.948 E34.01701
G1 X70.891 Y107.456 E34.04225
G1 X70.853 Y106.962 E34.06697
G1 X70.852 Y94.839 E34.67179
G1 X70.892 Y94.335 E34.69702
G1 X71.011 Y93.844 E34.72222
G1 X71.205 Y93.377 E34.74745
G1 X71.471 Y92.947 E34.77268
G1 X71.789 Y92.576 E34.79705
G1 X72.018 Y92.347 E34.81321
G1 X72.403 Y92.019 E34.83844
G0 F3600 X74.358 Y94.8
;TYPE:SUPPORT
G1 F1800 X78.277 Y94.8 E35.03396
G1 X78.243 Y94.834 E35.03636
G1 X78.244 Y106.966 E35.64163
G1 X78.278 Y107 E35.64403
G1 X74.359 Y107 E35.83955
G1 X74.243 Y106.884 E35.84773
G1 X74.242 Y94.916 E36.44482
G1 X74.358 Y94.8 E36.453
G0 F3600 X74.382 Y96
G1 F1800 X78.104 Y96 E36.6387
G0 F3600 X76 Y94.94
G1 F1800 X76 Y106.86 E37.23339
G0 F3600 X74.382 Y104
G1 F1800 X78.104 Y104 E37.41908
G0 F3600 X78.104 Y100
G1 F1800 X74.382 Y100 E37.60477
G1 F600 E33.60477
G0 F3600 X78.821 Y94.643
G0 X79.325 Y94.139
G0 X130.674 Y94.139
G0 X131.722 Y94.8
G1 F600 E37.60477
G1 F1800 X135.641 Y94.8 E37.80029
G1 X135.757 Y94.916 E37.80847
G1 X135.758 Y106.884 E38.40556
G1 X135.642 Y107 E38.41374
G1 X131.723 Y107 E38.60926
G1 X131.757 Y106.966 E38.61166
G1 X131.756 Y94.834 E39.21693
G1 X131.722 Y94.8 E39.21933
G0 F3600 X132 Y94.94
G1 F1800 X132 Y106.86 E39.81402
G0 F3600 X131.896 Y104
G1 F1800 X135.618 Y104 E39.99971
G0 F3600 X135.618 Y100
G1 F1800 X131.896 Y100 E40.1854
G0 F3600 X131.896 Y96
G1 F1800 X135.618 Y96 E40.37109
G1 F600 E36.37109
;MESH:Object 1
G0 F3600 X131.182 Y95.999
G0 X129.917 Y96
G0 X110.401 Y103.124
G0 X109.846 Y103.972
G0 X109.16 Y104.718
G0 X108.359 Y105.341
G0 X107.467 Y105.824
G0 X106.506 Y106.154
G0 X105.507 Y106.32
G0 X104.493 Y106.32
G0 X103.494 Y106.154
G0 X102.717 Y105.887
G0 X93.35 Y101.6
;TYPE:WALL-INNER
G1 F600 E40.37109
G1 F1800 X98.255 Y101.6 E40.61581
G1 X98.468 Y102.441 E40.65909
G1 X98.928 Y103.487 E40.7161
G1 X99.551 Y104.442 E40.77298
G1 X100.323 Y105.279 E40.82979
G1 X101.222 Y105.98 E40.88667
G1 X102.227 Y106.524 E40.94368
G1 X103.307 Y106.894 E41.00064
G1 X104.43 Y107.081 E41.05743
G1 X105.57 Y107.081 E41.11431
G1 X106.693 Y106.894 E41.17111
G1 X107.773 Y106.524 E41.22806
G1 X108.778 Y105.98 E41.28508
G1 X109.677 Y105.279 E41.34195
G1 X110.449 Y104.442 E41.39876
G1 X111.072 Y103.487 E41.45565
G1 X111.532 Y102.441 E41.51266
G1 X111.745 Y101.6 E41.55594
G1 X116.65 Y101.6 E41.80065
G1 X116.65 Y96.2 E42.07006
G1 X129.117 Y96.2 E42.69204
G1 X129.118 Y105.4 E43.15103
G1 X129.118 Y105.6 E43.16101
G1 X128.918 Y105.6 E43.16747
G1 X117.576 Y105.6 E43.73332
G1 X116.167 Y107.956 E43.87028
G1 X114.986 Y109.426 E43.96435
G1 X113.629 Y110.707 E44.05746
G1 X112.104 Y111.792 E44.15083
G1 X110.458 Y112.653 E44.24351
G1 X108.697 Y113.284 E44.33683
G1 X106.854 Y113.668 E44.43075
G1 X105 Y113.796 E44.52347
G1 X103.146 Y113.668 E44.61619
G1 X101.303 Y113.284 E44.71011
G1 X99.542 Y112.653 E44.80344
G1 X97.896 Y111.792 E44.89611
G1 X96.371 Y110.707 E44.98949
G1 X95.014 Y109.426 E45.08259
G1 X93.833 Y107.956 E45.17666
G1 X92.424 Y105.6 E45.31362
G1 X80.883 Y105.6 E45.8894
G1 X80.882 Y96.4 E46.34839
G1 X80.882 Y96.2 E46.35837
G1 X81.082 Y96.2 E46.36483
G1 X93.35 Y96.2 E46.97688
G1 X93.35 Y101.6 E47.24629
G0 F3600 X93.75 Y101.2
G1 F1800 X98.579 Y101.2 E47.48721
G1 X98.585 Y101.27 E47.49072
G1 X98.848 Y102.311 E47.54428
G1 X99.281 Y103.296 E47.59796
G1 X99.868 Y104.195 E47.65153
G1 X100.595 Y104.984 E47.70506
G1 X101.442 Y105.644 E47.75863
G1 X102.388 Y106.156 E47.81229
G1 X103.405 Y106.505 E47.86593
G1 X104.463 Y106.681 E47.91944
G1 X105.537 Y106.681 E47.97303
G1 X106.595 Y106.505 E48.02653
G1 X107.612 Y106.156 E48.08018
G1 X108.558 Y105.644 E48.13384
G1 X109.405 Y104.984 E48.18741
G1 X110.132 Y104.195 E48.24094
G1 X110.719 Y103.296 E48.29451
G1 X111.152 Y102.311 E48.34819
G1 X111.415 Y101.27 E48.40175
G1 X111.421 Y101.2 E48.40526
G1 X116.25 Y101.2 E48.64618
G1 X116.25 Y95.8 E48.91559
G1 X129.517 Y95.8 E49.57748
G1 X129.518 Y105.8 E50.07638
G1 X129.518 Y106 E50.08636
G1 X129.318 Y106 E50.09282
G1 X117.803 Y106 E50.66731
G1 X116.493 Y108.19 E50.79462
G1 X115.281 Y109.698 E50.89114
G1 X113.885 Y111.016 E50.98693
G1 X112.318 Y112.131 E51.08287
G1 X110.612 Y113.023 E51.17892
G1 X108.806 Y113.67 E51.27463
G1 X106.913 Y114.065 E51.3711
G1 X105 Y114.197 E51.46677
G1 X103.087 Y114.065 E51.56244
G1 X101.194 Y113.67 E51.65891
G1 X99.388 Y113.023 E51.75462
G1 X97.682 Y112.131 E51.85067
G1 X96.115 Y111.016 E51.94662
G1 X94.719 Y109.698 E52.0424
G1 X93.507 Y108.19 E52.13892
G1 X92.197 Y106 E52.26624
G1 X80.483 Y106 E52.85065
G1 X80.482 Y96 E53.34955
G1 X80.482 Y95.8 E53.35953
G1 X80.682 Y95.8 E53.36599
G1 X93.75 Y95.8 E54.01796
G1 X93.75 Y101.2 E54.28736
G0 F3600 X94.15 Y100.8
G1 F1800 X98.947 Y100.8 E54.52669
G1 X98.981 Y101.204 E54.54691
G1 X99.228 Y102.181 E54.59719
G1 X99.634 Y103.105 E54.64754
G1 X100.185 Y103.948 E54.69779
G1 X100.867 Y104.689 E54.74803
G1 X101.662 Y105.308 E54.7983
G1 X102.549 Y105.788 E54.84862
G1 X103.503 Y106.116 E54.89895
G1 X104.496 Y106.281 E54.94917
G1 X105.504 Y106.281 E54.99945
G1 X106.497 Y106.116 E55.04967
G1 X107.451 Y105.788 E55.1
G1 X108.338 Y105.308 E55.15032
G1 X109.133 Y104.689 E55.20059
G1 X109.815 Y103.948 E55.25083
G1 X110.366 Y103.105 E55.30108
G1 X110.772 Y102.181 E55.35143
G1 X111.019 Y101.204 E55.40171
G1 X111.053 Y100.8 E55.42193
G1 X115.85 Y100.8 E55.66126
G1 X115.85 Y95.4 E55.93066
G1 X129.917 Y95.4 E56.63247
G1 X129.918 Y106.2 E57.17128
G1 X129.918 Y106.4 E57.18126
G1 X129.718 Y106.4 E57.18772
G1 X118.03 Y106.4 E57.77084
G1 X116.819 Y108.424 E57.88851
G1 X115.576 Y109.97 E57.98748
G1 X114.141 Y111.325 E58.08594
G1 X112.527 Y112.474 E58.18479
G1 X110.772 Y113.391 E58.28358
G1 X108.915 Y114.056 E58.38198
G1 X106.972 Y114.462 E58.48101
G1 X105 Y114.598 E58.57963
G1 X103.028 Y114.462 E58.67825
G1 X101.085 Y114.056 E58.77728
G1 X99.228 Y113.391 E58.87569
G1 X97.473 Y112.474 E58.97447
