;FLAVOR:Marlin
;TIME:2688
;Filament used: 1.61922m
;Layer height: 0.2
;Generated with Cura_SteamEngine 3.4.1
M190 S75
M104 S220
M109 S220
M82 ;absolute extrusion mode
G21 ;metric values
G90 ;absolute positioning
M82 ;set extruder to absolute mode
M107 ;start with the fan off
G28 X0 Y0 ;move X/Y to min endstops
G28 Z0 ;move Z to min endstops
G1 Z15.0 F9000 ;move the platform down 15mm
G92 E0 ;zero the extruded length
G1 F200 E3 ;extrude 3mm of feed stock
G92 E0 ;zero the extruded length again
G1 F9000
;Put printing message on LCD screen
M117 Printing...
G92 E0
G1 F1500 E-6.5
;LAYER_COUNT:101
;LAYER:0
M107
G0 F3000 X22.665 Y23.717 Z0.2
;TYPE:SKIRT
G1 F1500 E0
G1 F1200 X23.265 Y23.192 E0.01989
G1 X23.915 Y22.73 E0.03978
G1 X24.608 Y22.336 E0.05967
G1 X25.337 Y22.013 E0.07956
G1 X26.095 Y21.765 E0.09945
G1 X26.873 Y21.594 E0.11932
G1 X27.665 Y21.501 E0.13921
G1 X28.189 Y21.484 E0.15229
G1 X48.189 Y21.484 E0.65119
G1 X48.985 Y21.524 E0.67108
G1 X49.773 Y21.643 E0.69095
G1 X50.546 Y21.841 E0.71086
G1 X51.294 Y22.116 E0.73074
G1 X52.012 Y22.463 E0.75063
G1 X52.691 Y22.881 E0.77052
G1 X53.324 Y23.365 E0.7904
G1 X53.906 Y23.91 E0.81029
G1 X54.431 Y24.51 E0.83018
G1 X54.893 Y25.16 E0.85007
G1 X55.287 Y25.853 E0.86996
G1 X55.61 Y26.582 E0.88985
G1 X55.858 Y27.34 E0.90974
G1 X56.029 Y28.118 E0.92961
G1 X56.122 Y28.91 E0.9495
G1 X56.139 Y29.434 E0.96258
G1 X56.139 Y49.434 E1.46148
G1 X56.099 Y50.23 E1.48136
G1 X55.98 Y51.018 E1.50124
G1 X55.782 Y51.791 E1.52115
G1 X55.507 Y52.539 E1.54103
G1 X55.16 Y53.257 E1.56092
G1 X54.742 Y53.936 E1.58081
G1 X54.258 Y54.569 E1.60069
G1 X53.713 Y55.151 E1.62058
G1 X53.113 Y55.676 E1.64047
G1 X52.463 Y56.138 E1.66036
G1 X51.77 Y56.532 E1.68024
G1 X51.041 Y56.855 E1.70013
G1 X50.283 Y57.103 E1.72003
G1 X49.505 Y57.274 E1.7399
G1 X48.713 Y57.367 E1.75979
G1 X48.189 Y57.384 E1.77287
G1 X28.189 Y57.384 E2.27177
G1 X27.393 Y57.344 E2.29165
G1 X26.605 Y57.225 E2.31153
G1 X25.832 Y57.027 E2.33144
G1 X25.084 Y56.752 E2.35132
G1 X24.366 Y56.405 E2.37121
G1 X23.687 Y55.987 E2.3911
G1 X23.054 Y55.503 E2.41098
G1 X22.472 Y54.958 E2.43087
G1 X21.947 Y54.358 E2.45075
G1 X21.485 Y53.708 E2.47065
G1 X21.091 Y53.015 E2.49053
G1 X20.768 Y52.286 E2.51042
G1 X20.52 Y51.528 E2.53032
G1 X20.349 Y50.75 E2.55019
G1 X20.256 Y49.958 E2.57008
G1 X20.239 Y49.434 E2.58316
G1 X20.239 Y29.434 E3.08206
G1 X20.279 Y28.638 E3.10194
G1 X20.398 Y27.85 E3.12182
G1 X20.596 Y27.077 E3.14173
G1 X20.871 Y26.329 E3.16161
G1 X21.218 Y25.611 E3.1815
G1 X21.636 Y24.932 E3.20139
G1 X22.12 Y24.299 E3.22127
G1 X22.665 Y23.717 E3.24116
G0 F3000 X22.96 Y23.85
G1 F1200 X23.557 Y23.346 E3.26065
G1 X24.203 Y22.904 E3.28017
G1 X24.891 Y22.532 E3.29968
G1 X25.612 Y22.231 E3.31917
G1 X26.361 Y22.006 E3.33868
G1 X27.129 Y21.858 E3.35819
G1 X28.189 Y21.784 E3.3847
G1 X48.189 Y21.784 E3.8836
G1 X48.97 Y21.824 E3.90311
G1 X49.743 Y21.943 E3.92262
G1 X50.5 Y22.141 E3.94213
G1 X51.232 Y22.415 E3.96163
G1 X51.933 Y22.763 E3.98115
G1 X52.594 Y23.18 E4.00065
G1 X53.21 Y23.662 E4.02016
G1 X53.773 Y24.205 E4.03967
G1 X54.277 Y24.802 E4.05916
G1 X54.719 Y25.448 E4.07869
G1 X55.091 Y26.136 E4.0982
G1 X55.392 Y26.857 E4.11769
G1 X55.617 Y27.606 E4.1372
G1 X55.765 Y28.374 E4.15671
G1 X55.839 Y29.434 E4.18321
G1 X55.839 Y49.434 E4.68212
G1 X55.799 Y50.215 E4.70162
G1 X55.68 Y50.988 E4.72113
G1 X55.482 Y51.745 E4.74065
G1 X55.208 Y52.477 E4.76015
G1 X54.86 Y53.178 E4.77967
G1 X54.443 Y53.839 E4.79917
G1 X53.961 Y54.455 E4.81868
G1 X53.418 Y55.018 E4.83819
G1 X52.821 Y55.522 E4.85768
G1 X52.175 Y55.964 E4.87721
G1 X51.487 Y56.336 E4.89672
G1 X50.766 Y56.637 E4.91621
G1 X50.017 Y56.862 E4.93571
G1 X49.249 Y57.01 E4.95522
G1 X48.189 Y57.084 E4.98173
G1 X28.189 Y57.084 E5.48063
G1 X27.408 Y57.044 E5.50014
G1 X26.635 Y56.925 E5.51965
G1 X25.878 Y56.727 E5.53917
G1 X25.146 Y56.453 E5.55867
G1 X24.445 Y56.105 E5.57819
G1 X23.784 Y55.688 E5.59768
G1 X23.168 Y55.206 E5.6172
G1 X22.605 Y54.663 E5.63671
G1 X22.101 Y54.066 E5.6562
G1 X21.659 Y53.42 E5.67572
G1 X21.287 Y52.732 E5.69523
G1 X20.986 Y52.011 E5.71472
G1 X20.761 Y51.262 E5.73423
G1 X20.613 Y50.494 E5.75374
G1 X20.539 Y49.434 E5.78025
G1 X20.539 Y29.434 E6.27915
G1 X20.579 Y28.653 E6.29866
G1 X20.698 Y27.88 E6.31817
G1 X20.896 Y27.123 E6.33769
G1 X21.17 Y26.391 E6.35718
G1 X21.518 Y25.69 E6.37671
G1 X21.935 Y25.029 E6.3962
G1 X22.417 Y24.413 E6.41571
G1 X22.96 Y23.85 E6.43522
G0 F3000 X23.254 Y23.987
G1 F1200 X23.848 Y23.503 E6.45434
G1 X24.49 Y23.083 E6.47347
G1 X25.171 Y22.732 E6.49259
G1 X25.886 Y22.454 E6.51172
G1 X26.625 Y22.252 E6.53083
G1 X27.382 Y22.128 E6.54997
G1 X28.189 Y22.084 E6.57013
G1 X48.189 Y22.084 E7.06903
G1 X48.955 Y22.124 E7.08816
G1 X49.712 Y22.243 E7.10728
G1 X50.452 Y22.441 E7.12639
G1 X51.168 Y22.715 E7.14551
G1 X51.852 Y23.062 E7.16465
G1 X52.496 Y23.478 E7.18377
G1 X53.093 Y23.959 E7.20289
G1 X53.636 Y24.499 E7.222
G1 X54.12 Y25.093 E7.24111
G1 X54.54 Y25.735 E7.26025
G1 X54.891 Y26.416 E7.27936
G1 X55.169 Y27.131 E7.2985
G1 X55.371 Y27.87 E7.31761
G1 X55.495 Y28.627 E7.33674
G1 X55.539 Y29.434 E7.3569
G1 X55.539 Y49.434 E7.8558
G1 X55.499 Y50.2 E7.87494
G1 X55.38 Y50.957 E7.89405
G1 X55.182 Y51.697 E7.91316
G1 X54.908 Y52.413 E7.93229
G1 X54.561 Y53.097 E7.95142
G1 X54.145 Y53.741 E7.97054
G1 X53.664 Y54.338 E7.98967
G1 X53.124 Y54.881 E8.00877
G1 X52.53 Y55.365 E8.02788
G1 X51.888 Y55.785 E8.04702
G1 X51.207 Y56.136 E8.06613
G1 X50.492 Y56.414 E8.08527
G1 X49.753 Y56.616 E8.10438
G1 X48.996 Y56.74 E8.12352
G1 X48.189 Y56.784 E8.14368
G1 X28.189 Y56.784 E8.64258
G1 X27.423 Y56.744 E8.66171
G1 X26.666 Y56.625 E8.68083
G1 X25.926 Y56.427 E8.69994
G1 X25.21 Y56.153 E8.71906
G1 X24.526 Y55.806 E8.73819
G1 X23.882 Y55.39 E8.75732
G1 X23.285 Y54.909 E8.77644
G1 X22.742 Y54.369 E8.79554
G1 X22.258 Y53.775 E8.81466
G1 X21.838 Y53.133 E8.8338
G1 X21.487 Y52.452 E8.85291
G1 X21.209 Y51.737 E8.87204
G1 X21.007 Y50.998 E8.89115
G1 X20.883 Y50.241 E8.91029
G1 X20.839 Y49.434 E8.93045
G1 X20.839 Y29.434 E9.42935
G1 X20.879 Y28.668 E9.44849
G1 X20.998 Y27.911 E9.4676
G1 X21.196 Y27.171 E9.48671
G1 X21.47 Y26.455 E9.50583
G1 X21.817 Y25.771 E9.52497
G1 X22.233 Y25.127 E9.54409
G1 X22.714 Y24.53 E9.56322
G1 X23.254 Y23.987 E9.58232
G0 F3000 X23.548 Y24.127
G1 F1200 X24.139 Y23.663 E9.60106
G1 X24.776 Y23.265 E9.6198
G1 X25.451 Y22.937 E9.63852
G1 X26.157 Y22.683 E9.65723
G1 X26.887 Y22.505 E9.67598
G1 X27.631 Y22.406 E9.6947
G1 X28.189 Y22.384 E9.70863
G1 X48.189 Y22.384 E10.20753
G1 X48.939 Y22.424 E10.22627
G1 X49.68 Y22.543 E10.24499
G1 X50.404 Y22.741 E10.26371
G1 X51.103 Y23.015 E10.28244
G1 X51.769 Y23.361 E10.30116
G1 X52.395 Y23.776 E10.3199
G1 X52.973 Y24.255 E10.33862
G1 X53.496 Y24.793 E10.35734
G1 X53.96 Y25.384 E10.37608
G1 X54.358 Y26.021 E10.39482
G1 X54.686 Y26.696 E10.41354
G1 X54.94 Y27.402 E10.43226
G1 X55.118 Y28.132 E10.451
G1 X55.217 Y28.876 E10.46972
G1 X55.239 Y29.434 E10.48365
G1 X55.239 Y49.434 E10.98256
G1 X55.199 Y50.184 E11.00129
G1 X55.08 Y50.925 E11.02001
G1 X54.882 Y51.649 E11.03874
G1 X54.608 Y52.348 E11.05747
G1 X54.262 Y53.014 E11.07619
G1 X53.847 Y53.64 E11.09492
G1 X53.368 Y54.218 E11.11365
G1 X52.83 Y54.741 E11.13236
G1 X52.239 Y55.205 E11.15111
G1 X51.602 Y55.603 E11.16984
G1 X50.927 Y55.931 E11.18857
G1 X50.221 Y56.185 E11.20728
G1 X49.491 Y56.363 E11.22603
G1 X48.747 Y56.462 E11.24475
G1 X48.189 Y56.484 E11.25868
G1 X28.189 Y56.484 E11.75758
G1 X27.439 Y56.444 E11.77632
G1 X26.698 Y56.325 E11.79504
G1 X25.974 Y56.127 E11.81376
G1 X25.275 Y55.853 E11.83249
G1 X24.609 Y55.507 E11.85121
G1 X23.983 Y55.092 E11.86995
G1 X23.405 Y54.613 E11.88867
G1 X22.882 Y54.075 E11.90739
G1 X22.418 Y53.484 E11.92613
G1 X22.02 Y52.847 E11.94487
G1 X21.692 Y52.172 E11.96359
G1 X21.438 Y51.466 E11.98231
G1 X21.26 Y50.736 E12.00105
G1 X21.161 Y49.992 E12.01977
G1 X21.139 Y49.434 E12.0337
G1 X21.139 Y29.434 E12.5326
G1 X21.179 Y28.684 E12.55134
G1 X21.298 Y27.943 E12.57006
G1 X21.496 Y27.219 E12.58878
G1 X21.77 Y26.52 E12.60751
G1 X22.116 Y25.854 E12.62623
G1 X22.531 Y25.228 E12.64497
G1 X23.01 Y24.65 E12.66369
G1 X23.548 Y24.127 E12.68241
G0 F3000 X23.306 Y24.773
G1 F1200 X23.842 Y24.27 E12.70075
G1 X24.429 Y23.828 E12.71908
G1 X25.06 Y23.453 E12.73739
G1 X25.728 Y23.148 E12.75571
G1 X26.426 Y22.918 E12.77404
G1 X27.145 Y22.765 E12.79238
G1 X28.189 Y22.684 E12.8185
G1 X48.189 Y22.684 E13.3174
G1 X48.922 Y22.724 E13.33571
G1 X49.647 Y22.843 E13.35404
G1 X50.355 Y23.041 E13.37238
G1 X51.037 Y23.314 E13.3907
G1 X51.685 Y23.66 E13.40903
G1 X52.292 Y24.074 E13.42735
G1 X52.85 Y24.551 E13.44567
G1 X53.353 Y25.087 E13.464
G1 X53.795 Y25.674 E13.48233
G1 X54.17 Y26.305 E13.50064
G1 X54.475 Y26.973 E13.51896
G1 X54.705 Y27.671 E13.53729
G1 X54.858 Y28.39 E13.55563
G1 X54.939 Y29.434 E13.58175
G1 X54.939 Y49.434 E14.08065
G1 X54.899 Y50.167 E14.09896
G1 X54.78 Y50.892 E14.11729
G1 X54.582 Y51.6 E14.13563
G1 X54.309 Y52.282 E14.15396
G1 X53.963 Y52.93 E14.17228
G1 X53.549 Y53.537 E14.19061
G1 X53.072 Y54.095 E14.20892
G1 X52.536 Y54.598 E14.22726
G1 X51.949 Y55.04 E14.24559
G1 X51.318 Y55.415 E14.2639
G1 X50.65 Y55.72 E14.28221
G1 X49.952 Y55.95 E14.30055
G1 X49.233 Y56.103 E14.31888
G1 X48.189 Y56.184 E14.345
G1 X28.189 Y56.184 E14.84391
G1 X27.456 Y56.144 E14.86222
G1 X26.731 Y56.025 E14.88055
G1 X26.023 Y55.827 E14.89888
G1 X25.341 Y55.554 E14.91721
G1 X24.693 Y55.208 E14.93553
G1 X24.086 Y54.794 E14.95386
G1 X23.528 Y54.317 E14.97217
G1 X23.025 Y53.781 E14.99051
G1 X22.583 Y53.194 E15.00884
G1 X22.208 Y52.563 E15.02715
G1 X21.903 Y51.895 E15.04547
G1 X21.673 Y51.197 E15.0638
G1 X21.52 Y50.478 E15.08214
G1 X21.439 Y49.434 E15.10826
G1 X21.439 Y29.434 E15.60716
G1 X21.479 Y28.701 E15.62547
G1 X21.598 Y27.976 E15.6438
G1 X21.796 Y27.268 E15.66214
G1 X22.069 Y26.586 E15.68046
G1 X22.415 Y25.938 E15.69879
G1 X22.829 Y25.331 E15.71712
G1 X23.306 Y24.773 E15.73543
G0 F3000 X23.602 Y24.899
G1 F1200 X24.135 Y24.418 E15.75334
G1 X24.717 Y23.998 E15.77124
G1 X25.343 Y23.646 E15.78916
G1 X26.004 Y23.365 E15.80707
G1 X26.692 Y23.16 E15.82498
G1 X27.399 Y23.033 E15.8429
G1 X28.189 Y22.984 E15.86264
G1 X48.189 Y22.984 E16.36155
G1 X48.906 Y23.024 E16.37946
G1 X49.614 Y23.143 E16.39737
G1 X50.304 Y23.341 E16.41527
G1 X50.969 Y23.614 E16.43321
G1 X51.598 Y23.959 E16.4511
G1 X52.186 Y24.372 E16.46903
G1 X52.724 Y24.847 E16.48693
G1 X53.205 Y25.38 E16.50484
G1 X53.625 Y25.962 E16.52274
G1 X53.977 Y26.588 E16.54066
G1 X54.258 Y27.249 E16.55857
G1 X54.463 Y27.937 E16.57648
G1 X54.59 Y28.644 E16.5944
G1 X54.639 Y29.434 E16.61415
G1 X54.639 Y49.434 E17.11305
G1 X54.599 Y50.151 E17.13096
G1 X54.48 Y50.859 E17.14887
G1 X54.282 Y51.549 E17.16678
G1 X54.009 Y52.214 E17.18471
G1 X53.664 Y52.843 E17.2026
G1 X53.251 Y53.431 E17.22053
G1 X52.776 Y53.969 E17.23843
G1 X52.243 Y54.45 E17.25634
G1 X51.661 Y54.87 E17.27424
G1 X51.035 Y55.222 E17.29216
G1 X50.374 Y55.503 E17.31008
G1 X49.686 Y55.708 E17.32798
G1 X48.979 Y55.835 E17.3459
G1 X48.189 Y55.884 E17.36565
G1 X28.189 Y55.884 E17.86455
G1 X27.472 Y55.844 E17.88246
G1 X26.764 Y55.725 E17.90037
G1 X26.074 Y55.527 E17.91828
G1 X25.409 Y55.254 E17.93621
G1 X24.78 Y54.909 E17.95411
G1 X24.192 Y54.496 E17.97203
G1 X23.654 Y54.021 E17.98993
G1 X23.173 Y53.488 E18.00784
G1 X22.753 Y52.906 E18.02574
G1 X22.401 Y52.28 E18.04366
G1 X22.12 Y51.619 E18.06158
G1 X21.915 Y50.931 E18.07948
G1 X21.788 Y50.224 E18.0974
G1 X21.739 Y49.434 E18.11715
G1 X21.739 Y29.434 E18.61605
G1 X21.779 Y28.717 E18.63396
G1 X21.898 Y28.009 E18.65187
G1 X22.096 Y27.319 E18.66978
G1 X22.369 Y26.654 E18.68771
G1 X22.714 Y26.025 E18.70561
G1 X23.127 Y25.437 E18.72353
G1 X23.602 Y24.899 E18.74143
G0 F3000 X23.898 Y25.029
G1 F1200 X24.427 Y24.569 E18.75892
G1 X25.005 Y24.172 E18.77641
G1 X25.625 Y23.844 E18.79391
G1 X26.278 Y23.589 E18.8114
G1 X26.955 Y23.409 E18.82887
G1 X27.649 Y23.308 E18.84637
G1 X28.189 Y23.284 E18.85985
G1 X48.189 Y23.284 E19.35875
G1 X48.889 Y23.324 E19.37624
G1 X49.58 Y23.443 E19.39373
G1 X50.253 Y23.641 E19.41123
G1 X50.899 Y23.913 E19.42872
G1 X51.51 Y24.257 E19.44621
G1 X52.077 Y24.669 E19.46369
G1 X52.594 Y25.143 E19.48119
G1 X53.054 Y25.672 E19.49867
G1 X53.451 Y26.25 E19.51617
G1 X53.779 Y26.87 E19.53366
G1 X54.034 Y27.523 E19.55115
G1 X54.214 Y28.2 E19.56862
G1 X54.315 Y28.894 E19.58612
G1 X54.339 Y29.434 E19.5996
G1 X54.339 Y49.434 E20.0985
G1 X54.299 Y50.134 E20.11599
G1 X54.18 Y50.825 E20.13349
G1 X53.982 Y51.498 E20.15098
G1 X53.71 Y52.144 E20.16847
G1 X53.366 Y52.755 E20.18596
G1 X52.954 Y53.322 E20.20344
G1 X52.48 Y53.839 E20.22094
G1 X51.951 Y54.299 E20.23843
G1 X51.373 Y54.696 E20.25592
G1 X50.753 Y55.024 E20.27342
G1 X50.1 Y55.279 E20.2909
G1 X49.423 Y55.459 E20.30838
G1 X48.729 Y55.56 E20.32587
G1 X48.189 Y55.584 E20.33936
G1 X28.189 Y55.584 E20.83826
G1 X27.489 Y55.544 E20.85575
G1 X26.798 Y55.425 E20.87324
G1 X26.125 Y55.227 E20.89074
G1 X25.479 Y54.955 E20.90822
G1 X24.868 Y54.611 E20.92571
G1 X24.301 Y54.199 E20.9432
G1 X23.784 Y53.725 E20.96069
G1 X23.324 Y53.196 E20.97818
G1 X22.927 Y52.618 E20.99567
G1 X22.599 Y51.998 E21.01317
G1 X22.344 Y51.345 E21.03066
G1 X22.164 Y50.668 E21.04813
G1 X22.063 Y49.974 E21.06563
G1 X22.039 Y49.434 E21.07911
G1 X22.039 Y29.434 E21.57801
G1 X22.079 Y28.734 E21.5955
G1 X22.198 Y28.043 E21.61299
G1 X22.396 Y27.37 E21.63049
G1 X22.668 Y26.724 E21.64798
G1 X23.012 Y26.113 E21.66547
G1 X23.424 Y25.546 E21.68295
G1 X23.898 Y25.029 E21.70045
G0 F3000 X24.192 Y25.162
G1 F1200 X24.718 Y24.725 E21.71751
G1 X25.292 Y24.352 E21.73458
G1 X25.904 Y24.049 E21.75162
G1 X26.548 Y23.819 E21.76868
G1 X27.215 Y23.666 E21.78575
G1 X28.189 Y23.584 E21.81013
G1 X48.189 Y23.584 E22.30903
G1 X48.872 Y23.624 E22.3261
G1 X49.545 Y23.743 E22.34315
G1 X50.2 Y23.94 E22.36021
G1 X50.827 Y24.213 E22.37727
G1 X51.418 Y24.556 E22.39431
G1 X51.965 Y24.966 E22.41137
G1 X52.461 Y25.437 E22.42843
G1 X52.898 Y25.963 E22.44549
G1 X53.271 Y26.537 E22.46256
G1 X53.574 Y27.149 E22.4796
G1 X53.804 Y27.793 E22.49666
G1 X53.957 Y28.46 E22.51373
G1 X54.039 Y29.434 E22.53811
G1 X54.039 Y49.434 E23.03701
G1 X53.999 Y50.117 E23.05408
G1 X53.88 Y50.79 E23.07113
G1 X53.683 Y51.445 E23.08819
G1 X53.41 Y52.072 E23.10525
G1 X53.067 Y52.663 E23.12229
G1 X52.657 Y53.21 E23.13935
G1 X52.186 Y53.706 E23.15641
G1 X51.66 Y54.143 E23.17347
G1 X51.086 Y54.516 E23.19054
G1 X50.474 Y54.819 E23.20758
G1 X49.83 Y55.049 E23.22464
G1 X49.163 Y55.202 E23.24171
G1 X48.189 Y55.284 E23.26609
G1 X28.189 Y55.284 E23.76499
G1 X27.506 Y55.244 E23.78206
G1 X26.833 Y55.125 E23.79911
G1 X26.178 Y54.928 E23.81617
G1 X25.551 Y54.655 E23.83323
G1 X24.96 Y54.312 E23.85027
G1 X24.413 Y53.902 E23.86732
G1 X23.917 Y53.431 E23.88439
G1 X23.48 Y52.905 E23.90145
G1 X23.107 Y52.331 E23.91852
G1 X22.804 Y51.719 E23.93556
G1 X22.574 Y51.075 E23.95262
G1 X22.421 Y50.408 E23.96969
G1 X22.339 Y49.434 E23.99407
G1 X22.339 Y29.434 E24.49297
G1 X22.379 Y28.751 E24.51004
G1 X22.498 Y28.078 E24.52709
G1 X22.695 Y27.423 E24.54415
G1 X22.968 Y26.796 E24.56121
G1 X23.311 Y26.205 E24.57825
G1 X23.721 Y25.658 E24.5953
G1 X24.192 Y25.162 E24.61237
G0 F3000 X24.487 Y25.299
G1 F1200 X25.009 Y24.885 E24.62899
G1 X25.577 Y24.537 E24.6456
G1 X26.182 Y24.26 E24.6622
G1 X26.816 Y24.056 E24.67882
G1 X27.47 Y23.931 E24.69542
G1 X28.189 Y23.884 E24.7134
G1 X48.189 Y23.884 E25.2123
G1 X48.854 Y23.924 E25.22892
G1 X49.509 Y24.043 E25.24553
G1 X50.145 Y24.24 E25.26213
G1 X50.753 Y24.512 E25.27875
G1 X51.325 Y24.855 E25.29539
G1 X51.851 Y25.263 E25.31199
G1 X52.324 Y25.732 E25.32861
G1 X52.738 Y26.254 E25.34523
G1 X53.086 Y26.822 E25.36184
G1 X53.363 Y27.427 E25.37844
G1 X53.567 Y28.061 E25.39506
G1 X53.692 Y28.715 E25.41167
G1 X53.739 Y29.434 E25.42964
G1 X53.739 Y49.434 E25.92854
G1 X53.699 Y50.099 E25.94516
G1 X53.58 Y50.754 E25.96177
G1 X53.383 Y51.39 E25.97838
G1 X53.111 Y51.998 E25.99499
G1 X52.768 Y52.57 E26.01163
G1 X52.36 Y53.096 E26.02823
G1 X51.891 Y53.569 E26.04485
G1 X51.369 Y53.983 E26.06147
G1 X50.801 Y54.331 E26.07809
G1 X50.196 Y54.608 E26.09468
G1 X49.562 Y54.812 E26.1113
G1 X48.908 Y54.937 E26.12791
G1 X48.189 Y54.984 E26.14588
G1 X28.189 Y54.984 E26.64478
G1 X27.524 Y54.944 E26.6614
