;FLAVOR:Marlin
;TIME:870
;Filament used: 0.618068m
;Layer height: 0.2
;Generated with Cura_SteamEngine 3.6.0
M140 S55
M105
M190 S55
M104 S220
M105
M109 S220
M82 ;absolute extrusion mode
G21 ;metric values
G90 ;absolute positioning
M82 ;set extruder to absolute mode
M107 ;start with the fan off
G28 X0 Y0 ;move X/Y to min endstops
G28 Z0 ;move Z to min endstops
G1 Z15.0 F9000 ;move the platform down 15mm
G92 E0 ;zero the extruded length
G1 F200 E3 ;extrude 3mm of feed stock
G92 E0 ;zero the extruded length again
G1 F9000
;Put printing message on LCD screen
M117 Printing...
G92 E0
G1 F900 E-4
;LAYER_COUNT:53
;LAYER:0
M107
G0 F3000 X64.828 Y102.019 Z0.2
;TYPE:SKIRT
G1 F900 E0
G1 F2100 X65.176 Y101.838 E0.01142
G1 X65.553 Y101.731 E0.02282
G1 X65.944 Y101.703 E0.03423
G1 X66.332 Y101.754 E0.04562
G1 X66.72 Y101.892 E0.0576
G1 X69.927 Y103.433 E0.16115
G1 X70.132 Y103.548 E0.16799
G1 X88.009 Y115.016 E0.78611
G1 X90.508 Y116.448 E0.86993
G1 X109.484 Y126.064 E1.48904
G1 X109.625 Y126.143 E1.49374
G1 X110.487 Y126.675 E1.52322
G1 X110.571 Y126.73 E1.52614
G1 X112.564 Y128.109 E1.59668
G1 X112.862 Y128.364 E1.60809
G1 X113.102 Y128.673 E1.61948
G1 X113.275 Y129.025 E1.63089
G1 X113.372 Y129.405 E1.64231
G1 X113.391 Y129.796 E1.6537
G1 X113.33 Y130.183 E1.6651
G1 X113.191 Y130.552 E1.67658
G1 X110.979 Y134.982 E1.82068
G1 X110.769 Y135.313 E1.83209
G1 X110.497 Y135.595 E1.84349
G1 X110.173 Y135.815 E1.85489
G1 X109.811 Y135.966 E1.8663
G1 X109.426 Y136.04 E1.87771
G1 X109.034 Y136.034 E1.88912
G1 X108.652 Y135.949 E1.90051
G1 X108.294 Y135.789 E1.91192
G1 X108.05 Y135.622 E1.92053
G1 X106.924 Y134.715 E1.9626
G1 X104.922 Y133.475 E2.03114
G1 X100.639 Y131.283 E2.17116
G1 X100.59 Y131.257 E2.17278
G1 X98.044 Y129.861 E2.25728
G1 X87.593 Y124.499 E2.59912
G1 X87.538 Y124.469 E2.60095
G1 X84.241 Y122.64 E2.71067
G1 X84.153 Y122.588 E2.71365
G1 X66.247 Y111.366 E3.32864
G1 X64.103 Y110.171 E3.40008
G1 X62.5 Y109.585 E3.44975
G1 X62.148 Y109.414 E3.46114
G1 X61.837 Y109.175 E3.47255
G1 X61.582 Y108.878 E3.48394
G1 X61.391 Y108.535 E3.49537
G1 X61.275 Y108.161 E3.50677
G1 X61.236 Y107.771 E3.51817
G1 X61.277 Y107.381 E3.52958
G1 X61.396 Y107.008 E3.54098
G1 X61.552 Y106.72 E3.55051
G1 X64.277 Y102.57 E3.695
G1 X64.524 Y102.266 E3.7064
G1 X64.828 Y102.019 E3.7178
G0 F3000 X65.078 Y102.275
G1 F2100 X65.401 Y102.129 E3.72811
G1 X65.748 Y102.058 E3.73842
G1 X66.102 Y102.067 E3.74872
G1 X66.568 Y102.207 E3.76289
G1 X69.775 Y103.748 E3.86643
G1 X69.943 Y103.842 E3.87204
G1 X87.826 Y115.314 E4.49036
G1 X90.348 Y116.759 E4.57495
G1 X109.326 Y126.376 E5.19413
G1 X109.441 Y126.441 E5.19797
G1 X110.303 Y126.973 E5.22745
G1 X110.372 Y127.018 E5.22985
G1 X112.365 Y128.397 E5.30038
G1 X112.632 Y128.63 E5.31069
G1 X112.84 Y128.917 E5.32101
G1 X112.979 Y129.243 E5.33132
G1 X113.041 Y129.592 E5.34164
G1 X113.023 Y129.946 E5.35195
G1 X112.878 Y130.396 E5.36571
G1 X110.666 Y134.826 E5.50982
G1 X110.473 Y135.123 E5.52013
G1 X110.219 Y135.369 E5.53042
G1 X109.915 Y135.553 E5.54076
G1 X109.579 Y135.664 E5.55106
G1 X109.226 Y135.697 E5.56137
G1 X108.875 Y135.65 E5.57168
G1 X108.543 Y135.526 E5.58199
G1 X108.269 Y135.349 E5.59149
G1 X107.127 Y134.43 E5.63415
G1 X105.091 Y133.169 E5.70384
G1 X100.798 Y130.971 E5.84421
G1 X100.759 Y130.95 E5.84549
G1 X98.202 Y129.548 E5.93036
G1 X87.753 Y124.187 E6.27214
G1 X87.708 Y124.163 E6.27363
G1 X84.411 Y122.334 E6.38335
G1 X84.339 Y122.292 E6.38578
G1 X66.432 Y111.069 E7.00081
G1 X64.243 Y109.849 E7.07375
G1 X62.62 Y109.256 E7.12403
G1 X62.303 Y109.098 E7.13434
G1 X62.03 Y108.873 E7.14464
G1 X61.813 Y108.592 E7.15497
G1 X61.665 Y108.27 E7.16528
G1 X61.593 Y107.923 E7.1756
G1 X61.6 Y107.569 E7.1859
G1 X61.686 Y107.225 E7.19622
G1 X61.844 Y106.913 E7.2064
G1 X64.569 Y102.763 E7.35088
G1 X64.796 Y102.49 E7.36122
G1 X65.078 Y102.275 E7.37154
G0 F3000 X65.322 Y102.539
G1 F2100 X65.616 Y102.432 E7.38064
G1 X65.927 Y102.403 E7.38973
G1 X66.235 Y102.453 E7.39881
G1 X66.417 Y102.523 E7.40449
G1 X69.624 Y104.064 E7.50804
G1 X69.754 Y104.137 E7.51238
G1 X87.643 Y115.612 E8.13089
G1 X90.172 Y117.062 E8.21573
G1 X109.168 Y126.688 E8.8355
G1 X109.257 Y126.739 E8.83848
G1 X110.119 Y127.271 E8.86796
G1 X110.173 Y127.306 E8.86983
G1 X112.166 Y128.685 E8.94037
G1 X112.398 Y128.894 E8.94945
G1 X112.57 Y129.155 E8.95855
G1 X112.67 Y129.451 E8.96764
G1 X112.692 Y129.762 E8.97672
G1 X112.634 Y130.069 E8.98581
G1 X112.565 Y130.239 E8.99115
G1 X110.353 Y134.669 E9.13525
G1 X110.179 Y134.929 E9.14436
G1 X109.945 Y135.136 E9.15345
G1 X109.666 Y135.277 E9.16255
G1 X109.361 Y135.343 E9.17163
G1 X109.049 Y135.329 E9.18072
G1 X108.75 Y135.237 E9.18982
G1 X108.489 Y135.076 E9.19875
G1 X107.332 Y134.145 E9.24196
G1 X105.259 Y132.861 E9.31293
G1 X100.958 Y130.659 E9.45355
G1 X100.927 Y130.643 E9.45457
G1 X98.373 Y129.242 E9.53934
G1 X87.913 Y123.876 E9.88148
G1 X87.878 Y123.857 E9.88263
G1 X84.581 Y122.028 E9.99236
G1 X84.524 Y121.995 E9.99428
G1 X66.599 Y110.761 E10.60993
G1 X64.395 Y109.532 E10.68337
G1 X62.741 Y108.928 E10.73461
G1 X62.463 Y108.784 E10.74372
G1 X62.231 Y108.575 E10.75281
G1 X62.06 Y108.313 E10.76192
G1 X61.96 Y108.017 E10.77101
G1 X61.938 Y107.706 E10.78008
G1 X61.996 Y107.399 E10.78917
G1 X62.137 Y107.105 E10.79866
G1 X64.862 Y102.955 E10.94315
G1 X65.065 Y102.717 E10.95225
G1 X65.322 Y102.539 E10.96135
G0 F3000 X65.331 Y102.951
G1 F2100 X65.558 Y102.816 E10.96904
G1 X65.815 Y102.755 E10.97672
G1 X66.078 Y102.773 E10.9844
G1 X66.265 Y102.838 E10.99016
G1 X69.472 Y104.379 E11.09371
G1 X69.565 Y104.432 E11.09682
G1 X87.46 Y115.911 E11.71555
G1 X89.996 Y117.365 E11.80062
G1 X109.01 Y127 E12.42097
G1 X109.074 Y127.036 E12.42311
G1 X109.936 Y127.568 E12.45259
G1 X109.974 Y127.593 E12.45391
G1 X111.967 Y128.972 E12.52444
G1 X112.159 Y129.154 E12.53214
G1 X112.288 Y129.384 E12.53982
G1 X112.343 Y129.642 E12.54749
G1 X112.318 Y129.904 E12.55515
G1 X112.252 Y130.083 E12.56071
G1 X110.04 Y134.513 E12.70481
G1 X109.888 Y134.728 E12.71247
G1 X109.678 Y134.889 E12.72017
G1 X109.431 Y134.98 E12.72783
G1 X109.167 Y134.992 E12.73553
G1 X108.912 Y134.926 E12.74319
G1 X108.708 Y134.804 E12.75011
G1 X107.533 Y133.858 E12.79401
G1 X105.432 Y132.557 E12.86593
G1 X101.117 Y130.348 E13.007
G1 X101.095 Y130.336 E13.00773
G1 X98.546 Y128.938 E13.09234
G1 X88.073 Y123.565 E13.4349
G1 X88.048 Y123.551 E13.43574
G1 X84.751 Y121.722 E13.54546
G1 X84.71 Y121.698 E13.54685
G1 X66.784 Y110.463 E14.16254
G1 X64.54 Y109.213 E14.23729
G1 X62.861 Y108.599 E14.28932
G1 X62.629 Y108.472 E14.29702
G1 X62.446 Y108.282 E14.30469
G1 X62.328 Y108.046 E14.31237
G1 X62.286 Y107.786 E14.32004
G1 X62.323 Y107.524 E14.32774
G1 X62.43 Y107.297 E14.33504
G1 X65.155 Y103.147 E14.47953
G1 X65.331 Y102.951 E14.48719
G0 F3000 X65.59 Y103.193
G1 F2100 X65.778 Y103.113 E14.49314
G1 X65.982 Y103.111 E14.49908
G1 X66.113 Y103.154 E14.50309
G1 X69.32 Y104.695 E14.60664
G1 X69.376 Y104.726 E14.6085
G1 X87.275 Y116.208 E15.22737
G1 X89.856 Y117.687 E15.31394
G1 X108.851 Y127.313 E15.93368
G1 X108.89 Y127.334 E15.93497
G1 X109.752 Y127.866 E15.96445
G1 X109.775 Y127.881 E15.96525
G1 X111.768 Y129.26 E16.03578
G1 X111.91 Y129.407 E16.04173
G1 X111.985 Y129.596 E16.04765
G1 X111.983 Y129.8 E16.05358
G1 X111.939 Y129.927 E16.05749
G1 X109.727 Y134.357 E16.2016
G1 X109.602 Y134.518 E16.20753
G1 X109.425 Y134.619 E16.21346
G1 X109.223 Y134.646 E16.21939
G1 X109.026 Y134.593 E16.22533
G1 X108.928 Y134.531 E16.2287
G1 X107.735 Y133.571 E16.27327
G1 X105.606 Y132.252 E16.34615
G1 X101.277 Y130.036 E16.48769
G1 X101.264 Y130.029 E16.48812
G1 X98.705 Y128.626 E16.57305
G1 X88.232 Y123.253 E16.91561
G1 X88.217 Y123.245 E16.91611
G1 X84.92 Y121.416 E17.02583
G1 X84.896 Y121.402 E17.02664
G1 X66.969 Y110.167 E17.64235
G1 X64.68 Y108.891 E17.71862
G1 X62.981 Y108.27 E17.77127
G1 X62.806 Y108.164 E17.77722
G1 X62.686 Y108 E17.78314
G1 X62.637 Y107.802 E17.78907
G1 X62.667 Y107.6 E17.79501
G1 X62.722 Y107.489 E17.79862
G1 X65.447 Y103.339 E17.94311
G1 X65.59 Y103.193 E17.94905
G0 F3000 X65.833 Y103.46
G1 F2100 X65.962 Y103.469 E17.95282
G1 X69.169 Y105.01 E18.05636
G1 X69.187 Y105.021 E18.05698
G1 X87.101 Y116.512 E18.67636
G1 X89.683 Y117.991 E18.76296
G1 X108.693 Y127.625 E19.38319
G1 X108.706 Y127.632 E19.38362
G1 X109.568 Y128.164 E19.4131
G1 X109.576 Y128.169 E19.41337
G1 X111.569 Y129.548 E19.4839
G1 X111.637 Y129.643 E19.4873
G1 X111.626 Y129.77 E19.49101
G1 X109.414 Y134.2 E19.63512
G1 X109.33 Y134.281 E19.63851
G1 X109.214 Y134.292 E19.6419
G1 X109.147 Y134.258 E19.64409
G1 X107.942 Y133.288 E19.68911
G1 X105.779 Y131.948 E19.76316
G1 X101.436 Y129.725 E19.90515
G1 X101.432 Y129.722 E19.90529
G1 X98.865 Y128.314 E19.9905
G1 X98.865 Y128.315 E19.99053
G1 X88.392 Y122.942 E20.33309
G1 X88.387 Y122.939 E20.33326
G1 X85.09 Y121.11 E20.44299
G1 X85.082 Y121.105 E20.44326
G1 X67.146 Y109.864 E21.05929
G1 X64.829 Y108.572 E21.1365
G1 X63.101 Y107.941 E21.19003
G1 X63.011 Y107.867 E21.19342
G1 X62.988 Y107.753 E21.19681
G1 X63.015 Y107.681 E21.19905
G1 X65.74 Y103.531 E21.34353
G1 X65.833 Y103.46 E21.34694
G1 F900 E17.34694
G1 F300 Z0.5
;MESH:Object 1
G0 F3000 X75.305 Y109.362 Z0.5
;TYPE:WALL-OUTER
G1 F300 Z0.2
G1 F900 E21.34694
G1 F2100 X76.682 Y110.222 E21.39418
G1 X77.167 Y110.512 E21.41063
G1 X78.311 Y111.275 E21.45065
G1 X79.058 Y111.751 E21.47643
G1 X81.105 Y113.082 E21.54749
G1 X82.087 Y113.736 E21.58182
G1 X82.527 Y114.019 E21.59705
G1 X83.744 Y114.834 E21.63967
G1 X84.224 Y115.127 E21.65604
G1 X85.042 Y115.66 E21.68445
G1 X86.911 Y116.835 E21.7487
G1 X88.486 Y117.749 E21.8017
G1 X89.501 Y118.32 E21.83559
G1 X91.122 Y119.156 E21.88867
G1 X91.465 Y119.341 E21.90001
G1 X92.331 Y119.771 E21.92815
G1 X92.794 Y120.017 E21.94341
G1 X94.587 Y120.903 E22.00161
G1 X96.129 Y121.651 E22.05149
G1 X96.493 Y121.839 E22.06341
G1 X97.909 Y122.545 E22.10946
G1 X98.555 Y122.876 E22.13059
G1 X99.334 Y123.253 E22.15577
G1 X99.927 Y123.552 E22.1751
G1 X100.354 Y123.784 E22.18924
G1 X103.212 Y125.268 E22.28296
G1 X104.178 Y125.741 E22.31426
G1 X104.727 Y126.023 E22.33223
G1 X105.719 Y126.487 E22.3641
G1 X106.652 Y126.948 E22.39438
G1 X107.579 Y127.418 E22.42463
G1 X108.516 Y127.955 E22.45606
G1 X109.366 Y128.48 E22.48514
G1 X109.786 Y128.758 E22.4998
G1 X110.6 Y129.329 E22.52873
G1 X110.728 Y129.428 E22.53344
G1 X110.975 Y129.56 E22.54159
G1 X111.11 Y129.65 E22.54631
G1 X111.149 Y129.697 E22.54809
G1 X111.218 Y129.741 E22.55047
G1 X111.117 Y129.937 E22.55689
G1 X110.476 Y131.281 E22.60022
G1 X110.334 Y131.554 E22.60918
G1 X110.203 Y131.839 E22.61831
G1 X109.642 Y132.942 E22.65432
G1 X109.514 Y133.18 E22.66219
G1 X109.366 Y133.491 E22.67221
G1 X109.268 Y133.674 E22.67825
G1 X109.205 Y133.792 E22.68214
G1 X109.188 Y133.823 E22.68317
G1 X109.092 Y133.732 E22.68529
G1 X108.988 Y133.649 E22.68821
G1 X108.9 Y133.578 E22.69151
G1 X108.842 Y133.522 E22.69385
G1 X108.504 Y133.271 E22.7061
G1 X108.252 Y133.072 E22.71545
G1 X108.161 Y132.98 E22.71921
G1 X108.096 Y132.945 E22.72136
G1 X108.034 Y132.883 E22.72391
G1 X107.63 Y132.605 E22.73819
G1 X106.317 Y131.822 E22.78268
G1 X105.959 Y131.619 E22.79465
G1 X105.69 Y131.477 E22.80351
G1 X105.258 Y131.233 E22.81795
G1 X105.024 Y131.122 E22.82548
G1 X103.123 Y130.156 E22.88754
G1 X102.729 Y129.967 E22.90026
G1 X101.607 Y129.391 E22.93696
G1 X101.284 Y129.214 E22.94768
G1 X100.832 Y128.985 E22.96243
G1 X99.04 Y127.983 E23.02218
G1 X96.384 Y126.592 E23.10943
G1 X94.196 Y125.476 E23.18092
G1 X93.174 Y124.968 E23.21413
G1 X91.241 Y123.986 E23.27723
G1 X88.564 Y122.608 E23.36485
G1 X87.728 Y122.165 E23.39239
G1 X87.388 Y121.973 E23.40375
G1 X86.89 Y121.713 E23.4201
G1 X85.279 Y120.786 E23.47419
G1 X83.653 Y119.793 E23.52964
G1 X81.99 Y118.743 E23.58688
G1 X76.276 Y115.07 E23.78456
G1 X75.106 Y114.341 E23.82468
G1 X74.831 Y114.179 E23.83397
G1 X73.671 Y113.462 E23.87366
G1 X72.595 Y112.822 E23.91009
G1 X71.952 Y112.453 E23.93167
G1 X71.514 Y112.171 E23.94683
G1 X70.82 Y111.751 E23.97044
G1 X69.546 Y110.919 E24.01472
G1 X69.086 Y110.631 E24.03051
G1 X68.646 Y110.338 E24.0459
G1 X67.764 Y109.777 E24.07632
G1 X67.339 Y109.543 E24.09044
G1 X66.989 Y109.32 E24.10252
G1 X66.309 Y108.929 E24.12534
G1 X65.372 Y108.42 E24.15638
G1 X64.983 Y108.229 E24.16899
G1 X64.509 Y108.068 E24.18356
G1 X64.45 Y108.053 E24.18533
G1 X64.339 Y108.001 E24.1889
G1 X63.848 Y107.804 E24.20429
G1 X63.727 Y107.767 E24.20797
G1 X63.599 Y107.728 E24.21187
G1 X63.463 Y107.673 E24.21614
G1 X63.476 Y107.652
G1 X63.547 Y107.539 E24.21911
G1 X64.444 Y106.12 E24.26797
G1 X65 Y105.287 E24.29711
G1 X65.356 Y104.77 E24.31538
G1 X65.695 Y104.249 E24.33347
G1 X65.965 Y103.872 E24.34697
G1 X66.067 Y103.909 E24.35012
G1 X66.127 Y103.918 E24.35189
G1 X66.17 Y103.947 E24.3534
G1 X66.247 Y103.973 E24.35576
G1 X66.313 Y104.011 E24.35798
G1 X66.323 Y104.032 E24.35866
G1 X66.461 Y104.095 E24.36307
G1 X66.527 Y104.135 E24.36532
G1 X66.762 Y104.225 E24.37264
G1 X67.524 Y104.581 E24.39712
G1 X67.797 Y104.722 E24.40606
G1 X68.08 Y104.856 E24.41517
G1 X68.999 Y105.345 E24.44547
G1 X69.877 Y105.85 E24.47495
G1 X71.851 Y107.12 E24.54326
G1 X72.332 Y107.462 E24.56043
G1 X73.312 Y108.1 E24.59447
G1 X75.305 Y109.362 E24.66312
G0 F3000 X75.474 Y109.467
G0 X75.269 Y109.793
G0 X75.132 Y109.637
;TYPE:WALL-INNER
G1 F2100 X76.513 Y110.499 E24.7105
G1 X77 Y110.791 E24.72702
G1 X78.133 Y111.547 E24.76666
G1 X78.883 Y112.025 E24.79254
G1 X80.925 Y113.352 E24.86342
G1 X81.909 Y114.008 E24.89783
G1 X82.346 Y114.289 E24.91296
G1 X83.569 Y115.108 E24.95579
G1 X84.047 Y115.399 E24.97208
G1 X84.867 Y115.934 E25.00057
G1 X86.743 Y117.113 E25.06505
G1 X88.325 Y118.031 E25.11829
G1 X89.347 Y118.606 E25.15241
G1 X90.973 Y119.445 E25.20566
G1 X91.316 Y119.63 E25.217
G1 X92.186 Y120.062 E25.24527
G1 X92.646 Y120.306 E25.26043
G1 X94.444 Y121.195 E25.3188
G1 X95.98 Y121.94 E25.36848
G1 X96.346 Y122.129 E25.38047
G1 X97.764 Y122.836 E25.42658
G1 X98.41 Y123.167 E25.44771
G1 X99.192 Y123.546 E25.473
G1 X99.772 Y123.838 E25.49189
G1 X100.202 Y124.071 E25.50613
G1 X103.066 Y125.558 E25.60004
G1 X104.035 Y126.033 E25.63145
G1 X104.584 Y126.315 E25.64941
G1 X105.575 Y126.778 E25.68124
G1 X106.505 Y127.238 E25.71144
G1 X107.423 Y127.703 E25.74139
G1 X108.345 Y128.232 E25.77232
G1 X109.195 Y128.757 E25.8014
G1 X109.599 Y129.024 E25.81549
G1 X110.413 Y129.595 E25.84443
G1 X110.551 Y129.702 E25.84951
G1 X110.805 Y129.838 E25.85789
G1 X110.188 Y131.131 E25.89959
G1 X110.042 Y131.411 E25.90878
G1 X109.913 Y131.692 E25.91778
G1 X109.356 Y132.788 E25.95356
G1 X109.238 Y133.006 E25.96077
G1 X109.224 Y133.033 E25.96166
G1 X109.099 Y133.296 E25.97013
G1 X109.092 Y133.311 E25.97061
G1 X109.053 Y133.274
G1 X109.029 Y133.256 E25.97143
G1 X108.698 Y133.01 E25.98344
G1 X108.472 Y132.832 E25.99181
G1 X108.358 Y132.717 E25.99652
G1 X108.293 Y132.682 E25.99867
G1 X108.243 Y132.632 E26.00073
G1 X107.806 Y132.331 E26.01617
G1 X106.48 Y131.541 E26.06109
G1 X106.115 Y131.334 E26.0733
G1 X105.85 Y131.194 E26.08202
G1 X105.408 Y130.944 E26.0968
G1 X105.163 Y130.828 E26.10469
G1 X103.267 Y129.865 E26.16658
G1 X102.87 Y129.674 E26.1794
G1 X101.763 Y129.106 E26.21561
G1 X101.436 Y128.926 E26.22647
G1 X100.991 Y128.701 E26.24099
G1 X99.195 Y127.697 E26.30087
G1 X96.533 Y126.303 E26.38832
G1 X94.342 Y125.186 E26.45989
G1 X93.319 Y124.677 E26.49314
G1 X91.388 Y123.696 E26.55618
G1 X88.713 Y122.319 E26.64373
G1 X87.888 Y121.882 E26.6709
G1 X87.543 Y121.687 E26.68244
G1 X87.052 Y121.431 E26.69855
G1 X85.441 Y120.505 E26.75263
G1 X83.827 Y119.519 E26.80767
G1 X82.164 Y118.468 E26.86493
G1 X76.45 Y114.795 E27.06261
G1 X75.274 Y114.063 E27.10292
G1 X74.996 Y113.899 E27.11232
G1 X73.84 Y113.184 E27.15188
G1 X72.759 Y112.541 E27.18848
G1 X72.114 Y112.171 E27.21012
G1 X71.686 Y111.895 E27.22494
G1 X70.998 Y111.479 E27.24834
G1 X69.721 Y110.645 E27.29273
G1 X69.266 Y110.361 E27.30834
G1 X68.823 Y110.066 E27.32383
G1 X67.93 Y109.497 E27.35464
G1 X67.501 Y109.261 E27.36889
G1 X67.157 Y109.042 E27.38076
G1 X66.468 Y108.645 E27.4039
G1 X65.521 Y108.131 E27.43526
G1 X65.107 Y107.928 E27.44868
G1 X64.559 Y107.745 E27.46549
G1 X64.469 Y107.703 E27.46838
G1 X64.152 Y107.575 E27.47833
